; This gcode is generated by my specialised python script for my PCB manufacturer project :))

; Machine Initialization Sequence...

G21 ; to set metric units
G90 ; to set absolute mode , G91 for incremental mode
G94 ; To set the active feed rate mode to units per minute mode

M5 ; disabling spindle PWM
C0 ; Choosing the empty tool slot in the multiplexer circuits

B1 ; Turn ON Machine

$H ; Homing :)
G10 P0 L20 X0.0Y0.0Z0.0 ; Force Reset current coordinates after homing


; The following gcode is the PCB trace laser marking gcode

M5 ; Being extra sure it won't light up before activation

; Getting and Activating Tool-1, The Tool.Laser
G00X165.0Y0.0Z10.5 ; Go to Tool-1 Home Pos
G00X188 ; Enter Female Kinematic Mount Home Pos
A1 ; Latch on Kinematic Mount
G4 P5 ; Wait for Kinematic Mount to fully attach
G00X92 ; Exit Female Kinematic Mount Home Pos
#TODO X0.0Y0.0Z0.0 ;  ;Add tool offset coordinate
C1 ; Choosing tool 1 in the choose demultiplexer circuits

F400 ; setting default feedrate

G00Z16 ; Moving to correct focal length Z position

S200 ; Setting Laser Power

; Number of passes: 1

; Pass number: 1
G01 X10.27792Y10.10497
M3
G01 X10.2684Y10.10047
G01 X10.25131Y10.09239
G01 X10.2367Y10.08716
G01 X10.22359Y10.08247
G01 X10.20218Y10.07711
G01 X10.19503Y10.07531
G01 X10.16591Y10.07099
G01 X10.1365Y10.06955
G01 X10.1365Y10.06955
G01 X9.325Y10.06955
G01 X6.389Y10.06955
G01 X6.35959Y10.07099
G01 X6.33047Y10.07531
G01 X6.30191Y10.08247
G01 X6.27419Y10.09239
G01 X6.24758Y10.10497
G01 X6.22233Y10.12011
G01 X6.19868Y10.13765
G01 X6.17687Y10.15742
G01 X5.54262Y10.79167
G01 X5.53162Y10.8038
G01 X5.47975Y10.8038
G01 X5.47975Y10.88442
G01 X5.47759Y10.88899
G01 X5.46767Y10.91671
G01 X5.46051Y10.94527
G01 X5.45619Y10.97439
G01 X5.45475Y11.0038
G01 X5.45619Y11.03321
G01 X5.46051Y11.06233
G01 X5.46767Y11.09089
G01 X5.47759Y11.11861
G01 X5.47975Y11.12318
G01 X5.47975Y11.2038
G01 X5.53162Y11.2038
G01 X5.54262Y11.21593
G01 X5.56443Y11.2357
G01 X5.58808Y11.25324
G01 X5.61333Y11.26838
G01 X5.63994Y11.28096
G01 X5.66766Y11.29088
G01 X5.69622Y11.29804
G01 X5.72534Y11.30236
G01 X5.75475Y11.3038
G01 X5.78416Y11.30236
G01 X5.81328Y11.29804
G01 X5.84184Y11.29088
G01 X5.86956Y11.28096
G01 X5.89617Y11.26838
G01 X5.92142Y11.25324
G01 X5.94507Y11.2357
G01 X5.96688Y11.21593
G01 X5.97901Y11.2038
G01 X6.02975Y11.2038
G01 X6.02975Y11.15306
G01 X6.51326Y10.66955
G01 X9.28106Y10.66955
G01 X9.29559Y10.67171
G01 X9.325Y10.67315
G01 X9.35441Y10.67171
G01 X9.36894Y10.66955
G01 X10.01224Y10.66955
G01 X10.7374Y11.39471
G01 X10.7374Y12.08555
G01 X10.7374Y12.62049
G01 X9.68849Y13.6694
G01 X8.76275Y13.6694
G01 X8.76275Y15.0194
G01 X9.68849Y15.0194
G01 X11.25762Y16.58853
G01 X11.27943Y16.6083
G01 X11.30308Y16.62584
G01 X11.32833Y16.64098
G01 X11.35494Y16.65356
G01 X11.38266Y16.66348
G01 X11.41122Y16.67064
G01 X11.44034Y16.67496
G01 X11.46975Y16.6764
G01 X16.67675Y16.6764
G01 X16.70616Y16.67496
G01 X16.73528Y16.67064
G01 X16.76384Y16.66348
G01 X16.79156Y16.65356
G01 X16.81817Y16.64098
G01 X16.84342Y16.62584
G01 X16.86707Y16.6083
G01 X16.88888Y16.58853
G01 X19.68688Y13.79053
G01 X19.70665Y13.76872
G01 X19.72419Y13.74507
G01 X19.73933Y13.71982
G01 X19.75191Y13.69321
G01 X19.76183Y13.66549
G01 X19.76899Y13.63693
G01 X19.77331Y13.60781
G01 X19.77475Y13.5784
G01 X19.77475Y10.1942
G01 X19.78725Y10.1942
G01 X19.78725Y8.9442
G01 X19.77475Y8.9442
G01 X19.77475Y7.9336
G01 X19.78725Y7.9336
G01 X19.78725Y6.6836
G01 X19.16225Y6.6836
G01 X19.16225Y7.9336
G01 X19.17475Y7.9336
G01 X19.17475Y8.9442
G01 X19.16225Y8.9442
G01 X19.16225Y10.1942
G01 X19.17475Y10.1942
G01 X19.17475Y13.45414
G01 X16.55249Y16.0764
G01 X11.59401Y16.0764
G01 X10.11275Y14.59514
G01 X10.11275Y14.09366
G01 X11.24953Y12.95688
G01 X11.2693Y12.93507
G01 X11.28684Y12.91142
G01 X11.30198Y12.88617
G01 X11.31456Y12.85956
G01 X11.32448Y12.83184
G01 X11.33164Y12.80328
G01 X11.33596Y12.77416
G01 X11.3374Y12.74475
G01 X11.3374Y12.08555
G01 X11.3374Y11.27045
G01 X11.3374Y11.27045
G01 X11.33596Y11.24104
G01 X11.33164Y11.21192
G01 X11.32448Y11.18336
G01 X11.32093Y11.17345
G01 X11.31456Y11.15564
G01 X11.30793Y11.14162
G01 X11.30198Y11.12903
G01 X11.28684Y11.10378
G01 X11.27383Y11.08624
G01 X11.2693Y11.08013
G01 X11.24953Y11.05832
G01 X11.24953Y11.05832
G01 X11.24953Y11.05832
G01 X10.34863Y10.15742
G01 X10.32682Y10.13765
G01 X10.30317Y10.12011
G01 X10.27792Y10.10497
G01 X10.27792Y10.10497
M5
G01 X9.58443Y8.94955
M3
G01 X9.57444Y8.93288
G01 X9.5569Y8.90923
G01 X9.53713Y8.88742
G01 X9.51532Y8.86765
G01 X9.49167Y8.85011
G01 X9.46642Y8.83497
G01 X9.43981Y8.82239
G01 X9.41209Y8.81247
G01 X9.38353Y8.80531
G01 X9.35441Y8.80099
G01 X9.325Y8.79955
G01 X6.05475Y8.79955
G01 X6.05475Y7.982
G01 X6.05331Y7.95259
G01 X6.04899Y7.92347
G01 X6.04183Y7.89491
G01 X6.03191Y7.86719
G01 X6.01933Y7.84058
G01 X6.00475Y7.81626
G01 X6.00475Y7.757
G01 X5.95268Y7.757
G01 X5.94507Y7.7501
G01 X5.92142Y7.73256
G01 X5.89617Y7.71742
G01 X5.86956Y7.70484
G01 X5.84184Y7.69492
G01 X5.81328Y7.68776
G01 X5.78416Y7.68344
G01 X5.75475Y7.682
G01 X5.72534Y7.68344
G01 X5.69622Y7.68776
G01 X5.66766Y7.69492
G01 X5.63994Y7.70484
G01 X5.61333Y7.71742
G01 X5.58808Y7.73256
G01 X5.56443Y7.7501
G01 X5.55682Y7.757
G01 X5.50475Y7.757
G01 X5.50475Y7.81626
G01 X5.49017Y7.84058
G01 X5.47759Y7.86719
G01 X5.46767Y7.89491
G01 X5.46051Y7.92347
G01 X5.45619Y7.95259
G01 X5.45475Y7.982
G01 X5.45475Y9.3538
G01 X5.45546Y9.36825
G01 X5.45619Y9.38321
G01 X5.45781Y9.39407
G01 X5.46051Y9.41233
G01 X5.46057Y9.41254
G01 X5.46767Y9.44089
G01 X5.47568Y9.46327
G01 X5.47759Y9.46861
G01 X5.47975Y9.47318
G01 X5.47975Y9.5538
G01 X5.53162Y9.5538
G01 X5.54262Y9.56593
G01 X5.56184Y9.58336
G01 X5.56443Y9.5857
G01 X5.58808Y9.60324
G01 X5.61333Y9.61838
G01 X5.63719Y9.62966
G01 X5.63994Y9.63096
G01 X5.66766Y9.64088
G01 X5.69259Y9.64713
G01 X5.69622Y9.64804
G01 X5.72534Y9.65236
G01 X5.74809Y9.65347
G01 X5.75475Y9.6538
G01 X5.78416Y9.65236
G01 X5.8036Y9.64947
G01 X5.81328Y9.64804
G01 X5.84184Y9.64088
G01 X5.85874Y9.63483
G01 X5.86956Y9.63096
G01 X5.89617Y9.61838
G01 X5.92142Y9.60324
G01 X5.94427Y9.58629
G01 X5.94507Y9.5857
G01 X5.96688Y9.56593
G01 X5.97901Y9.5538
G01 X6.02975Y9.5538
G01 X6.02975Y9.50306
G01 X6.13326Y9.39955
G01 X9.325Y9.39955
G01 X9.35441Y9.39811
G01 X9.38353Y9.39379
G01 X9.41209Y9.38663
G01 X9.43981Y9.37671
G01 X9.46642Y9.36413
G01 X9.49167Y9.34899
G01 X9.51532Y9.33145
G01 X9.53713Y9.31168
G01 X9.5569Y9.28987
G01 X9.57444Y9.26622
G01 X9.58443Y9.24955
G01 X10.15Y9.24955
G01 X10.15Y8.94955
G01 X9.58443Y8.94955
G01 X9.58443Y8.94955
M5
G01 X9.51532Y7.59765
M3
G01 X9.49167Y7.58011
G01 X9.46642Y7.56497
G01 X9.43981Y7.55239
G01 X9.41209Y7.54247
G01 X9.38353Y7.53531
G01 X9.35441Y7.53099
G01 X9.325Y7.52955
G01 X8.47426Y7.52955
G01 X7.68035Y6.73564
G01 X7.68035Y4.8594
G01 X8.08075Y4.8594
G01 X8.08075Y3.5094
G01 X6.73075Y3.5094
G01 X6.73075Y4.8594
G01 X7.08035Y4.8594
G01 X7.08035Y6.8599
G01 X7.08179Y6.88931
G01 X7.08611Y6.91843
G01 X7.09327Y6.94699
G01 X7.10319Y6.97471
G01 X7.11577Y7.00132
G01 X7.13091Y7.02657
G01 X7.14845Y7.05022
G01 X7.16822Y7.07203
G01 X8.13787Y8.04168
G01 X8.15968Y8.06145
G01 X8.18333Y8.07899
G01 X8.20858Y8.09413
G01 X8.23519Y8.10671
G01 X8.26291Y8.11663
G01 X8.29147Y8.12379
G01 X8.32059Y8.12811
G01 X8.35Y8.12955
G01 X9.325Y8.12955
G01 X9.35441Y8.12811
G01 X9.38353Y8.12379
G01 X9.41209Y8.11663
G01 X9.43981Y8.10671
G01 X9.46642Y8.09413
G01 X9.49167Y8.07899
G01 X9.51532Y8.06145
G01 X9.53713Y8.04168
G01 X9.5569Y8.01987
G01 X9.57444Y7.99622
G01 X9.58443Y7.97955
G01 X10.15Y7.97955
G01 X10.15Y7.67955
G01 X9.58443Y7.67955
G01 X9.57444Y7.66288
G01 X9.5569Y7.63923
G01 X9.53713Y7.61742
G01 X9.51532Y7.59765
G01 X9.51532Y7.59765
M5
G01 X9.06448Y1.70576
M3
G01 X9.03993Y1.70212
G01 X9.03536Y1.70144
G01 X9.0175Y1.70057
G01 X9.00595Y1.7
G01 X5.83095Y1.7
G01 X5.81795Y1.70064
G01 X5.80154Y1.70144
G01 X5.79069Y1.70306
G01 X5.77242Y1.70576
G01 X5.76275Y1.70819
G01 X5.74386Y1.71292
G01 X5.73381Y1.71652
G01 X5.71614Y1.72284
G01 X5.70841Y1.7265
G01 X5.68953Y1.73542
G01 X5.66428Y1.75056
G01 X5.64552Y1.76447
G01 X5.64063Y1.7681
G01 X5.61882Y1.78787
G01 X5.06002Y2.34667
G01 X5.05237Y2.35511
G01 X5.04025Y2.36848
G01 X5.03175Y2.37993
G01 X5.02271Y2.39213
G01 X5.01334Y2.40776
G01 X5.00757Y2.41738
G01 X5.00296Y2.42713
G01 X4.99499Y2.44399
G01 X4.98507Y2.47171
G01 X4.98151Y2.48594
G01 X4.97791Y2.50027
G01 X4.97359Y2.52939
G01 X4.97275Y2.54652
G01 X4.97215Y2.5588
G01 X4.97215Y5.9494
G01 X4.9725Y5.95662
G01 X4.97359Y5.97881
G01 X4.97791Y6.00793
G01 X4.98507Y6.03649
G01 X4.99499Y6.06421
G01 X5.00358Y6.08236
G01 X5.00757Y6.09082
G01 X5.02271Y6.11607
G01 X5.04025Y6.13972
G01 X5.06002Y6.16153
G01 X5.50475Y6.60626
G01 X5.50475Y6.657
G01 X5.55682Y6.657
G01 X5.56443Y6.6639
G01 X5.58808Y6.68144
G01 X5.61333Y6.69658
G01 X5.63994Y6.70916
G01 X5.66766Y6.71908
G01 X5.69622Y6.72624
G01 X5.72534Y6.73056
G01 X5.75475Y6.732
G01 X5.78416Y6.73056
G01 X5.81328Y6.72624
G01 X5.84184Y6.71908
G01 X5.86956Y6.70916
G01 X5.89617Y6.69658
G01 X5.92142Y6.68144
G01 X5.94507Y6.6639
G01 X5.95268Y6.657
G01 X6.00475Y6.657
G01 X6.00475Y6.59774
G01 X6.01933Y6.57342
G01 X6.03191Y6.54681
G01 X6.04183Y6.51909
G01 X6.04899Y6.49053
G01 X6.05331Y6.46141
G01 X6.05475Y6.432
G01 X6.05331Y6.40259
G01 X6.04899Y6.37347
G01 X6.04183Y6.34491
G01 X6.03191Y6.31719
G01 X6.01933Y6.29058
G01 X6.00475Y6.26626
G01 X6.00475Y6.207
G01 X5.95401Y6.207
G01 X5.57215Y5.82514
G01 X5.57215Y2.68306
G01 X5.95521Y2.3
G01 X8.88169Y2.3
G01 X10.18985Y3.60816
G01 X10.18985Y4.01835
G01 X10.17735Y4.01835
G01 X10.17735Y5.26835
G01 X10.18985Y5.26835
G01 X10.18985Y6.25955
G01 X9.325Y6.25955
G01 X9.29559Y6.26099
G01 X9.26647Y6.26531
G01 X9.23791Y6.27247
G01 X9.21019Y6.28239
G01 X9.18358Y6.29497
G01 X9.15833Y6.31011
G01 X9.13468Y6.32765
G01 X9.11287Y6.34742
G01 X9.0931Y6.36923
G01 X9.07556Y6.39288
G01 X9.06557Y6.40955
G01 X8.5Y6.40955
G01 X8.5Y6.70955
G01 X9.06557Y6.70955
G01 X9.07556Y6.72622
G01 X9.0931Y6.74987
G01 X9.11287Y6.77168
G01 X9.13468Y6.79145
G01 X9.15833Y6.80899
G01 X9.18358Y6.82413
G01 X9.21019Y6.83671
G01 X9.23791Y6.84663
G01 X9.26647Y6.85379
G01 X9.29559Y6.85811
G01 X9.325Y6.85955
G01 X10.17574Y6.85955
G01 X11.07267Y7.75648
G01 X11.37295Y8.05676
G01 X11.37295Y10.3311
G01 X11.37439Y10.36051
G01 X11.37871Y10.38963
G01 X11.38587Y10.41819
G01 X11.38942Y10.4281
G01 X11.39579Y10.44591
G01 X11.40242Y10.45993
G01 X11.40837Y10.47252
G01 X11.42351Y10.49777
G01 X11.43652Y10.51531
G01 X11.44105Y10.52142
G01 X11.46082Y10.54323
G01 X12.2874Y11.36981
G01 X12.2874Y12.08555
G01 X12.2874Y12.76965
G01 X12.28884Y12.79906
G01 X12.29316Y12.82818
G01 X12.30032Y12.85674
G01 X12.31024Y12.88446
G01 X12.32282Y12.91107
G01 X12.33796Y12.93632
G01 X12.3555Y12.95997
G01 X12.37527Y12.98178
G01 X13.53795Y14.14446
G01 X13.53795Y15.0194
G01 X14.88795Y15.0194
G01 X14.88795Y13.6694
G01 X13.91141Y13.6694
G01 X12.8874Y12.64539
G01 X12.8874Y12.20236
G01 X12.88939Y12.19967
G01 X12.90453Y12.17442
G01 X12.91711Y12.14781
G01 X12.92703Y12.12009
G01 X12.93419Y12.09153
G01 X12.93851Y12.06241
G01 X12.93995Y12.033
G01 X12.93851Y12.00359
G01 X12.93419Y11.97447
G01 X12.92703Y11.94591
G01 X12.91711Y11.91819
G01 X12.90453Y11.89158
G01 X12.88939Y11.86633
G01 X12.8874Y11.86364
G01 X12.8874Y11.36981
G01 X13.58766Y10.66955
G01 X14.275Y10.66955
G01 X14.30441Y10.66811
G01 X14.33353Y10.66379
G01 X14.36209Y10.65663
G01 X14.38981Y10.64671
G01 X14.41642Y10.63413
G01 X14.44167Y10.61899
G01 X14.46532Y10.60145
G01 X14.48713Y10.58168
G01 X14.5069Y10.55987
G01 X14.52444Y10.53622
G01 X14.53443Y10.51955
G01 X15.1Y10.51955
G01 X15.1Y10.21955
G01 X14.53443Y10.21955
G01 X14.52444Y10.20288
G01 X14.5069Y10.17923
G01 X14.48713Y10.15742
G01 X14.46532Y10.13765
G01 X14.44167Y10.12011
G01 X14.41642Y10.10497
G01 X14.38981Y10.09239
G01 X14.36209Y10.08247
G01 X14.33353Y10.07531
G01 X14.30441Y10.07099
G01 X14.275Y10.06955
G01 X13.4634Y10.06955
G01 X13.43399Y10.07099
G01 X13.40487Y10.07531
G01 X13.37631Y10.08247
G01 X13.3664Y10.08602
G01 X13.34859Y10.09239
G01 X13.33457Y10.09902
G01 X13.32198Y10.10497
G01 X13.29673Y10.12011
G01 X13.27919Y10.13312
G01 X13.27308Y10.13765
G01 X13.25127Y10.15742
G01 X12.5874Y10.82129
G01 X11.97295Y10.20684
G01 X11.97295Y7.9325
G01 X11.97151Y7.90309
G01 X11.96719Y7.87397
G01 X11.96003Y7.84541
G01 X11.95011Y7.81769
G01 X11.93753Y7.79108
G01 X11.92239Y7.76583
G01 X11.90485Y7.74218
G01 X11.88508Y7.72037
G01 X11.49693Y7.33222
G01 X10.78985Y6.62514
G01 X10.78985Y5.26835
G01 X10.80235Y5.26835
G01 X10.80235Y4.01835
G01 X10.78985Y4.01835
G01 X10.78985Y3.4839
G01 X10.78841Y3.45449
G01 X10.78409Y3.42537
G01 X10.77693Y3.39681
G01 X10.77427Y3.38937
G01 X10.76701Y3.36909
G01 X10.75889Y3.35191
G01 X10.75443Y3.34248
G01 X10.73929Y3.31723
G01 X10.72175Y3.29358
G01 X10.70198Y3.27177
G01 X9.21808Y1.78787
G01 X9.19627Y1.7681
G01 X9.18033Y1.75628
G01 X9.17262Y1.75056
G01 X9.14737Y1.73542
G01 X9.1445Y1.73407
G01 X9.12076Y1.72284
G01 X9.09304Y1.71292
G01 X9.09294Y1.7129
G01 X9.06448Y1.70576
G01 X9.06448Y1.70576
M5
G01 X14.38981Y6.83671
M3
G01 X14.41642Y6.82413
G01 X14.44167Y6.80899
G01 X14.46532Y6.79145
G01 X14.48713Y6.77168
G01 X14.5069Y6.74987
G01 X14.52444Y6.72622
G01 X14.53443Y6.70955
G01 X15.1Y6.70955
G01 X15.1Y6.40955
G01 X14.53443Y6.40955
G01 X14.52444Y6.39288
G01 X14.5069Y6.36923
G01 X14.48713Y6.34742
G01 X13.71485Y5.57514
G01 X13.71485Y5.26835
G01 X13.72735Y5.26835
G01 X13.72735Y4.01835
G01 X13.10235Y4.01835
G01 X13.10235Y5.26835
G01 X13.11485Y5.26835
G01 X13.11485Y5.6994
G01 X13.11629Y5.72881
G01 X13.12061Y5.75793
G01 X13.12777Y5.78649
G01 X13.13769Y5.81421
G01 X13.15027Y5.84082
G01 X13.16541Y5.86607
G01 X13.18295Y5.88972
G01 X13.20272Y5.91153
G01 X13.70074Y6.40955
G01 X13.45Y6.40955
G01 X13.45Y6.70955
G01 X14.00074Y6.70955
G01 X14.06287Y6.77168
G01 X14.08468Y6.79145
G01 X14.10833Y6.80899
G01 X14.13358Y6.82413
G01 X14.16019Y6.83671
G01 X14.18791Y6.84663
G01 X14.21647Y6.85379
G01 X14.24559Y6.85811
G01 X14.275Y6.85955
G01 X14.30441Y6.85811
G01 X14.33353Y6.85379
G01 X14.36209Y6.84663
G01 X14.38981Y6.83671
G01 X14.38981Y6.83671
M5
G01 X14.0431Y8.01987
M3
G01 X14.06287Y8.04168
G01 X14.08468Y8.06145
G01 X14.10833Y8.07899
G01 X14.13358Y8.09413
G01 X14.16019Y8.10671
G01 X14.18791Y8.11663
G01 X14.21647Y8.12379
G01 X14.24559Y8.12811
G01 X14.275Y8.12955
G01 X16.0288Y8.12955
G01 X16.05821Y8.12811
G01 X16.08733Y8.12379
G01 X16.11589Y8.11663
G01 X16.14361Y8.10671
G01 X16.17022Y8.09413
G01 X16.19547Y8.07899
G01 X16.21912Y8.06145
G01 X16.24093Y8.04168
G01 X16.34901Y7.9336
G01 X16.86225Y7.9336
G01 X16.86225Y6.6836
G01 X16.84975Y6.6836
G01 X16.84975Y5.46636
G01 X16.97411Y5.342
G01 X17.91055Y5.342
G01 X17.91055Y3.992
G01 X16.56055Y3.992
G01 X16.56055Y4.90704
G01 X16.33762Y5.12997
G01 X16.33762Y5.12997
G01 X16.31785Y5.15178
G01 X16.30829Y5.16466
G01 X16.30031Y5.17543
G01 X16.29497Y5.18433
G01 X16.28517Y5.20068
G01 X16.27705Y5.21785
G01 X16.27259Y5.22729
G01 X16.26267Y5.25501
G01 X16.25551Y5.28357
G01 X16.25119Y5.31269
G01 X16.24975Y5.3421
G01 X16.24975Y5.3421
G01 X16.24975Y5.3421
G01 X16.24975Y6.6836
G01 X16.23725Y6.6836
G01 X16.23725Y7.19684
G01 X15.90454Y7.52955
G01 X14.275Y7.52955
G01 X14.24559Y7.53099
G01 X14.21647Y7.53531
G01 X14.18791Y7.54247
G01 X14.16019Y7.55239
G01 X14.13358Y7.56497
G01 X14.10833Y7.58011
G01 X14.08468Y7.59765
G01 X14.06287Y7.61742
G01 X14.0431Y7.63923
G01 X14.02556Y7.66288
G01 X14.01557Y7.67955
G01 X13.45Y7.67955
G01 X13.45Y7.97955
G01 X14.01557Y7.97955
G01 X14.02556Y7.99622
G01 X14.0431Y8.01987
G01 X14.0431Y8.01987
M5
G01 X14.21647Y9.39379
M3
G01 X14.24559Y9.39811
G01 X14.275Y9.39955
G01 X15.95584Y9.39955
G01 X16.23725Y9.68096
G01 X16.23725Y10.1942
G01 X16.24975Y10.1942
G01 X16.24975Y11.5357
G01 X16.24975Y11.5357
G01 X16.24975Y11.5357
G01 X16.25119Y11.56511
G01 X16.25551Y11.59423
G01 X16.26267Y11.62279
G01 X16.27259Y11.65051
G01 X16.27648Y11.65875
G01 X16.28517Y11.67712
G01 X16.29383Y11.69156
G01 X16.30031Y11.70237
G01 X16.31065Y11.71631
G01 X16.31785Y11.72602
G01 X16.33762Y11.74783
G01 X16.33762Y11.74783
G01 X16.33762Y11.74783
G01 X16.56055Y11.97076
G01 X16.56055Y12.8858
G01 X17.91055Y12.8858
G01 X17.91055Y11.5358
G01 X16.97411Y11.5358
G01 X16.84975Y11.41144
G01 X16.84975Y10.1942
G01 X16.86225Y10.1942
G01 X16.86225Y8.9442
G01 X16.34901Y8.9442
G01 X16.29223Y8.88742
G01 X16.27042Y8.86765
G01 X16.24677Y8.85011
G01 X16.22152Y8.83497
G01 X16.19491Y8.82239
G01 X16.16719Y8.81247
G01 X16.13863Y8.80531
G01 X16.10951Y8.80099
G01 X16.0801Y8.79955
G01 X14.275Y8.79955
G01 X14.24559Y8.80099
G01 X14.21647Y8.80531
G01 X14.18791Y8.81247
G01 X14.16019Y8.82239
G01 X14.13358Y8.83497
G01 X14.10833Y8.85011
G01 X14.08468Y8.86765
G01 X14.06287Y8.88742
G01 X14.0431Y8.90923
G01 X14.02556Y8.93288
G01 X14.01557Y8.94955
G01 X13.45Y8.94955
G01 X13.45Y9.24955
G01 X14.01557Y9.24955
G01 X14.02556Y9.26622
G01 X14.0431Y9.28987
G01 X14.06287Y9.31168
G01 X14.08468Y9.33145
G01 X14.10833Y9.34899
G01 X14.13358Y9.36413
G01 X14.16019Y9.37671
G01 X14.18791Y9.38663
G01 X14.21647Y9.39379
G01 X14.21647Y9.39379
M5
G01 X149.76464Y-125.98841
M3
G01 X149.95945Y-125.78822
G01 X150.15397Y-125.58775
G01 X150.3482Y-125.38699
G01 X150.54214Y-125.18596
G01 X150.73579Y-124.98464
G01 X150.92915Y-124.78304
G01 X151.12221Y-124.58116
G01 X151.31498Y-124.379
G01 X151.50746Y-124.17657
G01 X151.69965Y-123.97385
G01 X151.89153Y-123.77085
G01 X152.08313Y-123.56758
G01 X152.27443Y-123.36403
G01 X152.46543Y-123.1602
G01 X152.65614Y-122.9561
G01 X152.84656Y-122.75172
G01 X153.03667Y-122.54706
G01 X153.22649Y-122.34213
G01 X153.41601Y-122.13692
G01 X153.60524Y-121.93144
G01 X153.79417Y-121.72568
G01 X153.98279Y-121.51965
G01 X154.17112Y-121.31335
G01 X154.35915Y-121.10678
G01 X154.54688Y-120.89993
G01 X154.73431Y-120.69281
G01 X154.92144Y-120.48542
G01 X155.10827Y-120.27775
G01 X155.29479Y-120.06982
G01 X155.48102Y-119.86162
G01 X155.66694Y-119.65314
G01 X155.85256Y-119.4444
G01 X156.03788Y-119.23539
G01 X156.22289Y-119.02611
G01 X156.40761Y-118.81656
G01 X156.59201Y-118.60674
G01 X156.77611Y-118.39666
G01 X156.95991Y-118.18631
G01 X157.1434Y-117.97569
G01 X157.32659Y-117.76481
G01 X157.50947Y-117.55366
G01 X157.69205Y-117.34225
G01 X157.87431Y-117.13057
G01 X158.05627Y-116.91863
G01 X158.23793Y-116.70643
G01 X158.41927Y-116.49396
G01 X158.60031Y-116.28123
G01 X158.78104Y-116.06824
G01 X158.96145Y-115.85498
G01 X159.03785Y-115.91952
G01 X158.85733Y-116.13288
G01 X158.67651Y-116.34599
G01 X158.49538Y-116.55883
G01 X158.31394Y-116.7714
G01 X158.13219Y-116.98372
G01 X157.95014Y-117.19577
G01 X157.76778Y-117.40756
G01 X157.58511Y-117.61908
G01 X157.40213Y-117.83034
G01 X157.21885Y-118.04133
G01 X157.03526Y-118.25205
G01 X156.85137Y-118.46251
G01 X156.66717Y-118.6727
G01 X156.48267Y-118.88263
G01 X156.29786Y-119.09229
G01 X156.11275Y-119.30168
G01 X155.92734Y-119.5108
G01 X155.74162Y-119.71965
G01 X155.5556Y-119.92823
G01 X155.36928Y-120.13654
G01 X155.18266Y-120.34458
G01 X154.99573Y-120.55235
G01 X154.80851Y-120.75985
G01 X154.62098Y-120.96708
G01 X154.43315Y-121.17404
G01 X154.24503Y-121.38072
G01 X154.0566Y-121.58713
G01 X153.86787Y-121.79327
G01 X153.67885Y-121.99913
G01 X153.48953Y-122.20472
G01 X153.29991Y-122.41003
G01 X153.10999Y-122.61507
G01 X152.91977Y-122.81983
G01 X152.72926Y-123.02432
G01 X152.53845Y-123.22853
G01 X152.34735Y-123.43246
G01 X152.15595Y-123.63612
G01 X151.96426Y-123.8395
G01 X151.77227Y-124.0426
G01 X151.57998Y-124.24542
G01 X151.3874Y-124.44796
G01 X151.19453Y-124.65022
G01 X151.00137Y-124.85221
G01 X150.80791Y-125.05391
G01 X150.61416Y-125.25533
G01 X150.42012Y-125.45647
G01 X150.22579Y-125.65733
G01 X150.03117Y-125.85791
G01 X149.83625Y-126.05821
G01 X149.76464Y-125.98841
G01 X149.76464Y-125.98841
M5
G01 X147.77681Y-106.74468
M3
G01 X147.60962Y-106.94173
G01 X147.44213Y-107.13853
G01 X147.27437Y-107.33509
G01 X147.10631Y-107.53141
G01 X146.93798Y-107.72748
G01 X146.76935Y-107.92331
G01 X146.60045Y-108.11889
G01 X146.43126Y-108.31423
G01 X146.26179Y-108.50933
G01 X146.09203Y-108.70417
G01 X145.922Y-108.89878
G01 X145.75168Y-109.09313
G01 X145.58108Y-109.28724
G01 X145.4102Y-109.4811
G01 X145.23903Y-109.67471
G01 X145.06759Y-109.86807
G01 X144.89587Y-110.06119
G01 X144.72386Y-110.25405
G01 X144.55158Y-110.44667
G01 X144.37902Y-110.63904
G01 X144.20618Y-110.83115
G01 X144.03306Y-111.02302
G01 X143.85966Y-111.21463
G01 X143.68599Y-111.40599
G01 X143.51204Y-111.5971
G01 X143.33781Y-111.78796
G01 X143.1633Y-111.97856
G01 X142.98852Y-112.16891
G01 X142.81346Y-112.35901
G01 X142.63813Y-112.54885
G01 X142.46252Y-112.73844
G01 X142.28664Y-112.92778
G01 X142.11048Y-113.11686
G01 X141.93405Y-113.30568
G01 X141.75735Y-113.49425
G01 X141.58037Y-113.68256
G01 X141.40312Y-113.87061
G01 X141.2256Y-114.05841
G01 X141.0478Y-114.24595
G01 X140.86973Y-114.43323
G01 X140.69139Y-114.62025
G01 X140.51278Y-114.80702
G01 X140.3339Y-114.99352
G01 X140.15475Y-115.17977
G01 X139.97533Y-115.36575
G01 X139.79564Y-115.55148
G01 X139.61569Y-115.73694
G01 X139.43546Y-115.92215
G01 X139.36384Y-115.85235
G01 X139.54397Y-115.66725
G01 X139.72383Y-115.48189
G01 X139.90342Y-115.29627
G01 X140.08273Y-115.11039
G01 X140.26178Y-114.92425
G01 X140.44056Y-114.73785
G01 X140.61907Y-114.55119
G01 X140.79731Y-114.36427
G01 X140.97528Y-114.1771
G01 X141.15297Y-113.98966
G01 X141.3304Y-113.80197
G01 X141.50755Y-113.61402
G01 X141.68443Y-113.42582
G01 X141.86103Y-113.23736
G01 X142.03737Y-113.04864
G01 X142.21342Y-112.85966
G01 X142.38921Y-112.67044
G01 X142.56472Y-112.48095
G01 X142.73995Y-112.29122
G01 X142.91491Y-112.10123
G01 X143.08959Y-111.91098
G01 X143.264Y-111.72048
G01 X143.43813Y-111.52973
G01 X143.61199Y-111.33873
G01 X143.78556Y-111.14748
G01 X143.95886Y-110.95597
G01 X144.13189Y-110.76421
G01 X144.30463Y-110.57221
G01 X144.47709Y-110.37995
G01 X144.64928Y-110.18744
G01 X144.82119Y-109.99468
G01 X144.99281Y-109.80168
G01 X145.16416Y-109.60842
G01 X145.33523Y-109.41492
G01 X145.50601Y-109.22117
G01 X145.67652Y-109.02717
G01 X145.84674Y-108.83292
G01 X146.01668Y-108.63843
G01 X146.18634Y-108.44369
G01 X146.35572Y-108.24871
G01 X146.52481Y-108.05348
G01 X146.69362Y-107.858
G01 X146.86215Y-107.66228
G01 X147.03039Y-107.46632
G01 X147.19835Y-107.27011
G01 X147.36603Y-107.07366
G01 X147.53341Y-106.87697
G01 X147.70052Y-106.68004
G01 X147.86734Y-106.48286
G01 X147.94373Y-106.54739
G01 X147.77681Y-106.74468
G01 X147.77681Y-106.74468
M5

M5 ; Disable End-Effector Signal

; Returning the Deactivating Tool-1
C0 ; PWM Tool select demultiplexer to select tool zero which is the empty tool slot in multiplexers
#TODO X-0.0Y-0.0Z-0.0 ;  ;Remove tool offset coordinate
G00X165.0Y0.0Z10.5 ; Go to Tool-1 Home Pos
G00X92 ; Enter Female Kinematic Mount Home Pos
A0 ; Latch OFF Kinematic Mount
G4 P5 ; Wait for Kinematic Mount to fully detach
G00X188 ; Exit Female Kinematic Mount Home Pos

; Machine deinitialization Sequence... 
G00X0.0Y0.0Z0.0
B0 ; Turn Machine OFF
