; This gcode is generated by my specialised python script for my PCB manufacturer project :))

; Machine Initialization Sequence...

G21 ; to set metric units
G90 ; to set absolute mode , G91 for incremental mode
G94 ; To set the active feed rate mode to units per minute mode

M5 ; disabling spindle PWM
C0 ; Choosing the empty tool slot in the multiplexer circuits

B1 ; Turn ON Machine

$H ; Homing :)
G10 P0 L20 X0.0Y0.0Z0.0 ; Force Reset current coordinates after homing


; The following gcode is the PCB holes drill gcode

; Getting and Activating Tool-2, The Tool.Spindle
G00X165.0Y91.0Z12.0 ; Go to Tool-2 Home Pos
G00X188 ; Enter Female Kinematic Mount Home Pos
A1 ; Latch on Kinematic Mount
G4 P5 ; Wait for Kinematic Mount to fully attach
G00X92 ; Exit Female Kinematic Mount Home Pos
#TODO X0.0Y0.0Z0.0 ;  ;Add tool offset coordinate
C2 ; Choosing tool 2 in the choose demultiplexer circuits

F600 ; setting default feedrate

S230 ; sets pwm speed when we enable it

G01 Z10F20 ; Moving Spindle to UP Postion

M3 ; Turn Motor ON
G4 P2 ; dwell for 2 seconds so motor reaches full RPM

G01 X33.75Y85.185F600
G01 Z13F1
G01 Z10F20
G01 X23.59Y85.185F600
G01 Z13F1
G01 Z10F20
G01 X33.75Y70.58F600
G01 Z13F1
G01 Z10F20
G01 X23.59Y70.58F600
G01 Z13F1
G01 Z10F20
G01 X33.75Y115.3475F600
G01 Z13F1
G01 Z10F20
G01 X23.59Y115.3475F600
G01 Z13F1
G01 Z10F20
G01 X33.75Y100.7425F600
G01 Z13F1
G01 Z10F20
G01 X23.59Y100.7425F600
G01 Z13F1
G01 Z10F20
G01 X23.59Y40.4175F600
G01 Z13F1
G01 Z10F20
G01 X33.75Y40.4175F600
G01 Z13F1
G01 Z10F20
G01 X23.59Y55.0225F600
G01 Z13F1
G01 Z10F20
G01 X33.75Y55.0225F600
G01 Z13F1
G01 Z10F20
G01 X23.59Y10.5725F600
G01 Z13F1
G01 Z10F20
G01 X33.75Y10.5725F600
G01 Z13F1
G01 Z10F20
G01 X23.59Y25.1775F600
G01 Z13F1
G01 Z10F20
G01 X33.75Y25.1775F600
G01 Z13F1
G01 Z10F20
G01 X33.75Y90.9F600
G01 Z13F1
G01 Z10F20
G01 X23.59Y90.9F600
G01 Z13F1
G01 Z10F20
G01 X33.75Y121.0625F600
G01 Z13F1
G01 Z10F20
G01 X23.59Y121.0625F600
G01 Z13F1
G01 Z10F20
G01 X23.59Y60.7375F600
G01 Z13F1
G01 Z10F20
G01 X33.75Y60.7375F600
G01 Z13F1
G01 Z10F20
G01 X23.59Y30.8925F600
G01 Z13F1
G01 Z10F20
G01 X33.75Y30.8925F600
G01 Z13F1
G01 Z10F20
G01 X76.93Y61.3725F600
G01 Z13F1
G01 Z10F20
G01 X76.93Y53.7525F600
G01 Z13F1
G01 Z10F20
G01 X76.93Y48.6725F600
G01 Z13F1
G01 Z10F20
G01 X76.93Y43.5925F600
G01 Z13F1
G01 Z10F20
G01 X69.31Y43.5925F600
G01 Z13F1
G01 Z10F20
G01 X69.31Y48.6725F600
G01 Z13F1
G01 Z10F20
G01 X69.31Y53.7525F600
G01 Z13F1
G01 Z10F20
G01 X69.31Y61.3725F600
G01 Z13F1
G01 Z10F20
G01 X69.31Y65.1825F600
G01 Z13F1
G01 Z10F20
G01 X76.93Y65.1825F600
G01 Z13F1
G01 Z10F20
G01 X68.3575Y101.3775F600
G01 Z13F1
G01 Z10F20
G01 X68.3575Y98.8375F600
G01 Z13F1
G01 Z10F20
G01 X60.7375Y98.8375F600
G01 Z13F1
G01 Z10F20
G01 X60.7375Y101.3775F600
G01 Z13F1
G01 Z10F20
G01 X68.3575Y96.2975F600
G01 Z13F1
G01 Z10F20
G01 X68.3575Y93.7575F600
G01 Z13F1
G01 Z10F20
G01 X60.7375Y96.2975F600
G01 Z13F1
G01 Z10F20
G01 X60.7375Y93.7575F600
G01 Z13F1
G01 Z10F20
G01 X70.58Y68.3575F600
G01 Z13F1
G01 Z10F20
G01 X73.12Y70.8975F600
G01 Z13F1
G01 Z10F20
G01 X75.66Y68.3575F600
G01 Z13F1
G01 Z10F20
G01 X68.04Y88.0425F600
G01 Z13F1
G01 Z10F20
G01 X60.42Y88.0425F600
G01 Z13F1
G01 Z10F20
G01 X80.105Y108.9975F600
G01 Z13F1
G01 Z10F20
G01 X72.485Y108.9975F600
G01 Z13F1
G01 Z10F20
G01 X78.835Y101.3775F600
G01 Z13F1
G01 Z10F20
G01 X76.295Y101.3775F600
G01 Z13F1
G01 Z10F20
G01 X73.755Y101.3775F600
G01 Z13F1
G01 Z10F20
G01 X72.485Y106.4575F600
G01 Z13F1
G01 Z10F20
G01 X80.105Y106.4575F600
G01 Z13F1
G01 Z10F20
G01 X68.04Y85.5025F600
G01 Z13F1
G01 Z10F20
G01 X60.42Y85.5025F600
G01 Z13F1
G01 Z10F20
G01 X80.4225Y19.15F600
G01 Z13F1
G01 Z10F20
G01 X80.4225Y26.765F600
G01 Z13F1
G01 Z10F20
G01 X67.405Y5.81F600
G01 Z13F1
G01 Z10F20
G01 X67.405Y32.48F600
G01 Z13F1
G01 Z10F20
G01 X54.07Y18.8275F600
G01 Z13F1
G01 Z10F20
G01 X54.07Y10.89F600
G01 Z13F1
G01 Z10F20
G01 X59.15Y10.89F600
G01 Z13F1
G01 Z10F20
G01 X59.15Y18.8275F600
G01 Z13F1
G01 Z10F20
G01 X57.88Y56.61F600
G01 Z13F1
G01 Z10F20
G01 X62.96Y56.61F600
G01 Z13F1
G01 Z10F20
G01 X57.88Y78.2F600
G01 Z13F1
G01 Z10F20
G01 X62.96Y78.2F600
G01 Z13F1
G01 Z10F20
G01 X55.975Y136.9375F600
G01 Z13F1
G01 Z10F20
G01 X66.135Y136.9375F600
G01 Z13F1
G01 Z10F20
G01 X55.975Y30.8925F600
G01 Z13F1
G01 Z10F20
G01 X55.975Y23.2725F600
G01 Z13F1
G01 Z10F20
G01 X59.15Y23.2725F600
G01 Z13F1
G01 Z10F20
G01 X59.15Y30.8925F600
G01 Z13F1
G01 Z10F20
G01 X62.96Y42.3225F600
G01 Z13F1
G01 Z10F20
G01 X60.42Y42.3225F600
G01 Z13F1
G01 Z10F20
G01 X57.88Y42.3225F600
G01 Z13F1
G01 Z10F20
G01 X61.69Y48.99F600
G01 Z13F1
G01 Z10F20
G01 X59.15Y48.99F600
G01 Z13F1
G01 Z10F20
G01 X53.435Y42.3225F600
G01 Z13F1
G01 Z10F20
G01 X53.435Y49.9425F600
G01 Z13F1
G01 Z10F20
G01 X48.0375Y35.3375F600
G01 Z13F1
G01 Z10F20
G01 X50.5775Y37.8775F600
G01 Z13F1
G01 Z10F20
G01 X53.1175Y35.3375F600
G01 Z13F1
G01 Z10F20
G01 X68.04Y90.5825F600
G01 Z13F1
G01 Z10F20
G01 X60.42Y90.5825F600
G01 Z13F1
G01 Z10F20
G01 X75.3425Y93.1225F600
G01 Z13F1
G01 Z10F20
G01 X77.8825Y93.1225F600
G01 Z13F1
G01 Z10F20
G01 X54.3875Y120.11F600
G01 Z13F1
G01 Z10F20
G01 X54.3875Y127.73F600
G01 Z13F1
G01 Z10F20
G01 X39.465Y129.635F600
G01 Z13F1
G01 Z10F20
G01 X29.305Y129.635F600
G01 Z13F1
G01 Z10F20
G01 X60.7375Y104.87F600
G01 Z13F1
G01 Z10F20
G01 X68.3575Y104.87F600
G01 Z13F1
G01 Z10F20
G01 X62.0075Y108.9975F600
G01 Z13F1
G01 Z10F20
G01 X67.0875Y108.9975F600
G01 Z13F1
G01 Z10F20
G01 X79.8637Y79.8256F600
G01 Z13F1
G01 Z10F20
G01 X79.8637Y75.3044F600
G01 Z13F1
G01 Z10F20
G01 X73.3613Y79.8256F600
G01 Z13F1
G01 Z10F20
G01 X73.3613Y75.3044F600
G01 Z13F1
G01 Z10F20
G01 X73.3613Y83.2419F600
G01 Z13F1
G01 Z10F20
G01 X73.3613Y87.7631F600
G01 Z13F1
G01 Z10F20
G01 X79.8637Y83.2419F600
G01 Z13F1
G01 Z10F20
G01 X79.8637Y87.7631F600
G01 Z13F1
G01 Z10F20
G01 X72.485Y111.5375F600
G01 Z13F1
G01 Z10F20
G01 X80.105Y111.5375F600
G01 Z13F1
G01 Z10F20
G01 X23.59Y93.7575F600
G01 Z13F1
G01 Z10F20
G01 X33.75Y93.7575F600
G01 Z13F1
G01 Z10F20
G01 X14.7Y95.98F600
G01 Z13F1
G01 Z10F20
G01 X14.7Y35.655F600
G01 Z13F1
G01 Z10F20
G01 X68.3575Y118.5225F600
G01 Z13F1
G01 Z10F20
G01 X68.3575Y129.0F600
G01 Z13F1
G01 Z10F20
G01 X6.1275Y141.065F600
G01 Z13F1
G01 Z10F20
G01 X6.1275Y7.715F600
G01 Z13F1
G01 Z10F20
G01 X83.5975Y141.065F600
G01 Z13F1
G01 Z10F20
G01 X83.5975Y7.715F600
G01 Z13F1
G01 Z10F20

M5 ; disabling spindle PWM

; Returning the Deactivating Tool-2
C0 ; PWM Tool select demultiplexer to select tool zero which is the empty tool slot in multiplexers
#TODO X-0.0Y-0.0Z-0.0 ;  ;Remove tool offset coordinate
G00X165.0Y91.0Z12.0 ; Go to Tool-2 Home Pos
G00X92 ; Enter Female Kinematic Mount Home Pos
A0 ; Latch OFF Kinematic Mount
G4 P5 ; Wait for Kinematic Mount to fully detach
G00X188 ; Exit Female Kinematic Mount Home Pos

; Machine deinitialization Sequence... 
G00X0.0Y0.0Z0.0
B0 ; Turn Machine OFF
