; This gcode is generated by my specialised python script for my PCB manufacturer project :))

; Machine Initialization Sequence...

G21 ; to set metric units
G90 ; to set absolute mode , G91 for incremental mode
G94 ; To set the active feed rate mode to units per minute mode

M5 ; disabling spindle PWM
C0 ; Choosing the empty tool slot in the multiplexer circuits

B1 ; Turn ON Machine

$H ; Homing :)
G10 P0 L20 X0.0Y0.0Z0.0 ; Force Reset current coordinates after homing


; The following gcode is the PCB holes drill gcode

; Getting and Activating Tool-2, The Tool.Spindle
G00X165.0Y91.0Z12.0 ; Go to Tool-2 Home Pos
G00X188 ; Enter Female Kinematic Mount Home Pos
A1 ; Latch on Kinematic Mount
G4 P5 ; Wait for Kinematic Mount to fully attach
G00X92 ; Exit Female Kinematic Mount Home Pos
#TODO X0.0Y0.0Z0.0 ;  ;Add tool offset coordinate
C2 ; Choosing tool 2 in the choose demultiplexer circuits

F600 ; setting default feedrate

S230 ; sets pwm speed when we enable it

G01 Z10F20 ; Moving Spindle to UP Postion

M3 ; Turn Motor ON
G4 P2 ; dwell for 2 seconds so motor reaches full RPM

G01 X85.185Y57.245F600
G01 Z13F1
G01 Z10F20
G01 X85.185Y67.405F600
G01 Z13F1
G01 Z10F20
G01 X70.58Y57.245F600
G01 Z13F1
G01 Z10F20
G01 X70.58Y67.405F600
G01 Z13F1
G01 Z10F20
G01 X115.3475Y57.245F600
G01 Z13F1
G01 Z10F20
G01 X115.3475Y67.405F600
G01 Z13F1
G01 Z10F20
G01 X100.7425Y57.245F600
G01 Z13F1
G01 Z10F20
G01 X100.7425Y67.405F600
G01 Z13F1
G01 Z10F20
G01 X40.4175Y67.405F600
G01 Z13F1
G01 Z10F20
G01 X40.4175Y57.245F600
G01 Z13F1
G01 Z10F20
G01 X55.0225Y67.405F600
G01 Z13F1
G01 Z10F20
G01 X55.0225Y57.245F600
G01 Z13F1
G01 Z10F20
G01 X10.5725Y67.405F600
G01 Z13F1
G01 Z10F20
G01 X10.5725Y57.245F600
G01 Z13F1
G01 Z10F20
G01 X25.1775Y67.405F600
G01 Z13F1
G01 Z10F20
G01 X25.1775Y57.245F600
G01 Z13F1
G01 Z10F20
G01 X90.9Y57.245F600
G01 Z13F1
G01 Z10F20
G01 X90.9Y67.405F600
G01 Z13F1
G01 Z10F20
G01 X121.0625Y57.245F600
G01 Z13F1
G01 Z10F20
G01 X121.0625Y67.405F600
G01 Z13F1
G01 Z10F20
G01 X60.7375Y67.405F600
G01 Z13F1
G01 Z10F20
G01 X60.7375Y57.245F600
G01 Z13F1
G01 Z10F20
G01 X30.8925Y67.405F600
G01 Z13F1
G01 Z10F20
G01 X30.8925Y57.245F600
G01 Z13F1
G01 Z10F20
G01 X61.3725Y14.065F600
G01 Z13F1
G01 Z10F20
G01 X53.7525Y14.065F600
G01 Z13F1
G01 Z10F20
G01 X48.6725Y14.065F600
G01 Z13F1
G01 Z10F20
G01 X43.5925Y14.065F600
G01 Z13F1
G01 Z10F20
G01 X43.5925Y21.685F600
G01 Z13F1
G01 Z10F20
G01 X48.6725Y21.685F600
G01 Z13F1
G01 Z10F20
G01 X53.7525Y21.685F600
G01 Z13F1
G01 Z10F20
G01 X61.3725Y21.685F600
G01 Z13F1
G01 Z10F20
G01 X65.1825Y21.685F600
G01 Z13F1
G01 Z10F20
G01 X65.1825Y14.065F600
G01 Z13F1
G01 Z10F20
G01 X101.3775Y22.6375F600
G01 Z13F1
G01 Z10F20
G01 X98.8375Y22.6375F600
G01 Z13F1
G01 Z10F20
G01 X98.8375Y30.2575F600
G01 Z13F1
G01 Z10F20
G01 X101.3775Y30.2575F600
G01 Z13F1
G01 Z10F20
G01 X96.2975Y22.6375F600
G01 Z13F1
G01 Z10F20
G01 X93.7575Y22.6375F600
G01 Z13F1
G01 Z10F20
G01 X96.2975Y30.2575F600
G01 Z13F1
G01 Z10F20
G01 X93.7575Y30.2575F600
G01 Z13F1
G01 Z10F20
G01 X68.3575Y20.415F600
G01 Z13F1
G01 Z10F20
G01 X70.8975Y17.875F600
G01 Z13F1
G01 Z10F20
G01 X68.3575Y15.335F600
G01 Z13F1
G01 Z10F20
G01 X88.0425Y22.955F600
G01 Z13F1
G01 Z10F20
G01 X88.0425Y30.575F600
G01 Z13F1
G01 Z10F20
G01 X108.9975Y10.89F600
G01 Z13F1
G01 Z10F20
G01 X108.9975Y18.51F600
G01 Z13F1
G01 Z10F20
G01 X101.3775Y12.16F600
G01 Z13F1
G01 Z10F20
G01 X101.3775Y14.7F600
G01 Z13F1
G01 Z10F20
G01 X101.3775Y17.24F600
G01 Z13F1
G01 Z10F20
G01 X106.4575Y18.51F600
G01 Z13F1
G01 Z10F20
G01 X106.4575Y10.89F600
G01 Z13F1
G01 Z10F20
G01 X85.5025Y22.955F600
G01 Z13F1
G01 Z10F20
G01 X85.5025Y30.575F600
G01 Z13F1
G01 Z10F20
G01 X19.15Y10.5725F600
G01 Z13F1
G01 Z10F20
G01 X26.765Y10.5725F600
G01 Z13F1
G01 Z10F20
G01 X5.81Y23.59F600
G01 Z13F1
G01 Z10F20
G01 X32.48Y23.59F600
G01 Z13F1
G01 Z10F20
G01 X18.8275Y36.925F600
G01 Z13F1
G01 Z10F20
G01 X10.89Y36.925F600
G01 Z13F1
G01 Z10F20
G01 X10.89Y31.845F600
G01 Z13F1
G01 Z10F20
G01 X18.8275Y31.845F600
G01 Z13F1
G01 Z10F20
G01 X56.61Y33.115F600
G01 Z13F1
G01 Z10F20
G01 X56.61Y28.035F600
G01 Z13F1
G01 Z10F20
G01 X78.2Y33.115F600
G01 Z13F1
G01 Z10F20
G01 X78.2Y28.035F600
G01 Z13F1
G01 Z10F20
G01 X136.9375Y35.02F600
G01 Z13F1
G01 Z10F20
G01 X136.9375Y24.86F600
G01 Z13F1
G01 Z10F20
G01 X30.8925Y35.02F600
G01 Z13F1
G01 Z10F20
G01 X23.2725Y35.02F600
G01 Z13F1
G01 Z10F20
G01 X23.2725Y31.845F600
G01 Z13F1
G01 Z10F20
G01 X30.8925Y31.845F600
G01 Z13F1
G01 Z10F20
G01 X42.3225Y28.035F600
G01 Z13F1
G01 Z10F20
G01 X42.3225Y30.575F600
G01 Z13F1
G01 Z10F20
G01 X42.3225Y33.115F600
G01 Z13F1
G01 Z10F20
G01 X48.99Y29.305F600
G01 Z13F1
G01 Z10F20
G01 X48.99Y31.845F600
G01 Z13F1
G01 Z10F20
G01 X42.3225Y37.56F600
G01 Z13F1
G01 Z10F20
G01 X49.9425Y37.56F600
G01 Z13F1
G01 Z10F20
G01 X35.3375Y42.9575F600
G01 Z13F1
G01 Z10F20
G01 X37.8775Y40.4175F600
G01 Z13F1
G01 Z10F20
G01 X35.3375Y37.8775F600
G01 Z13F1
G01 Z10F20
G01 X90.5825Y22.955F600
G01 Z13F1
G01 Z10F20
G01 X90.5825Y30.575F600
G01 Z13F1
G01 Z10F20
G01 X93.1225Y15.6525F600
G01 Z13F1
G01 Z10F20
G01 X93.1225Y13.1125F600
G01 Z13F1
G01 Z10F20
G01 X120.11Y36.6075F600
G01 Z13F1
G01 Z10F20
G01 X127.73Y36.6075F600
G01 Z13F1
G01 Z10F20
G01 X129.635Y51.53F600
G01 Z13F1
G01 Z10F20
G01 X129.635Y61.69F600
G01 Z13F1
G01 Z10F20
G01 X104.87Y30.2575F600
G01 Z13F1
G01 Z10F20
G01 X104.87Y22.6375F600
G01 Z13F1
G01 Z10F20
G01 X108.9975Y28.9875F600
G01 Z13F1
G01 Z10F20
G01 X108.9975Y23.9075F600
G01 Z13F1
G01 Z10F20
G01 X79.8256Y11.1313F600
G01 Z13F1
G01 Z10F20
G01 X75.3044Y11.1313F600
G01 Z13F1
G01 Z10F20
G01 X79.8256Y17.6337F600
G01 Z13F1
G01 Z10F20
G01 X75.3044Y17.6337F600
G01 Z13F1
G01 Z10F20
G01 X83.2419Y17.6337F600
G01 Z13F1
G01 Z10F20
G01 X87.7631Y17.6337F600
G01 Z13F1
G01 Z10F20
G01 X83.2419Y11.1313F600
G01 Z13F1
G01 Z10F20
G01 X87.7631Y11.1313F600
G01 Z13F1
G01 Z10F20
G01 X111.5375Y18.51F600
G01 Z13F1
G01 Z10F20
G01 X111.5375Y10.89F600
G01 Z13F1
G01 Z10F20
G01 X93.7575Y67.405F600
G01 Z13F1
G01 Z10F20
G01 X93.7575Y57.245F600
G01 Z13F1
G01 Z10F20
G01 X95.98Y76.295F600
G01 Z13F1
G01 Z10F20
G01 X35.655Y76.295F600
G01 Z13F1
G01 Z10F20
G01 X118.5225Y22.6375F600
G01 Z13F1
G01 Z10F20
G01 X129.0Y22.6375F600
G01 Z13F1
G01 Z10F20
G01 X141.065Y84.8675F600
G01 Z13F1
G01 Z10F20
G01 X7.715Y84.8675F600
G01 Z13F1
G01 Z10F20
G01 X141.065Y7.3975F600
G01 Z13F1
G01 Z10F20
G01 X7.715Y7.3975F600
G01 Z13F1
G01 Z10F20

M5 ; disabling spindle PWM

; Returning the Deactivating Tool-2
C0 ; PWM Tool select demultiplexer to select tool zero which is the empty tool slot in multiplexers
#TODO X-0.0Y-0.0Z-0.0 ;  ;Remove tool offset coordinate
G00X165.0Y91.0Z12.0 ; Go to Tool-2 Home Pos
G00X92 ; Enter Female Kinematic Mount Home Pos
A0 ; Latch OFF Kinematic Mount
G4 P5 ; Wait for Kinematic Mount to fully detach
G00X188 ; Exit Female Kinematic Mount Home Pos

; Machine deinitialization Sequence... 
G00X0.0Y0.0Z0.0
B0 ; Turn Machine OFF
