; This gcode is generated by my specialised python script for my PCB manufacturer project :))

; Machine Initialization Sequence...

G21 ; to set metric units
G90 ; to set absolute mode , G91 for incremental mode
G94 ; To set the active feed rate mode to units per minute mode

M5 ; disabling spindle PWM
C0 ; Choosing the empty tool slot in the multiplexer circuits

B1 ; Turn ON Machine

$H ; Homing :)
G10 P0 L20 X0.0Y0.0Z0.0 ; Force Reset current coordinates after homing


; The following gcode is the PCB trace laser marking gcode

M5 ; Being extra sure it won't light up before activation

; Getting and Activating Tool-1, The Tool.Laser
G00X165.0Y0.0Z10.5 ; Go to Tool-1 Home Pos
G00X188 ; Enter Female Kinematic Mount Home Pos
A1 ; Latch on Kinematic Mount
G4 P5 ; Wait for Kinematic Mount to fully attach
G00X92 ; Exit Female Kinematic Mount Home Pos
#TODO X0.0Y0.0Z0.0 ;  ;Add tool offset coordinate
C1 ; Choosing tool 1 in the choose demultiplexer circuits

F400 ; setting default feedrate

G00Z16 ; Moving to correct focal length Z position

S200 ; Setting Laser Power

; Number of passes: 1

; Pass number: 1
G01 X33.9Y89.526
M3
G01 X34.916Y89.526
G01 X34.916Y88.51
G01 X34.916Y87.494
G01 X33.9Y87.494
G01 X32.884Y87.494
G01 X32.376Y87.494
G01 X31.36Y87.494
G01 X30.344Y87.494
G01 X30.344Y88.51
G01 X30.344Y89.526
G01 X31.36Y89.526
G01 X32.376Y89.526
G01 X32.884Y89.526
G01 X33.9Y89.526
G01 X33.9Y89.526
M5
G01 X32.884Y78.096
M3
G01 X33.9Y78.096
G01 X34.916Y78.096
G01 X34.916Y77.08
G01 X34.916Y76.064
G01 X33.9Y76.064
G01 X32.884Y76.064
G01 X32.376Y76.064
G01 X31.36Y76.064
G01 X30.344Y76.064
G01 X30.344Y77.08
G01 X30.344Y78.096
G01 X31.36Y78.096
G01 X32.376Y78.096
G01 X32.884Y78.096
G01 X32.884Y78.096
M5
G01 X32.376Y66.666
M3
G01 X32.884Y66.666
G01 X33.9Y66.666
G01 X34.916Y66.666
G01 X34.916Y65.65
G01 X34.916Y64.634
G01 X33.9Y64.634
G01 X32.884Y64.634
G01 X32.376Y64.634
G01 X31.36Y64.634
G01 X30.344Y64.634
G01 X30.344Y65.65
G01 X30.344Y66.666
G01 X31.36Y66.666
G01 X32.376Y66.666
G01 X32.376Y66.666
M5
G01 X51.426Y86.986
M3
G01 X51.426Y85.97
G01 X51.426Y84.954
G01 X50.41Y84.954
G01 X49.394Y84.954
G01 X48.505Y84.954
G01 X47.87Y84.954
G01 X46.346Y84.954
G01 X46.346Y81.94584
G01 X46.38584Y81.906
G01 X47.87Y81.906
G01 X47.96959Y81.90111
G01 X48.06821Y81.88648
G01 X48.16493Y81.86225
G01 X48.25881Y81.82866
G01 X48.34894Y81.78603
G01 X48.43446Y81.73477
G01 X48.51454Y81.67538
G01 X48.58842Y81.60842
G01 X48.65538Y81.53454
G01 X48.71477Y81.45446
G01 X48.76603Y81.36894
G01 X48.80866Y81.27881
G01 X48.84225Y81.18493
G01 X48.86648Y81.08821
G01 X48.88111Y80.98959
G01 X48.886Y80.89
G01 X48.886Y78.985
G01 X48.886Y75.59584
G01 X48.92584Y75.556
G01 X49.394Y75.556
G01 X50.41Y75.556
G01 X51.426Y75.556
G01 X51.426Y74.54
G01 X51.426Y73.524
G01 X50.41Y73.524
G01 X49.394Y73.524
G01 X48.505Y73.524
G01 X46.346Y73.524
G01 X46.346Y70.51584
G01 X46.38584Y70.476
G01 X47.87Y70.476
G01 X47.96959Y70.47111
G01 X48.06821Y70.45648
G01 X48.16493Y70.43225
G01 X48.25881Y70.39866
G01 X48.34894Y70.35603
G01 X48.43446Y70.30477
G01 X48.51454Y70.24538
G01 X48.58842Y70.17842
G01 X48.65538Y70.10454
G01 X48.71477Y70.02446
G01 X48.76603Y69.93894
G01 X48.80866Y69.84881
G01 X48.84225Y69.75493
G01 X48.86648Y69.65821
G01 X48.88111Y69.55959
G01 X48.886Y69.46
G01 X48.886Y67.555
G01 X48.886Y64.38
G01 X48.886Y64.16584
G01 X48.92584Y64.126
G01 X49.394Y64.126
G01 X50.41Y64.126
G01 X51.426Y64.126
G01 X51.426Y63.11
G01 X51.426Y62.094
G01 X50.41Y62.094
G01 X49.394Y62.094
G01 X48.505Y62.094
G01 X47.87Y62.094
G01 X47.235Y62.094
G01 X46.346Y62.094
G01 X46.346Y61.205
G01 X46.346Y59.3
G01 X46.346Y57.395
G01 X46.34111Y57.29541
G01 X46.32648Y57.19679
G01 X46.30225Y57.10007
G01 X46.26866Y57.00619
G01 X46.22603Y56.91606
G01 X46.17477Y56.83054
G01 X46.11538Y56.75046
G01 X46.04842Y56.67658
G01 X45.97454Y56.60962
G01 X45.89446Y56.55023
G01 X45.80894Y56.49897
G01 X45.71881Y56.45634
G01 X45.62493Y56.42275
G01 X45.52821Y56.39852
G01 X45.42959Y56.38389
G01 X45.33Y56.379
G01 X43.425Y56.379
G01 X41.52Y56.379
G01 X34.87231Y56.379
G01 X31.995Y56.379
G01 X31.36Y56.379
G01 X31.26041Y56.38389
G01 X31.16179Y56.39852
G01 X31.06507Y56.42275
G01 X30.97119Y56.45634
G01 X30.88106Y56.49897
G01 X30.79554Y56.55023
G01 X30.71546Y56.60962
G01 X30.64158Y56.67658
G01 X30.57462Y56.75046
G01 X30.51523Y56.83054
G01 X30.46397Y56.91606
G01 X30.42134Y57.00619
G01 X30.38775Y57.10007
G01 X30.36352Y57.19679
G01 X30.34889Y57.29541
G01 X30.344Y57.395
G01 X30.344Y58.03
G01 X30.344Y59.0805
G01 X30.344Y59.554
G01 X30.344Y60.57
G01 X30.344Y61.586
G01 X31.36Y61.586
G01 X32.376Y61.586
G01 X32.84416Y61.586
G01 X32.884Y61.62584
G01 X32.884Y63.11
G01 X32.88889Y63.20959
G01 X32.90352Y63.30821
G01 X32.92775Y63.40493
G01 X32.96134Y63.49881
G01 X33.00397Y63.58894
G01 X33.05523Y63.67446
G01 X33.11462Y63.75454
G01 X33.18158Y63.82842
G01 X33.25546Y63.89538
G01 X33.33554Y63.95477
G01 X33.42106Y64.00603
G01 X33.51119Y64.04866
G01 X33.60507Y64.08225
G01 X33.70179Y64.10648
G01 X33.80041Y64.12111
G01 X33.9Y64.126
G01 X35.38416Y64.126
G01 X35.424Y64.16584
G01 X35.424Y67.174
G01 X34.535Y67.174
G01 X33.265Y67.174
G01 X31.36Y67.174
G01 X31.26041Y67.17889
G01 X31.16179Y67.19352
G01 X31.06507Y67.21775
G01 X30.97119Y67.25134
G01 X30.88106Y67.29397
G01 X30.79554Y67.34523
G01 X30.71546Y67.40462
G01 X30.64158Y67.47158
G01 X30.57462Y67.54546
G01 X30.51523Y67.62554
G01 X30.46397Y67.71106
G01 X30.42134Y67.80119
G01 X30.38775Y67.89507
G01 X30.36352Y67.99179
G01 X30.34889Y68.09041
G01 X30.344Y68.19
G01 X30.344Y70.095
G01 X30.344Y70.984
G01 X30.344Y72.0
G01 X30.344Y73.016
G01 X31.36Y73.016
G01 X32.376Y73.016
G01 X32.84416Y73.016
G01 X32.884Y73.05584
G01 X32.884Y74.54
G01 X32.88889Y74.63959
G01 X32.90352Y74.73821
G01 X32.92775Y74.83493
G01 X32.96134Y74.92881
G01 X33.00397Y75.01894
G01 X33.05523Y75.10446
G01 X33.11462Y75.18454
G01 X33.18158Y75.25842
G01 X33.25546Y75.32538
G01 X33.33554Y75.38477
G01 X33.42106Y75.43603
G01 X33.51119Y75.47866
G01 X33.60507Y75.51225
G01 X33.70179Y75.53648
G01 X33.80041Y75.55111
G01 X33.9Y75.556
G01 X35.38416Y75.556
G01 X35.424Y75.59584
G01 X35.424Y78.604
G01 X33.9Y78.604
G01 X33.265Y78.604
G01 X31.36Y78.604
G01 X31.26041Y78.60889
G01 X31.16179Y78.62352
G01 X31.06507Y78.64775
G01 X30.97119Y78.68134
G01 X30.88106Y78.72397
G01 X30.79554Y78.77523
G01 X30.71546Y78.83462
G01 X30.64158Y78.90158
G01 X30.57462Y78.97546
G01 X30.51523Y79.05554
G01 X30.46397Y79.14106
G01 X30.42134Y79.23119
G01 X30.38775Y79.32507
G01 X30.36352Y79.42179
G01 X30.34889Y79.52041
G01 X30.344Y79.62
G01 X30.344Y81.525
G01 X30.344Y82.414
G01 X30.344Y83.43
G01 X30.344Y84.446
G01 X31.36Y84.446
G01 X32.376Y84.446
G01 X32.84416Y84.446
G01 X32.884Y84.48584
G01 X32.884Y85.97
G01 X32.88889Y86.06959
G01 X32.90352Y86.16821
G01 X32.92775Y86.26493
G01 X32.96134Y86.35881
G01 X33.00397Y86.44894
G01 X33.05523Y86.53446
G01 X33.11462Y86.61454
G01 X33.18158Y86.68842
G01 X33.25546Y86.75538
G01 X33.33554Y86.81477
G01 X33.42106Y86.86603
G01 X33.51119Y86.90866
G01 X33.60507Y86.94225
G01 X33.70179Y86.96648
G01 X33.80041Y86.98111
G01 X33.9Y86.986
G01 X35.38416Y86.986
G01 X35.424Y87.02584
G01 X35.424Y88.51
G01 X35.42889Y88.60959
G01 X35.44352Y88.70821
G01 X35.46775Y88.80493
G01 X35.50134Y88.89881
G01 X35.54397Y88.98894
G01 X35.59523Y89.07446
G01 X35.65462Y89.15454
G01 X35.72158Y89.22842
G01 X35.79546Y89.29538
G01 X35.87554Y89.35477
G01 X35.96106Y89.40603
G01 X36.05119Y89.44866
G01 X36.14507Y89.48225
G01 X36.24179Y89.50648
G01 X36.34041Y89.52111
G01 X36.44Y89.526
G01 X40.123Y89.526
G01 X40.123Y90.09937
G01 X38.44118Y91.78118
G01 X38.39097Y91.83659
G01 X38.34642Y91.89666
G01 X38.30798Y91.9608
G01 X38.30798Y91.9608
G01 X38.276Y92.0284
G01 X38.25081Y92.0988
G01 X38.23264Y92.17134
G01 X38.22167Y92.24531
G01 X38.218Y92.32
G01 X38.218Y107.433
G01 X37.456Y107.433
G01 X37.456Y107.179
G01 X35.424Y107.179
G01 X35.424Y109.211
G01 X37.456Y109.211
G01 X37.456Y108.957
G01 X38.98Y108.957
G01 X39.29937Y108.957
G01 X40.123Y109.78063
G01 X40.123Y128.134
G01 X39.869Y128.134
G01 X39.869Y130.166
G01 X41.901Y130.166
G01 X41.901Y128.134
G01 X41.647Y128.134
G01 X41.647Y109.465
G01 X41.64333Y109.39031
G01 X41.63236Y109.31634
G01 X41.61419Y109.2438
G01 X41.60245Y109.211
G01 X42.536Y109.211
G01 X42.536Y107.179
G01 X40.504Y107.179
G01 X40.504Y107.433
G01 X39.742Y107.433
G01 X39.742Y92.63563
G01 X41.42382Y90.95382
G01 X41.47403Y90.89841
G01 X41.51858Y90.83834
G01 X41.55702Y90.7742
G01 X41.55702Y90.7742
G01 X41.589Y90.7066
G01 X41.61419Y90.6362
G01 X41.63236Y90.56366
G01 X41.64333Y90.48969
G01 X41.647Y90.415
G01 X41.647Y89.526
G01 X47.87Y89.526
G01 X47.96959Y89.52111
G01 X48.06821Y89.50648
G01 X48.16493Y89.48225
G01 X48.25881Y89.44866
G01 X48.34894Y89.40603
G01 X48.43446Y89.35477
G01 X48.51454Y89.29538
G01 X48.58842Y89.22842
G01 X48.65538Y89.15454
G01 X48.71477Y89.07446
G01 X48.76603Y88.98894
G01 X48.80866Y88.89881
G01 X48.84225Y88.80493
G01 X48.86648Y88.70821
G01 X48.88111Y88.60959
G01 X48.886Y88.51
G01 X48.886Y87.02584
G01 X48.92584Y86.986
G01 X49.394Y86.986
G01 X50.41Y86.986
G01 X51.426Y86.986
G01 X51.426Y86.986
M5
G01 X50.41Y82.414
M3
G01 X49.394Y82.414
G01 X48.886Y82.414
G01 X47.87Y82.414
G01 X46.854Y82.414
G01 X46.854Y83.43
G01 X46.854Y84.446
G01 X47.87Y84.446
G01 X48.886Y84.446
G01 X49.394Y84.446
G01 X50.41Y84.446
G01 X51.426Y84.446
G01 X51.426Y83.43
G01 X51.426Y82.414
G01 X50.41Y82.414
G01 X50.41Y82.414
M5
G01 X51.426Y70.984
M3
G01 X50.41Y70.984
G01 X49.394Y70.984
G01 X48.886Y70.984
G01 X47.87Y70.984
G01 X46.854Y70.984
G01 X46.854Y72.0
G01 X46.854Y73.016
G01 X47.87Y73.016
G01 X48.886Y73.016
G01 X49.394Y73.016
G01 X50.41Y73.016
G01 X51.426Y73.016
G01 X51.426Y72.0
G01 X51.426Y70.984
G01 X51.426Y70.984
M5
G01 X51.426Y60.57
M3
G01 X51.426Y59.554
G01 X50.41Y59.554
G01 X49.394Y59.554
G01 X48.886Y59.554
G01 X47.87Y59.554
G01 X46.854Y59.554
G01 X46.854Y60.57
G01 X46.854Y61.586
G01 X47.87Y61.586
G01 X48.886Y61.586
G01 X49.394Y61.586
G01 X50.41Y61.586
G01 X51.426Y61.586
G01 X51.426Y60.57
G01 X51.426Y60.57
M5
G01 X29.836Y48.8981
M3
G01 X29.836Y41.266
G01 X30.344Y41.266
G01 X31.36Y41.266
G01 X32.376Y41.266
G01 X32.376Y40.25
G01 X32.376Y39.234
G01 X31.36Y39.234
G01 X30.344Y39.234
G01 X29.836Y39.234
G01 X29.836Y36.05284
G01 X29.836Y29.836
G01 X30.344Y29.836
G01 X31.36Y29.836
G01 X32.376Y29.836
G01 X32.376Y28.82
G01 X32.376Y27.804
G01 X31.36Y27.804
G01 X30.344Y27.804
G01 X29.836Y27.804
G01 X29.836Y22.25584
G01 X30.51084Y21.581
G01 X31.995Y21.581
G01 X32.09459Y21.57611
G01 X32.19321Y21.56148
G01 X32.28993Y21.53725
G01 X32.38381Y21.50366
G01 X32.47394Y21.46103
G01 X32.55946Y21.40977
G01 X32.63954Y21.35038
G01 X32.71342Y21.28342
G01 X32.78038Y21.20954
G01 X32.83977Y21.12946
G01 X32.89103Y21.04394
G01 X32.93366Y20.95381
G01 X32.96725Y20.85993
G01 X32.99148Y20.76321
G01 X33.00611Y20.66459
G01 X33.011Y20.565
G01 X33.011Y18.66
G01 X33.011Y17.39
G01 X33.011Y11.04
G01 X33.00611Y10.94041
G01 X32.99148Y10.84179
G01 X32.96725Y10.74507
G01 X32.93366Y10.65119
G01 X32.89103Y10.56106
G01 X32.83977Y10.47554
G01 X32.78038Y10.39546
G01 X32.71342Y10.32158
G01 X32.63954Y10.25462
G01 X32.55946Y10.19523
G01 X32.47394Y10.14397
G01 X32.38381Y10.10134
G01 X32.28993Y10.06775
G01 X32.19321Y10.04352
G01 X32.09459Y10.02889
G01 X31.995Y10.024
G01 X27.55Y10.024
G01 X25.645Y10.024
G01 X25.21918Y10.024
G01 X23.74Y10.024
G01 X21.835Y10.024
G01 X21.73541Y10.02889
G01 X21.63679Y10.04352
G01 X21.54007Y10.06775
G01 X21.44619Y10.10134
G01 X21.35606Y10.14397
G01 X21.27054Y10.19523
G01 X21.23832Y10.21912
G01 X21.19046Y10.25462
G01 X21.14285Y10.29777
G01 X21.11658Y10.32158
G01 X21.04962Y10.39546
G01 X20.99023Y10.47554
G01 X20.93897Y10.56106
G01 X20.89634Y10.65119
G01 X20.86275Y10.74507
G01 X20.83852Y10.84179
G01 X20.82389Y10.94041
G01 X20.819Y11.04
G01 X20.819Y18.87416
G01 X12.22658Y27.46658
G01 X12.15962Y27.54046
G01 X12.10023Y27.62054
G01 X12.04897Y27.70606
G01 X12.00634Y27.79619
G01 X11.97275Y27.89007
G01 X11.94852Y27.98679
G01 X11.93389Y28.08541
G01 X11.929Y28.185
G01 X11.929Y28.82
G01 X11.929Y30.09
G01 X11.929Y30.725
G01 X11.929Y30.725
G01 X11.929Y37.075
G01 X11.929Y81.96968
G01 X11.929Y84.7
G01 X11.929Y86.605
G01 X11.929Y86.605
G01 X11.93092Y86.64414
G01 X11.93389Y86.70459
G01 X11.93389Y86.70459
G01 X11.94852Y86.80321
G01 X11.96067Y86.85169
G01 X11.97275Y86.89993
G01 X11.99079Y86.95034
G01 X12.00634Y86.99381
G01 X12.02223Y87.02741
G01 X12.04897Y87.08394
G01 X12.08947Y87.15152
G01 X12.10023Y87.16946
G01 X12.15962Y87.24954
G01 X12.22658Y87.32342
G01 X12.86158Y87.95842
G01 X12.86158Y87.95842
G01 X14.13158Y89.22842
G01 X14.20546Y89.29538
G01 X14.28554Y89.35477
G01 X14.37106Y89.40603
G01 X14.46119Y89.44866
G01 X14.47378Y89.45317
G01 X14.55507Y89.48225
G01 X14.64271Y89.5042
G01 X14.65179Y89.50648
G01 X14.75041Y89.52111
G01 X14.85Y89.526
G01 X14.85Y89.526
G01 X14.85Y89.526
G01 X24.883Y89.526
G01 X24.883Y98.289
G01 X24.629Y98.289
G01 X24.629Y100.321
G01 X24.883Y100.321
G01 X24.883Y104.004
G01 X24.629Y104.004
G01 X24.629Y106.036
G01 X24.883Y106.036
G01 X24.883Y108.195
G01 X24.88667Y108.26969
G01 X24.89764Y108.34366
G01 X24.91581Y108.4162
G01 X24.941Y108.4866
G01 X24.97298Y108.5542
G01 X25.01142Y108.61834
G01 X25.05597Y108.67841
G01 X25.10618Y108.73382
G01 X28.28118Y111.90882
G01 X28.33659Y111.95903
G01 X28.39666Y112.00358
G01 X28.4608Y112.04202
G01 X28.5284Y112.074
G01 X28.5988Y112.09919
G01 X28.67134Y112.11736
G01 X28.74531Y112.12833
G01 X28.82Y112.132
G01 X30.40937Y112.132
G01 X32.503Y114.22563
G01 X32.503Y128.134
G01 X32.249Y128.134
G01 X32.249Y130.166
G01 X34.281Y130.166
G01 X34.281Y128.134
G01 X34.027Y128.134
G01 X34.027Y113.91
G01 X34.02333Y113.83531
G01 X34.01236Y113.76134
G01 X33.99419Y113.6888
G01 X33.969Y113.6184
G01 X33.93702Y113.5508
G01 X33.93702Y113.5508
G01 X33.89858Y113.48666
G01 X33.85403Y113.42659
G01 X33.80382Y113.37118
G01 X31.26382Y110.83118
G01 X31.20841Y110.78097
G01 X31.14834Y110.73642
G01 X31.0842Y110.69798
G01 X31.0166Y110.666
G01 X30.9462Y110.64081
G01 X30.87366Y110.62264
G01 X30.79969Y110.61167
G01 X30.725Y110.608
G01 X30.725Y110.608
G01 X29.13563Y110.608
G01 X26.407Y107.87937
G01 X26.407Y106.036
G01 X26.661Y106.036
G01 X26.661Y104.004
G01 X26.407Y104.004
G01 X26.407Y100.321
G01 X26.661Y100.321
G01 X26.661Y98.289
G01 X26.407Y98.289
G01 X26.407Y89.526
G01 X28.82Y89.526
G01 X28.91959Y89.52111
G01 X29.01821Y89.50648
G01 X29.11493Y89.48225
G01 X29.20881Y89.44866
G01 X29.29894Y89.40603
G01 X29.38446Y89.35477
G01 X29.46454Y89.29538
G01 X29.53842Y89.22842
G01 X29.60538Y89.15454
G01 X29.66477Y89.07446
G01 X29.71603Y88.98894
G01 X29.75866Y88.89881
G01 X29.79225Y88.80493
G01 X29.81648Y88.70821
G01 X29.83111Y88.60959
G01 X29.836Y88.51
G01 X29.836Y86.986
G01 X30.344Y86.986
G01 X31.36Y86.986
G01 X32.376Y86.986
G01 X32.376Y85.97
G01 X32.376Y84.954
G01 X31.36Y84.954
G01 X30.344Y84.954
G01 X29.836Y84.954
G01 X29.836Y75.556
G01 X30.344Y75.556
G01 X31.36Y75.556
G01 X32.376Y75.556
G01 X32.376Y74.54
G01 X32.376Y73.524
G01 X31.36Y73.524
G01 X30.344Y73.524
G01 X29.836Y73.524
G01 X29.836Y66.285
G01 X29.836Y64.126
G01 X30.344Y64.126
G01 X31.36Y64.126
G01 X32.376Y64.126
G01 X32.376Y63.11
G01 X32.376Y62.094
G01 X31.36Y62.094
G01 X30.344Y62.094
G01 X29.836Y62.094
G01 X29.836Y52.696
G01 X30.344Y52.696
G01 X31.36Y52.696
G01 X32.376Y52.696
G01 X32.376Y51.68
G01 X32.376Y50.664
G01 X31.36Y50.664
G01 X30.344Y50.664
G01 X29.836Y50.664
G01 X29.836Y48.8981
G01 X29.836Y48.8981
M5
G01 X49.394Y87.494
M3
G01 X49.394Y88.51
G01 X49.394Y89.526
G01 X50.41Y89.526
G01 X51.426Y89.526
G01 X52.95Y89.526
G01 X53.585Y89.526
G01 X55.49Y89.526
G01 X56.58958Y89.526
G01 X58.03Y89.526
G01 X59.935Y89.526
G01 X60.98501Y89.526
G01 X61.84Y89.526
G01 X65.015Y89.526
G01 X68.00736Y89.526
G01 X70.095Y89.526
G01 X71.365Y89.526
G01 X72.635Y89.526
G01 X73.27Y89.526
G01 X74.54Y89.526
G01 X77.08Y89.526
G01 X77.17959Y89.52111
G01 X77.27821Y89.50648
G01 X77.37493Y89.48225
G01 X77.44407Y89.45751
G01 X77.46881Y89.44866
G01 X77.55894Y89.40603
G01 X77.64446Y89.35477
G01 X77.72454Y89.29538
G01 X77.79842Y89.22842
G01 X79.06842Y87.95842
G01 X79.13538Y87.88454
G01 X79.19477Y87.80446
G01 X79.24603Y87.71894
G01 X79.28866Y87.62881
G01 X79.32225Y87.53493
G01 X79.34648Y87.43821
G01 X79.36111Y87.33959
G01 X79.366Y87.24
G01 X79.366Y12.31
G01 X79.366Y11.675
G01 X79.36111Y11.57541
G01 X79.34648Y11.47679
G01 X79.32225Y11.38007
G01 X79.28866Y11.28619
G01 X79.24603Y11.19606
G01 X79.19477Y11.11054
G01 X79.13538Y11.03046
G01 X79.06842Y10.95658
G01 X78.99454Y10.88962
G01 X78.91446Y10.83023
G01 X78.82894Y10.77897
G01 X78.73881Y10.73634
G01 X78.64493Y10.70275
G01 X78.54821Y10.67852
G01 X78.44959Y10.66389
G01 X78.35Y10.659
G01 X71.365Y10.659
G01 X71.26541Y10.66389
G01 X71.16679Y10.67852
G01 X71.07007Y10.70275
G01 X70.97619Y10.73634
G01 X70.88606Y10.77897
G01 X70.80054Y10.83023
G01 X70.72046Y10.88962
G01 X70.64658Y10.95658
G01 X70.57962Y11.03046
G01 X70.52023Y11.11054
G01 X70.46897Y11.19606
G01 X70.42634Y11.28619
G01 X70.39275Y11.38007
G01 X70.36852Y11.47679
G01 X70.35389Y11.57541
G01 X70.349Y11.675
G01 X70.349Y12.31
G01 X70.349Y15.62349
G01 X70.349Y16.13657
G01 X70.349Y16.65028
G01 X67.45028Y19.549
G01 X66.51324Y19.549
G01 X66.285Y19.549
G01 X63.745Y19.549
G01 X62.0309Y19.549
G01 X61.205Y19.549
G01 X59.935Y19.549
G01 X58.03Y19.549
G01 X56.76Y19.549
G01 X55.49Y19.549
G01 X54.22Y19.549
G01 X54.12041Y19.55389
G01 X54.02179Y19.56852
G01 X53.9895Y19.57661
G01 X53.92507Y19.59275
G01 X53.83119Y19.62634
G01 X53.74106Y19.66897
G01 X53.65554Y19.72023
G01 X53.62944Y19.73959
G01 X53.57546Y19.77962
G01 X53.53471Y19.81655
G01 X53.50158Y19.84658
G01 X52.86658Y20.48158
G01 X52.23158Y21.11658
G01 X52.16462Y21.19046
G01 X52.10523Y21.27054
G01 X52.05397Y21.35606
G01 X52.02142Y21.42488
G01 X52.01134Y21.44619
G01 X51.97775Y21.54007
G01 X51.95352Y21.63679
G01 X51.93889Y21.73541
G01 X51.934Y21.835
G01 X51.934Y30.344
G01 X51.81738Y30.344
G01 X51.426Y30.344
G01 X50.41Y30.344
G01 X49.394Y30.344
G01 X49.394Y31.36
G01 X49.394Y32.376
G01 X49.394Y34.535
G01 X49.39889Y34.63459
G01 X49.41352Y34.73321
G01 X49.43775Y34.82993
G01 X49.47134Y34.92381
G01 X49.51397Y35.01394
G01 X49.56523Y35.09946
G01 X49.62462Y35.17954
G01 X49.69158Y35.25342
G01 X49.76546Y35.32038
G01 X49.84554Y35.37977
G01 X49.93106Y35.43103
G01 X50.02119Y35.47366
G01 X50.11507Y35.50725
G01 X50.21179Y35.53148
G01 X50.31041Y35.54611
G01 X50.41Y35.551
G01 X51.68Y35.551
G01 X52.188Y35.551
G01 X52.188Y41.774
G01 X51.68Y41.774
G01 X51.426Y41.774
G01 X50.41Y41.774
G01 X49.394Y41.774
G01 X49.394Y42.79
G01 X49.394Y43.806
G01 X49.394Y45.965
G01 X49.39889Y46.06459
G01 X49.41352Y46.16321
G01 X49.43775Y46.25993
G01 X49.47134Y46.35381
G01 X49.51397Y46.44394
G01 X49.56523Y46.52946
G01 X49.62462Y46.60954
G01 X49.69158Y46.68342
G01 X49.76546Y46.75038
G01 X49.84554Y46.80977
G01 X49.93106Y46.86103
G01 X50.02119Y46.90366
G01 X50.11507Y46.93725
G01 X50.21179Y46.96148
G01 X50.31041Y46.97611
G01 X50.41Y46.981
G01 X51.68Y46.981
G01 X52.188Y46.981
G01 X52.188Y53.204
G01 X51.68Y53.204
G01 X51.426Y53.204
G01 X50.41Y53.204
G01 X49.394Y53.204
G01 X49.394Y54.22
G01 X49.394Y55.236
G01 X49.394Y57.395
G01 X49.39889Y57.49459
G01 X49.41352Y57.59321
G01 X49.43775Y57.68993
G01 X49.47134Y57.78381
G01 X49.51397Y57.87394
G01 X49.56523Y57.95946
G01 X49.62462Y58.03954
G01 X49.69158Y58.11342
G01 X49.76546Y58.18038
G01 X49.84554Y58.23977
G01 X49.93106Y58.29103
G01 X50.02119Y58.33366
G01 X50.11507Y58.36725
G01 X50.21179Y58.39148
G01 X50.31041Y58.40611
G01 X50.41Y58.411
G01 X51.68Y58.411
G01 X52.188Y58.411
G01 X52.188Y64.634
G01 X51.68Y64.634
G01 X51.426Y64.634
G01 X50.41Y64.634
G01 X49.394Y64.634
G01 X49.394Y65.65
G01 X49.394Y66.666
G01 X49.394Y68.825
G01 X49.39889Y68.92459
G01 X49.41352Y69.02321
G01 X49.43775Y69.11993
G01 X49.47134Y69.21381
G01 X49.51397Y69.30394
G01 X49.56523Y69.38946
G01 X49.62462Y69.46954
G01 X49.69158Y69.54342
G01 X49.76546Y69.61038
G01 X49.84554Y69.66977
G01 X49.93106Y69.72103
G01 X50.02119Y69.76366
G01 X50.11507Y69.79725
G01 X50.21179Y69.82148
G01 X50.31041Y69.83611
G01 X50.41Y69.841
G01 X51.68Y69.841
G01 X52.188Y69.841
G01 X52.188Y76.064
G01 X51.68Y76.064
G01 X51.426Y76.064
G01 X50.41Y76.064
G01 X49.394Y76.064
G01 X49.394Y77.08
G01 X49.394Y78.096
G01 X49.394Y80.255
G01 X49.39889Y80.35459
G01 X49.41352Y80.45321
G01 X49.43775Y80.54993
G01 X49.47134Y80.64381
G01 X49.51397Y80.73394
G01 X49.56523Y80.81946
G01 X49.62462Y80.89954
G01 X49.69158Y80.97342
G01 X49.76546Y81.04038
G01 X49.84554Y81.09977
G01 X49.93106Y81.15103
G01 X50.02119Y81.19366
G01 X50.11507Y81.22725
G01 X50.21179Y81.25148
G01 X50.31041Y81.26611
G01 X50.41Y81.271
G01 X51.68Y81.271
G01 X52.188Y81.271
G01 X52.188Y87.494
G01 X51.426Y87.494
G01 X50.41Y87.494
G01 X49.394Y87.494
G01 X49.394Y87.494
M5
G01 X33.9Y53.204
M3
G01 X32.884Y53.204
G01 X32.376Y53.204
G01 X31.36Y53.204
G01 X30.344Y53.204
G01 X30.344Y54.22
G01 X30.344Y55.236
G01 X31.36Y55.236
G01 X32.376Y55.236
G01 X32.884Y55.236
G01 X33.9Y55.236
G01 X34.916Y55.236
G01 X34.916Y54.22
G01 X34.916Y53.204
G01 X33.9Y53.204
G01 X33.9Y53.204
M5
G01 X34.916Y41.774
M3
G01 X33.9Y41.774
G01 X32.884Y41.774
G01 X32.376Y41.774
G01 X31.36Y41.774
G01 X30.344Y41.774
G01 X30.344Y42.79
G01 X30.344Y43.806
G01 X31.36Y43.806
G01 X32.376Y43.806
G01 X32.884Y43.806
G01 X33.9Y43.806
G01 X34.916Y43.806
G01 X34.916Y42.79
G01 X34.916Y41.774
G01 X34.916Y41.774
M5
G01 X34.916Y31.36
M3
G01 X34.916Y30.344
G01 X33.9Y30.344
G01 X32.884Y30.344
G01 X32.376Y30.344
G01 X31.36Y30.344
G01 X30.344Y30.344
G01 X30.344Y31.36
G01 X30.344Y32.376
G01 X31.36Y32.376
G01 X32.376Y32.376
G01 X32.884Y32.376
G01 X33.9Y32.376
G01 X34.916Y32.376
G01 X34.916Y31.36
G01 X34.916Y31.36
M5
G01 X31.06507Y22.13275
M3
G01 X30.97119Y22.16634
G01 X30.88106Y22.20897
G01 X30.79554Y22.26023
G01 X30.71546Y22.31962
G01 X30.64158Y22.38658
G01 X30.57462Y22.46046
G01 X30.51523Y22.54054
G01 X30.46397Y22.62606
G01 X30.42134Y22.71619
G01 X30.38775Y22.81007
G01 X30.36352Y22.90679
G01 X30.34889Y23.00541
G01 X30.344Y23.105
G01 X30.344Y23.74
G01 X30.344Y24.7905
G01 X30.344Y25.264
G01 X30.344Y26.28
G01 X30.344Y27.296
G01 X31.36Y27.296
G01 X32.376Y27.296
G01 X32.84416Y27.296
G01 X32.884Y27.33584
G01 X32.884Y28.82
G01 X32.88889Y28.91959
G01 X32.90352Y29.01821
G01 X32.92775Y29.11493
G01 X32.96134Y29.20881
G01 X33.00397Y29.29894
G01 X33.05523Y29.38446
G01 X33.11462Y29.46454
G01 X33.18158Y29.53842
G01 X33.25546Y29.60538
G01 X33.33554Y29.66477
G01 X33.42106Y29.71603
G01 X33.51119Y29.75866
G01 X33.60507Y29.79225
G01 X33.70179Y29.81648
G01 X33.80041Y29.83111
G01 X33.9Y29.836
G01 X35.38416Y29.836
G01 X35.424Y29.87584
G01 X35.424Y32.884
G01 X34.535Y32.884
G01 X33.265Y32.884
G01 X31.36Y32.884
G01 X31.26041Y32.88889
G01 X31.16179Y32.90352
G01 X31.06507Y32.92775
G01 X30.97119Y32.96134
G01 X30.88106Y33.00397
G01 X30.79554Y33.05523
G01 X30.71546Y33.11462
G01 X30.64158Y33.18158
G01 X30.57462Y33.25546
G01 X30.51523Y33.33554
G01 X30.46397Y33.42106
G01 X30.42134Y33.51119
G01 X30.38775Y33.60507
G01 X30.36352Y33.70179
G01 X30.34889Y33.80041
G01 X30.344Y33.9
G01 X30.344Y35.805
G01 X30.344Y36.694
G01 X30.344Y37.71
G01 X30.344Y38.726
G01 X31.36Y38.726
G01 X32.376Y38.726
G01 X32.84416Y38.726
G01 X32.884Y38.76584
G01 X32.884Y40.25
G01 X32.88889Y40.34959
G01 X32.90352Y40.44821
G01 X32.92775Y40.54493
G01 X32.96134Y40.63881
G01 X33.00397Y40.72894
G01 X33.05523Y40.81446
G01 X33.11462Y40.89454
G01 X33.18158Y40.96842
G01 X33.25546Y41.03538
G01 X33.33554Y41.09477
G01 X33.42106Y41.14603
G01 X33.51119Y41.18866
G01 X33.60507Y41.22225
G01 X33.70179Y41.24648
G01 X33.80041Y41.26111
G01 X33.9Y41.266
G01 X35.38416Y41.266
G01 X35.424Y41.30584
G01 X35.424Y44.314
G01 X33.9Y44.314
G01 X33.265Y44.314
G01 X31.36Y44.314
G01 X31.26041Y44.31889
G01 X31.16179Y44.33352
G01 X31.06507Y44.35775
G01 X30.97119Y44.39134
G01 X30.88106Y44.43397
G01 X30.79554Y44.48523
G01 X30.71546Y44.54462
G01 X30.64158Y44.61158
G01 X30.57462Y44.68546
G01 X30.51523Y44.76554
G01 X30.46397Y44.85106
G01 X30.42134Y44.94119
G01 X30.38775Y45.03507
G01 X30.36352Y45.13179
G01 X30.34889Y45.23041
G01 X30.344Y45.33
G01 X30.344Y47.235
G01 X30.344Y48.124
G01 X30.344Y49.14
G01 X30.344Y50.156
G01 X31.36Y50.156
G01 X32.376Y50.156
G01 X32.84416Y50.156
G01 X32.884Y50.19584
G01 X32.884Y51.68
G01 X32.88889Y51.77959
G01 X32.90352Y51.87821
G01 X32.92775Y51.97493
G01 X32.96134Y52.06881
G01 X33.00397Y52.15894
G01 X33.05523Y52.24446
G01 X33.11462Y52.32454
G01 X33.18158Y52.39842
G01 X33.25546Y52.46538
G01 X33.33554Y52.52477
G01 X33.42106Y52.57603
G01 X33.51119Y52.61866
G01 X33.60507Y52.65225
G01 X33.70179Y52.67648
G01 X33.80041Y52.69111
G01 X33.9Y52.696
G01 X35.38416Y52.696
G01 X35.424Y52.73584
G01 X35.424Y54.22
G01 X35.42889Y54.31959
G01 X35.44352Y54.41821
G01 X35.46775Y54.51493
G01 X35.50134Y54.60881
G01 X35.54397Y54.69894
G01 X35.59523Y54.78446
G01 X35.65462Y54.86454
G01 X35.72158Y54.93842
G01 X35.79546Y55.00538
G01 X35.87554Y55.06477
G01 X35.96106Y55.11603
G01 X36.05119Y55.15866
G01 X36.14507Y55.19225
G01 X36.24179Y55.21648
G01 X36.34041Y55.23111
G01 X36.44Y55.236
G01 X45.965Y55.236
G01 X46.854Y55.236
G01 X47.87Y55.236
G01 X48.886Y55.236
G01 X48.886Y54.22
G01 X48.886Y53.204
G01 X48.886Y52.73584
G01 X48.92584Y52.696
G01 X49.394Y52.696
G01 X50.41Y52.696
G01 X51.426Y52.696
G01 X51.426Y51.68
G01 X51.426Y50.664
G01 X50.41Y50.664
G01 X49.394Y50.664
G01 X48.505Y50.664
G01 X47.87Y50.664
G01 X46.346Y50.664
G01 X46.346Y47.65584
G01 X46.38584Y47.616
G01 X47.87Y47.616
G01 X47.96959Y47.61111
G01 X48.06821Y47.59648
G01 X48.16493Y47.57225
G01 X48.25881Y47.53866
G01 X48.34894Y47.49603
G01 X48.43446Y47.44477
G01 X48.51454Y47.38538
G01 X48.58842Y47.31842
G01 X48.65538Y47.24454
G01 X48.71477Y47.16446
G01 X48.76603Y47.07894
G01 X48.80866Y46.98881
G01 X48.84225Y46.89493
G01 X48.86648Y46.79821
G01 X48.88111Y46.69959
G01 X48.886Y46.6
G01 X48.886Y44.695
G01 X48.886Y41.30584
G01 X48.92584Y41.266
G01 X49.394Y41.266
G01 X50.41Y41.266
G01 X51.426Y41.266
G01 X51.426Y40.25
G01 X51.426Y39.234
G01 X50.41Y39.234
G01 X49.394Y39.234
G01 X48.505Y39.234
G01 X46.346Y39.234
G01 X46.346Y36.22584
G01 X46.38584Y36.186
G01 X47.87Y36.186
G01 X47.96959Y36.18111
G01 X48.06821Y36.16648
G01 X48.16493Y36.14225
G01 X48.25881Y36.10866
G01 X48.34894Y36.06603
G01 X48.43446Y36.01477
G01 X48.51454Y35.95538
G01 X48.58842Y35.88842
G01 X48.65538Y35.81454
G01 X48.71477Y35.73446
G01 X48.76603Y35.64894
G01 X48.80866Y35.55881
G01 X48.84225Y35.46493
G01 X48.86648Y35.36821
G01 X48.88111Y35.26959
G01 X48.886Y35.17
G01 X48.886Y33.265
G01 X48.886Y30.09
G01 X48.886Y29.87584
G01 X48.92584Y29.836
G01 X49.394Y29.836
G01 X50.41Y29.836
G01 X51.426Y29.836
G01 X51.426Y28.82
G01 X51.426Y27.804
G01 X50.41Y27.804
G01 X49.394Y27.804
G01 X48.505Y27.804
G01 X47.87Y27.804
G01 X47.235Y27.804
G01 X46.346Y27.804
G01 X46.346Y26.915
G01 X46.346Y25.01
G01 X46.346Y25.01
G01 X46.346Y23.74
G01 X46.346Y23.105
G01 X46.346Y21.16832
G01 X46.346Y19.93
G01 X46.34111Y19.83041
G01 X46.32648Y19.73179
G01 X46.30225Y19.63507
G01 X46.26866Y19.54119
G01 X46.22603Y19.45106
G01 X46.17477Y19.36554
G01 X46.11538Y19.28546
G01 X46.04842Y19.21158
G01 X45.97454Y19.14462
G01 X45.89446Y19.08523
G01 X45.80894Y19.03397
G01 X45.71881Y18.99134
G01 X45.62493Y18.95775
G01 X45.52821Y18.93352
G01 X45.42959Y18.91889
G01 X45.33Y18.914
G01 X42.155Y18.914
G01 X42.155Y14.215
G01 X42.13665Y13.84155
G01 X42.08179Y13.47171
G01 X41.99094Y13.10902
G01 X41.86498Y12.75698
G01 X41.70512Y12.41898
G01 X41.5129Y12.09828
G01 X41.29017Y11.79796
G01 X41.03908Y11.52092
G01 X40.76204Y11.26983
G01 X40.46172Y11.0471
G01 X40.14102Y10.85488
G01 X39.80302Y10.69502
G01 X39.45098Y10.56906
G01 X39.08829Y10.47821
G01 X38.71845Y10.42335
G01 X38.345Y10.405
G01 X37.97155Y10.42335
G01 X37.60171Y10.47821
G01 X37.23902Y10.56906
G01 X36.88698Y10.69502
G01 X36.54898Y10.85488
G01 X36.22828Y11.0471
G01 X35.92796Y11.26983
G01 X35.65092Y11.52092
G01 X35.39983Y11.79796
G01 X35.1771Y12.09828
G01 X34.98488Y12.41898
G01 X34.82502Y12.75698
G01 X34.69906Y13.10902
G01 X34.60821Y13.47171
G01 X34.55335Y13.84155
G01 X34.535Y14.215
G01 X34.535Y19.93
G01 X34.535Y20.39816
G01 X32.84416Y22.089
G01 X32.63Y22.089
G01 X31.995Y22.089
G01 X31.36Y22.089
G01 X31.26041Y22.09389
G01 X31.16179Y22.10852
G01 X31.06507Y22.13275
G01 X31.06507Y22.13275
M5
G01 X46.854Y48.124
M3
G01 X46.854Y49.14
G01 X46.854Y50.156
G01 X47.87Y50.156
G01 X48.886Y50.156
G01 X49.394Y50.156
G01 X50.41Y50.156
G01 X51.426Y50.156
G01 X51.426Y49.14
G01 X51.426Y48.124
G01 X50.41Y48.124
G01 X49.394Y48.124
G01 X48.886Y48.124
G01 X47.87Y48.124
G01 X46.854Y48.124
G01 X46.854Y48.124
M5
G01 X47.87Y36.694
M3
G01 X46.854Y36.694
G01 X46.854Y37.71
G01 X46.854Y38.726
G01 X47.87Y38.726
G01 X48.886Y38.726
G01 X49.394Y38.726
G01 X50.41Y38.726
G01 X51.426Y38.726
G01 X51.426Y37.71
G01 X51.426Y36.694
G01 X50.41Y36.694
G01 X49.394Y36.694
G01 X48.886Y36.694
G01 X47.87Y36.694
G01 X47.87Y36.694
M5
G01 X48.886Y25.264
M3
G01 X47.87Y25.264
G01 X46.854Y25.264
G01 X46.854Y26.28
G01 X46.854Y27.296
G01 X47.87Y27.296
G01 X48.886Y27.296
G01 X49.394Y27.296
G01 X50.41Y27.296
G01 X51.426Y27.296
G01 X51.426Y26.28
G01 X51.426Y25.264
G01 X50.41Y25.264
G01 X49.394Y25.264
G01 X48.886Y25.264
G01 X48.886Y25.264
M5
G01 X56.887Y128.134
M3
G01 X56.887Y123.75063
G01 X66.82382Y113.81382
G01 X69.99882Y110.63882
G01 X70.04903Y110.58341
G01 X70.09358Y110.52334
G01 X70.13202Y110.4592
G01 X70.164Y110.3916
G01 X70.18919Y110.3212
G01 X70.20736Y110.24866
G01 X70.21833Y110.17469
G01 X70.222Y110.1
G01 X70.222Y109.211
G01 X70.476Y109.211
G01 X70.476Y107.179
G01 X68.444Y107.179
G01 X68.444Y107.433
G01 X67.301Y107.433
G01 X67.301Y107.179
G01 X65.269Y107.179
G01 X65.269Y109.211
G01 X65.523Y109.211
G01 X65.523Y112.95937
G01 X55.58618Y122.89618
G01 X55.53597Y122.95159
G01 X55.49142Y123.01166
G01 X55.45298Y123.0758
G01 X55.421Y123.1434
G01 X55.39581Y123.2138
G01 X55.37764Y123.28634
G01 X55.36667Y123.36031
G01 X55.363Y123.435
G01 X55.363Y128.134
G01 X55.109Y128.134
G01 X55.109Y130.166
G01 X57.141Y130.166
G01 X57.141Y128.134
G01 X56.887Y128.134
G01 X56.887Y128.134
M5
G01 X68.444Y97.019
M3
G01 X68.444Y97.273
G01 X67.301Y97.273
G01 X67.301Y97.019
G01 X65.269Y97.019
G01 X65.269Y97.273
G01 X64.126Y97.273
G01 X64.126Y97.019
G01 X62.094Y97.019
G01 X62.094Y99.051
G01 X64.126Y99.051
G01 X64.126Y98.797
G01 X65.269Y98.797
G01 X65.269Y99.051
G01 X67.301Y99.051
G01 X67.301Y98.797
G01 X68.444Y98.797
G01 X68.444Y99.051
G01 X70.476Y99.051
G01 X70.476Y97.019
G01 X68.444Y97.019
G01 X68.444Y97.019
M5
G01 X55.617Y109.211
M3
G01 X55.871Y109.211
G01 X55.871Y107.179
G01 X53.839Y107.179
G01 X53.839Y107.433
G01 X52.696Y107.433
G01 X52.696Y107.179
G01 X50.664Y107.179
G01 X50.664Y109.211
G01 X50.918Y109.211
G01 X50.918Y119.30937
G01 X47.96618Y122.26118
G01 X47.91597Y122.31659
G01 X47.87142Y122.37666
G01 X47.83298Y122.4408
G01 X47.801Y122.5084
G01 X47.77581Y122.5788
G01 X47.75764Y122.65134
G01 X47.74667Y122.72531
G01 X47.743Y122.8
G01 X47.743Y128.134
G01 X47.489Y128.134
G01 X47.489Y130.166
G01 X49.521Y130.166
G01 X49.521Y128.134
G01 X49.267Y128.134
G01 X49.267Y123.11563
G01 X52.21882Y120.16382
G01 X55.39382Y116.98882
G01 X55.44403Y116.93341
G01 X55.48858Y116.87334
G01 X55.52702Y116.8092
G01 X55.559Y116.7416
G01 X55.58419Y116.6712
G01 X55.60236Y116.59866
G01 X55.61333Y116.52469
G01 X55.617Y116.45
G01 X55.617Y109.211
G01 X55.617Y109.211
M5
G01 X55.871Y98.797
M3
G01 X57.014Y98.797
G01 X57.014Y99.051
G01 X59.046Y99.051
G01 X59.046Y97.019
G01 X57.014Y97.019
G01 X57.014Y97.273
G01 X55.871Y97.273
G01 X55.871Y97.019
G01 X53.839Y97.019
G01 X53.839Y97.273
G01 X52.696Y97.273
G01 X52.696Y97.019
G01 X50.664Y97.019
G01 X50.664Y99.051
G01 X52.696Y99.051
G01 X52.696Y98.797
G01 X53.839Y98.797
G01 X53.839Y99.051
G01 X55.871Y99.051
G01 X55.871Y98.797
G01 X55.871Y98.797
M5
G01 X42.409Y128.134
M3
G01 X42.409Y130.166
G01 X44.441Y130.166
G01 X44.441Y128.134
G01 X44.187Y128.134
G01 X44.187Y123.75063
G01 X45.23382Y122.70382
G01 X48.40882Y119.52882
G01 X48.45903Y119.47341
G01 X48.50358Y119.41334
G01 X48.54202Y119.3492
G01 X48.574Y119.2816
G01 X48.59919Y119.2112
G01 X48.61736Y119.13866
G01 X48.62833Y119.06469
G01 X48.632Y118.99
G01 X48.632Y109.211
G01 X48.886Y109.211
G01 X48.886Y107.179
G01 X46.854Y107.179
G01 X46.854Y107.433
G01 X45.711Y107.433
G01 X45.711Y107.179
G01 X43.679Y107.179
G01 X43.679Y109.211
G01 X43.933Y109.211
G01 X43.933Y121.84937
G01 X42.88618Y122.89618
G01 X42.83597Y122.95159
G01 X42.79142Y123.01166
G01 X42.75298Y123.0758
G01 X42.75298Y123.0758
G01 X42.721Y123.1434
G01 X42.69581Y123.2138
G01 X42.67764Y123.28634
G01 X42.66667Y123.36031
G01 X42.663Y123.435
G01 X42.663Y128.134
G01 X42.409Y128.134
G01 X42.409Y128.134
M5
G01 X40.504Y99.051
M3
G01 X42.536Y99.051
G01 X42.536Y98.797
G01 X43.679Y98.797
G01 X43.679Y99.051
G01 X45.711Y99.051
G01 X45.711Y98.797
G01 X46.854Y98.797
G01 X46.854Y99.051
G01 X48.886Y99.051
G01 X48.886Y97.019
G01 X46.854Y97.019
G01 X46.854Y97.273
G01 X45.711Y97.273
G01 X45.711Y97.019
G01 X43.679Y97.019
G01 X43.679Y97.273
G01 X42.536Y97.273
G01 X42.536Y97.019
G01 X40.504Y97.019
G01 X40.504Y99.051
G01 X40.504Y99.051
M5
G01 X34.281Y107.179
M3
G01 X32.249Y107.179
G01 X32.249Y107.433
G01 X31.106Y107.433
G01 X31.106Y107.179
G01 X29.074Y107.179
G01 X29.074Y109.211
G01 X31.106Y109.211
G01 X31.106Y108.957
G01 X32.249Y108.957
G01 X32.249Y109.211
G01 X32.503Y109.211
G01 X32.503Y110.1
G01 X32.50667Y110.17469
G01 X32.51764Y110.24866
G01 X32.53581Y110.3212
G01 X32.561Y110.3916
G01 X32.59298Y110.4592
G01 X32.63142Y110.52334
G01 X32.67597Y110.58341
G01 X32.72618Y110.63882
G01 X33.36118Y111.27382
G01 X33.99618Y111.90882
G01 X37.583Y115.49563
G01 X37.583Y120.39538
G01 X37.583Y128.134
G01 X37.329Y128.134
G01 X37.329Y130.166
G01 X39.361Y130.166
G01 X39.361Y128.134
G01 X39.107Y128.134
G01 X39.107Y120.39538
G01 X39.107Y115.18
G01 X39.10333Y115.10531
G01 X39.09236Y115.03134
G01 X39.07419Y114.9588
G01 X39.049Y114.8884
G01 X39.01702Y114.8208
G01 X38.97858Y114.75666
G01 X38.93403Y114.69659
G01 X38.88382Y114.64118
G01 X35.07382Y110.83118
G01 X34.43882Y110.19618
G01 X34.027Y109.78437
G01 X34.027Y109.211
G01 X34.281Y109.211
G01 X34.281Y107.179
G01 X34.281Y107.179
M5
G01 X34.281Y97.019
M3
G01 X32.249Y97.019
G01 X32.249Y97.273
G01 X31.106Y97.273
G01 X31.106Y97.019
G01 X29.074Y97.019
G01 X29.074Y99.051
G01 X31.106Y99.051
G01 X31.106Y98.797
G01 X32.249Y98.797
G01 X32.249Y99.051
G01 X34.281Y99.051
G01 X34.281Y98.797
G01 X35.424Y98.797
G01 X35.424Y99.051
G01 X37.456Y99.051
G01 X37.456Y97.019
G01 X35.424Y97.019
G01 X35.424Y97.273
G01 X34.281Y97.273
G01 X34.281Y97.019
G01 X34.281Y97.019
M5
G01 X61.15903Y115.02841
M3
G01 X61.20358Y114.96834
G01 X61.24202Y114.9042
G01 X61.274Y114.8366
G01 X61.29919Y114.7662
G01 X61.31736Y114.69366
G01 X61.32833Y114.61969
G01 X61.332Y114.545
G01 X61.332Y108.957
G01 X62.094Y108.957
G01 X62.094Y109.211
G01 X64.126Y109.211
G01 X64.126Y107.179
G01 X62.094Y107.179
G01 X62.094Y107.433
G01 X61.205Y107.433
G01 X60.57Y107.433
G01 X59.046Y107.433
G01 X59.046Y107.179
G01 X57.014Y107.179
G01 X57.014Y109.211
G01 X59.046Y109.211
G01 X59.046Y108.957
G01 X59.808Y108.957
G01 X59.808Y114.22937
G01 X50.50618Y123.53118
G01 X50.45597Y123.58659
G01 X50.41142Y123.64666
G01 X50.37298Y123.7108
G01 X50.341Y123.7784
G01 X50.31581Y123.8488
G01 X50.29764Y123.92134
G01 X50.28667Y123.99531
G01 X50.283Y124.07
G01 X50.283Y128.134
G01 X50.029Y128.134
G01 X50.029Y130.166
G01 X52.061Y130.166
G01 X52.061Y128.134
G01 X51.807Y128.134
G01 X51.807Y124.38563
G01 X61.10882Y115.08382
G01 X61.15903Y115.02841
G01 X61.15903Y115.02841
M5
G01 X17.43979Y102.60945
M3
G01 X17.39Y102.607
G01 X17.39Y102.607
G01 X17.39Y102.607
G01 X15.06042Y102.607
G01 X14.088Y101.63458
G01 X14.088Y98.99948
G01 X14.41101Y98.67647
G01 X14.41101Y98.67647
G01 X14.54448Y98.543
G01 X15.104Y98.543
G01 X15.104Y99.051
G01 X17.136Y99.051
G01 X17.136Y98.797
G01 X21.51937Y98.797
G01 X22.089Y99.36663
G01 X22.089Y100.321
G01 X22.343Y100.321
G01 X22.343Y104.004
G01 X22.089Y104.004
G01 X22.089Y106.036
G01 X22.343Y106.036
G01 X22.343Y109.465
G01 X22.34667Y109.53969
G01 X22.35764Y109.61366
G01 X22.37581Y109.6862
G01 X22.401Y109.7566
G01 X22.43298Y109.8242
G01 X22.47142Y109.88834
G01 X22.51597Y109.94841
G01 X22.56618Y110.00382
G01 X27.01118Y114.44882
G01 X27.01118Y114.44882
G01 X27.32868Y114.76632
G01 X27.32868Y114.76632
G01 X28.91618Y116.35382
G01 X29.963Y117.40063
G01 X29.963Y118.355
G01 X29.963Y120.514
G01 X29.709Y120.514
G01 X29.709Y122.546
G01 X29.963Y122.546
G01 X29.963Y128.134
G01 X29.709Y128.134
G01 X29.709Y129.15
G01 X29.709Y130.166
G01 X29.709Y132.325
G01 X29.71389Y132.42459
G01 X29.72852Y132.52321
G01 X29.75275Y132.61993
G01 X29.78634Y132.71381
G01 X29.82897Y132.80394
G01 X29.88023Y132.88946
G01 X29.93962Y132.96954
G01 X30.00658Y133.04342
G01 X30.08046Y133.11038
G01 X30.16054Y133.16977
G01 X30.24606Y133.22103
G01 X30.33619Y133.26366
G01 X30.43007Y133.29725
G01 X30.52679Y133.32148
G01 X30.62541Y133.33611
G01 X30.725Y133.341
G01 X35.805Y133.341
G01 X45.965Y133.341
G01 X53.35697Y133.341
G01 X53.35697Y133.341
G01 X53.35697Y133.341
G01 X58.03Y133.341
G01 X58.12959Y133.33611
G01 X58.22821Y133.32148
G01 X58.32493Y133.29725
G01 X58.41881Y133.26366
G01 X58.50894Y133.22103
G01 X58.59446Y133.16977
G01 X58.67454Y133.11038
G01 X58.74842Y133.04342
G01 X59.38342Y132.40842
G01 X59.45038Y132.33454
G01 X59.50977Y132.25446
G01 X59.56103Y132.16894
G01 X59.60366Y132.07881
G01 X59.63725Y131.98493
G01 X59.66148Y131.88821
G01 X59.67611Y131.78959
G01 X59.681Y131.69
G01 X59.681Y130.166
G01 X59.681Y129.15
G01 X59.681Y128.134
G01 X59.427Y128.134
G01 X59.427Y125.02063
G01 X73.80882Y110.63882
G01 X73.85903Y110.58341
G01 X73.90358Y110.52334
G01 X73.94202Y110.4592
G01 X73.974Y110.3916
G01 X73.99919Y110.3212
G01 X74.01736Y110.24866
G01 X74.02833Y110.17469
G01 X74.032Y110.1
G01 X74.032Y99.051
G01 X74.286Y99.051
G01 X74.286Y97.019
G01 X72.254Y97.019
G01 X72.254Y99.051
G01 X72.508Y99.051
G01 X72.508Y109.78437
G01 X58.12618Y124.16618
G01 X58.07597Y124.22159
G01 X58.03142Y124.28166
G01 X57.99298Y124.3458
G01 X57.961Y124.4134
G01 X57.93581Y124.4838
G01 X57.91764Y124.55634
G01 X57.90667Y124.63031
G01 X57.903Y124.705
G01 X57.903Y128.134
G01 X57.649Y128.134
G01 X57.649Y129.15
G01 X57.649Y130.166
G01 X57.649Y131.26916
G01 X57.60916Y131.309
G01 X54.601Y131.309
G01 X54.601Y130.166
G01 X54.601Y129.15
G01 X54.601Y128.134
G01 X53.585Y128.134
G01 X52.569Y128.134
G01 X52.569Y129.15
G01 X52.569Y130.166
G01 X52.569Y131.309
G01 X46.981Y131.309
G01 X46.981Y130.166
G01 X46.981Y129.15
G01 X46.981Y128.134
G01 X45.965Y128.134
G01 X44.949Y128.134
G01 X44.949Y129.15
G01 X44.949Y130.166
G01 X44.949Y131.309
G01 X36.821Y131.309
G01 X36.821Y130.166
G01 X36.821Y129.15
G01 X36.821Y128.134
G01 X35.805Y128.134
G01 X34.789Y128.134
G01 X34.789Y129.15
G01 X34.789Y130.166
G01 X34.789Y131.309
G01 X31.741Y131.309
G01 X31.741Y130.166
G01 X31.741Y129.15
G01 X31.741Y128.134
G01 X31.487Y128.134
G01 X31.487Y122.546
G01 X31.741Y122.546
G01 X31.741Y120.514
G01 X31.487Y120.514
G01 X31.487Y118.355
G01 X31.487Y117.085
G01 X31.487Y116.831
G01 X31.741Y116.831
G01 X31.741Y114.799
G01 X30.78663Y114.799
G01 X29.67632Y113.68868
G01 X29.62091Y113.63847
G01 X29.56084Y113.59392
G01 X29.4967Y113.55548
G01 X29.4291Y113.5235
G01 X29.3587Y113.49831
G01 X29.28616Y113.48014
G01 X29.21219Y113.46917
G01 X29.1375Y113.4655
G01 X28.18313Y113.4655
G01 X28.08882Y113.37118
G01 X28.08882Y113.37118
G01 X23.867Y109.14937
G01 X23.867Y106.036
G01 X24.121Y106.036
G01 X24.121Y104.004
G01 X23.867Y104.004
G01 X23.867Y100.321
G01 X24.121Y100.321
G01 X24.121Y98.289
G01 X23.16663Y98.289
G01 X22.37382Y97.49618
G01 X22.31841Y97.44597
G01 X22.25834Y97.40142
G01 X22.1942Y97.36298
G01 X22.1266Y97.331
G01 X22.0562Y97.30581
G01 X21.98366Y97.28764
G01 X21.90969Y97.27667
G01 X21.835Y97.273
G01 X21.835Y97.273
G01 X17.136Y97.273
G01 X17.136Y97.019
G01 X15.104Y97.019
G01 X15.104Y97.527
G01 X14.33406Y97.527
G01 X14.33406Y97.527
G01 X14.33406Y97.527
G01 X14.28427Y97.52945
G01 X14.23495Y97.53676
G01 X14.1866Y97.54887
G01 X14.13966Y97.56567
G01 X14.12267Y97.57371
G01 X14.09459Y97.58698
G01 X14.05183Y97.61261
G01 X14.01179Y97.64231
G01 X13.97485Y97.67579
G01 X13.97485Y97.67579
G01 X13.69259Y97.95805
G01 X13.69259Y97.95805
G01 X13.22079Y98.42985
G01 X13.18731Y98.46679
G01 X13.15761Y98.50683
G01 X13.13198Y98.54959
G01 X13.11067Y98.59466
G01 X13.09387Y98.6416
G01 X13.08176Y98.68995
G01 X13.07445Y98.73927
G01 X13.072Y98.78906
G01 X13.072Y101.845
G01 X13.07445Y101.89479
G01 X13.08176Y101.94411
G01 X13.09387Y101.99246
G01 X13.11067Y102.0394
G01 X13.13198Y102.08447
G01 X13.15761Y102.12723
G01 X13.18731Y102.16727
G01 X13.22079Y102.20421
G01 X14.49079Y103.47421
G01 X14.52773Y103.50769
G01 X14.56777Y103.53739
G01 X14.61053Y103.56302
G01 X14.6556Y103.58433
G01 X14.70254Y103.60113
G01 X14.75089Y103.61324
G01 X14.80021Y103.62055
G01 X14.85Y103.623
G01 X17.17958Y103.623
G01 X17.517Y103.96042
G01 X17.517Y108.61958
G01 X16.54458Y109.592
G01 X5.325Y109.592
G01 X5.27521Y109.59445
G01 X5.22589Y109.60176
G01 X5.17754Y109.61387
G01 X5.1306Y109.63067
G01 X5.08553Y109.65198
G01 X5.04277Y109.67761
G01 X5.00273Y109.70731
G01 X4.96579Y109.74079
G01 X3.06079Y111.64579
G01 X3.02731Y111.68273
G01 X2.99761Y111.72277
G01 X2.97198Y111.76553
G01 X2.95067Y111.8106
G01 X2.93387Y111.85754
G01 X2.92176Y111.90589
G01 X2.91445Y111.95521
G01 X2.912Y112.005
G01 X2.912Y124.07
G01 X2.91445Y124.11979
G01 X2.92049Y124.16053
G01 X2.92176Y124.16911
G01 X2.93387Y124.21746
G01 X2.95067Y124.2644
G01 X2.97198Y124.30947
G01 X2.99761Y124.35223
G01 X3.00262Y124.35899
G01 X3.02731Y124.39227
G01 X3.05521Y124.42306
G01 X3.06079Y124.42921
G01 X4.33079Y125.69921
G01 X4.36773Y125.73269
G01 X4.37162Y125.73558
G01 X4.40777Y125.76239
G01 X4.44573Y125.78514
G01 X4.45053Y125.78802
G01 X4.4956Y125.80933
G01 X4.54254Y125.82613
G01 X4.59089Y125.83824
G01 X4.64021Y125.84555
G01 X4.69Y125.848
G01 X4.69Y125.848
G01 X4.69Y125.848
G01 X8.119Y125.848
G01 X8.119Y126.356
G01 X8.627Y126.356
G01 X8.627Y127.245
G01 X8.62945Y127.29479
G01 X8.63676Y127.34411
G01 X8.64283Y127.36834
G01 X8.64887Y127.39246
G01 X8.66567Y127.4394
G01 X8.67333Y127.4556
G01 X8.68698Y127.48447
G01 X8.71261Y127.52723
G01 X8.7323Y127.55377
G01 X8.74231Y127.56727
G01 X8.77579Y127.60421
G01 X8.77579Y127.60421
G01 X9.41079Y128.23921
G01 X9.41079Y128.23921
G01 X9.44773Y128.27269
G01 X9.48777Y128.30239
G01 X9.53053Y128.32802
G01 X9.5756Y128.34933
G01 X9.62254Y128.36613
G01 X9.67089Y128.37824
G01 X9.72021Y128.38555
G01 X9.77Y128.388
G01 X9.77Y128.388
G01 X16.755Y128.388
G01 X16.80479Y128.38555
G01 X16.85411Y128.37824
G01 X16.90246Y128.36613
G01 X16.9494Y128.34933
G01 X16.99447Y128.32802
G01 X17.03723Y128.30239
G01 X17.07727Y128.27269
G01 X17.11421Y128.23921
G01 X20.26742Y125.086
G01 X21.581Y125.086
G01 X21.581Y123.054
G01 X19.549Y123.054
G01 X19.549Y124.36758
G01 X16.54458Y127.372
G01 X9.98042Y127.372
G01 X9.643Y127.03458
G01 X9.643Y126.356
G01 X10.151Y126.356
G01 X10.151Y124.324
G01 X8.119Y124.324
G01 X8.119Y124.832
G01 X4.90042Y124.832
G01 X3.928Y123.85958
G01 X3.928Y112.21542
G01 X5.53542Y110.608
G01 X16.755Y110.608
G01 X16.80479Y110.60555
G01 X16.85411Y110.59824
G01 X16.90246Y110.58613
G01 X16.9494Y110.56933
G01 X16.99447Y110.54802
G01 X17.03723Y110.52239
G01 X17.07727Y110.49269
G01 X17.11421Y110.45921
G01 X18.38421Y109.18921
G01 X18.41769Y109.15227
G01 X18.44739Y109.11223
G01 X18.47302Y109.06947
G01 X18.49433Y109.0244
G01 X18.51113Y108.97746
G01 X18.52324Y108.92911
G01 X18.53055Y108.87979
G01 X18.533Y108.83
G01 X18.533Y103.75
G01 X18.53055Y103.70021
G01 X18.52324Y103.65089
G01 X18.51113Y103.60254
G01 X18.49433Y103.5556
G01 X18.48039Y103.52611
G01 X18.47302Y103.51053
G01 X18.44739Y103.46777
G01 X18.43737Y103.45427
G01 X18.41769Y103.42773
G01 X18.38421Y103.39079
G01 X18.38421Y103.39079
G01 X17.74921Y102.75579
G01 X17.74921Y102.75579
G01 X17.72064Y102.7299
G01 X17.71227Y102.72231
G01 X17.70485Y102.71681
G01 X17.67223Y102.69261
G01 X17.63587Y102.67082
G01 X17.62947Y102.66698
G01 X17.5844Y102.64567
G01 X17.53746Y102.62887
G01 X17.48911Y102.61676
G01 X17.43979Y102.60945
G01 X17.43979Y102.60945
M5
G01 X17.6112Y111.91081
M3
G01 X17.53866Y111.89264
G01 X17.46469Y111.88167
G01 X17.39Y111.878
G01 X15.32218Y111.878
G01 X14.85Y111.878
G01 X13.196Y111.878
G01 X6.595Y111.878
G01 X6.52031Y111.88167
G01 X6.44634Y111.89264
G01 X6.3738Y111.91081
G01 X6.3034Y111.936
G01 X6.2358Y111.96798
G01 X6.17166Y112.00642
G01 X6.11159Y112.05097
G01 X6.05618Y112.10118
G01 X5.42118Y112.73618
G01 X5.37097Y112.79159
G01 X5.32642Y112.85166
G01 X5.28798Y112.9158
G01 X5.256Y112.9834
G01 X5.23081Y113.0538
G01 X5.21264Y113.12634
G01 X5.20167Y113.20031
G01 X5.198Y113.275
G01 X5.198Y114.799
G01 X4.944Y114.799
G01 X4.944Y116.831
G01 X6.976Y116.831
G01 X6.976Y114.799
G01 X6.722Y114.799
G01 X6.722Y113.59063
G01 X6.91063Y113.402
G01 X13.196Y113.402
G01 X14.723Y113.402
G01 X14.723Y114.799
G01 X14.469Y114.799
G01 X14.469Y116.831
G01 X16.501Y116.831
G01 X16.501Y116.577
G01 X19.549Y116.577
G01 X19.549Y116.831
G01 X21.581Y116.831
G01 X21.581Y114.799
G01 X20.62663Y114.799
G01 X17.92882Y112.10118
G01 X17.87341Y112.05097
G01 X17.81334Y112.00642
G01 X17.7492Y111.96798
G01 X17.6816Y111.936
G01 X17.6112Y111.91081
G01 X17.6112Y111.91081
M5
G01 X10.151Y114.799
M3
G01 X8.119Y114.799
G01 X8.119Y116.831
G01 X8.373Y116.831
G01 X8.373Y117.40437
G01 X5.89837Y119.879
G01 X4.944Y119.879
G01 X4.944Y121.911
G01 X6.976Y121.911
G01 X6.976Y120.95663
G01 X9.67382Y118.25882
G01 X9.72403Y118.20341
G01 X9.76858Y118.14334
G01 X9.80702Y118.0792
G01 X9.839Y118.0116
G01 X9.86419Y117.9412
G01 X9.88236Y117.86866
G01 X9.89333Y117.79469
G01 X9.897Y117.72
G01 X9.897Y116.831
G01 X10.151Y116.831
G01 X10.151Y116.577
G01 X10.6986Y116.577
G01 X11.294Y116.577
G01 X11.294Y116.831
G01 X13.326Y116.831
G01 X13.326Y114.799
G01 X11.294Y114.799
G01 X11.294Y115.053
G01 X10.6986Y115.053
G01 X10.151Y115.053
G01 X10.151Y114.799
G01 X10.151Y114.799
M5
G01 X21.31236Y102.33134
M3
G01 X21.29419Y102.2588
G01 X21.269Y102.1884
G01 X21.23702Y102.1208
G01 X21.19858Y102.05666
G01 X21.15403Y101.99659
G01 X21.10382Y101.94118
G01 X19.19882Y100.03618
G01 X19.14341Y99.98597
G01 X19.08334Y99.94142
G01 X19.0192Y99.90298
G01 X18.9516Y99.871
G01 X18.8812Y99.84581
G01 X18.80866Y99.82764
G01 X18.73469Y99.81667
G01 X18.66Y99.813
G01 X17.136Y99.813
G01 X17.136Y99.559
G01 X15.104Y99.559
G01 X15.104Y101.591
G01 X17.136Y101.591
G01 X17.136Y101.337
G01 X18.34437Y101.337
G01 X19.803Y102.79563
G01 X19.803Y104.004
G01 X19.549Y104.004
G01 X19.549Y106.036
G01 X19.803Y106.036
G01 X19.803Y110.1
G01 X19.803Y110.735
G01 X19.80667Y110.80969
G01 X19.81764Y110.88366
G01 X19.83581Y110.9562
G01 X19.861Y111.0266
G01 X19.89298Y111.0942
G01 X19.93142Y111.15834
G01 X19.97597Y111.21841
G01 X20.02618Y111.27382
G01 X27.423Y118.67063
G01 X27.423Y128.134
G01 X27.169Y128.134
G01 X27.169Y130.166
G01 X29.201Y130.166
G01 X29.201Y128.134
G01 X28.947Y128.134
G01 X28.947Y118.355
G01 X28.94333Y118.28031
G01 X28.93236Y118.20634
G01 X28.91419Y118.1338
G01 X28.889Y118.0634
G01 X28.85702Y117.9958
G01 X28.81858Y117.93166
G01 X28.77403Y117.87159
G01 X28.72382Y117.81618
G01 X21.327Y110.41937
G01 X21.327Y110.1
G01 X21.327Y106.036
G01 X21.581Y106.036
G01 X21.581Y104.004
G01 X21.327Y104.004
G01 X21.327Y102.48
G01 X21.32333Y102.40531
G01 X21.31236Y102.33134
G01 X21.31236Y102.33134
M5
G01 X24.629Y130.166
M3
G01 X26.661Y130.166
G01 X26.661Y128.134
G01 X26.407Y128.134
G01 X26.407Y126.85519
G01 X26.407Y124.07
G01 X26.407Y122.546
G01 X26.661Y122.546
G01 X26.661Y120.514
G01 X25.34742Y120.514
G01 X22.82921Y117.99579
G01 X22.79227Y117.96231
G01 X22.75223Y117.93261
G01 X22.70947Y117.90698
G01 X22.6644Y117.88567
G01 X22.61746Y117.86887
G01 X22.56911Y117.85676
G01 X22.51979Y117.84945
G01 X22.47Y117.847
G01 X18.025Y117.847
G01 X16.94759Y117.847
G01 X13.58Y117.847
G01 X13.58Y117.847
G01 X13.53021Y117.84945
G01 X13.48089Y117.85676
G01 X13.43254Y117.86887
G01 X13.42624Y117.87113
G01 X13.3856Y117.88567
G01 X13.34852Y117.9032
G01 X13.34053Y117.90698
G01 X13.29777Y117.93261
G01 X13.25773Y117.96231
G01 X13.22079Y117.99579
G01 X13.22079Y117.99579
G01 X12.58579Y118.63079
G01 X12.58579Y118.63079
G01 X11.31579Y119.90079
G01 X11.31117Y119.90588
G01 X11.28231Y119.93773
G01 X11.25762Y119.97102
G01 X11.25261Y119.97777
G01 X11.22698Y120.02053
G01 X11.20567Y120.0656
G01 X11.18887Y120.11254
G01 X11.17676Y120.16089
G01 X11.16945Y120.21021
G01 X11.167Y120.26
G01 X11.167Y124.324
G01 X10.659Y124.324
G01 X10.659Y126.356
G01 X12.691Y126.356
G01 X12.691Y124.324
G01 X12.183Y124.324
G01 X12.183Y120.47042
G01 X13.30421Y119.34921
G01 X13.30421Y119.34921
G01 X13.79042Y118.863
G01 X16.94759Y118.863
G01 X18.025Y118.863
G01 X22.25958Y118.863
G01 X24.629Y121.23242
G01 X24.629Y122.546
G01 X24.883Y122.546
G01 X24.883Y124.07
G01 X24.883Y126.85519
G01 X24.883Y128.134
G01 X24.629Y128.134
G01 X24.629Y130.166
G01 X24.629Y130.166
M5
G01 X16.824Y123.7266
M3
G01 X16.84919Y123.6562
G01 X16.86736Y123.58366
G01 X16.87833Y123.50969
G01 X16.882Y123.435
G01 X16.882Y121.911
G01 X17.136Y121.911
G01 X17.136Y119.879
G01 X15.104Y119.879
G01 X15.104Y121.911
G01 X15.358Y121.911
G01 X15.358Y123.11937
G01 X14.15337Y124.324
G01 X13.199Y124.324
G01 X13.199Y126.356
G01 X15.231Y126.356
G01 X15.231Y125.40163
G01 X16.65882Y123.97382
G01 X16.70903Y123.91841
G01 X16.75358Y123.85834
G01 X16.79202Y123.7942
G01 X16.80893Y123.75845
G01 X16.824Y123.7266
G01 X16.824Y123.7266
M5
G01 X22.82921Y121.80579
M3
G01 X22.82921Y121.80579
G01 X22.19421Y121.17079
G01 X22.15727Y121.13731
G01 X22.11723Y121.10761
G01 X22.07447Y121.08198
G01 X22.0294Y121.06067
G01 X21.98246Y121.04387
G01 X21.93411Y121.03176
G01 X21.88479Y121.02445
G01 X21.835Y121.022
G01 X21.581Y121.022
G01 X21.581Y120.514
G01 X19.549Y120.514
G01 X19.549Y122.546
G01 X21.581Y122.546
G01 X21.581Y122.038
G01 X21.62458Y122.038
G01 X22.11079Y122.52421
G01 X22.11079Y122.52421
G01 X22.597Y123.01042
G01 X22.597Y128.134
G01 X22.089Y128.134
G01 X22.089Y130.166
G01 X24.121Y130.166
G01 X24.121Y128.134
G01 X23.613Y128.134
G01 X23.613Y122.8
G01 X23.61055Y122.75021
G01 X23.60324Y122.70089
G01 X23.59113Y122.65254
G01 X23.57433Y122.6056
G01 X23.55302Y122.56053
G01 X23.52739Y122.51777
G01 X23.49769Y122.47773
G01 X23.46421Y122.44079
G01 X23.46421Y122.44079
G01 X22.82921Y121.80579
G01 X22.82921Y121.80579
M5
G01 X20.11698Y132.56447
M3
G01 X20.14261Y132.60723
G01 X20.17231Y132.64727
G01 X20.20579Y132.68421
G01 X22.74579Y135.22421
G01 X22.78273Y135.25769
G01 X22.82277Y135.28739
G01 X22.86553Y135.31302
G01 X22.9106Y135.33433
G01 X22.95754Y135.35113
G01 X23.00589Y135.36324
G01 X23.05521Y135.37055
G01 X23.105Y135.373
G01 X23.105Y135.373
G01 X59.3Y135.373
G01 X63.11Y135.373
G01 X63.11Y135.373
G01 X63.15979Y135.37055
G01 X63.20911Y135.36324
G01 X63.25746Y135.35113
G01 X63.3044Y135.33433
G01 X63.34947Y135.31302
G01 X63.39223Y135.28739
G01 X63.43227Y135.25769
G01 X63.46921Y135.22421
G01 X64.10421Y134.58921
G01 X64.10421Y134.58921
G01 X66.00921Y132.68421
G01 X66.04269Y132.64727
G01 X66.07239Y132.60723
G01 X66.09802Y132.56447
G01 X66.11933Y132.5194
G01 X66.13613Y132.47246
G01 X66.14824Y132.42411
G01 X66.15555Y132.37479
G01 X66.158Y132.325
G01 X66.158Y126.991
G01 X66.666Y126.991
G01 X66.666Y124.959
G01 X64.634Y124.959
G01 X64.634Y126.991
G01 X65.142Y126.991
G01 X65.142Y132.11458
G01 X63.38579Y133.87079
G01 X63.38579Y133.87079
G01 X62.89958Y134.357
G01 X59.3Y134.357
G01 X23.31542Y134.357
G01 X21.073Y132.11458
G01 X21.073Y130.166
G01 X21.581Y130.166
G01 X21.581Y128.134
G01 X19.549Y128.134
G01 X19.549Y130.166
G01 X20.057Y130.166
G01 X20.057Y132.325
G01 X20.05945Y132.37479
G01 X20.06676Y132.42411
G01 X20.07887Y132.47246
G01 X20.09567Y132.5194
G01 X20.11698Y132.56447
G01 X20.11698Y132.56447
M5
G01 X60.501Y125.6834
M3
G01 X60.47581Y125.7538
G01 X60.45764Y125.82634
G01 X60.44667Y125.90031
G01 X60.443Y125.975
G01 X60.443Y128.134
G01 X60.189Y128.134
G01 X60.189Y130.166
G01 X62.221Y130.166
G01 X62.221Y128.134
G01 X61.967Y128.134
G01 X61.967Y126.29063
G01 X71.90382Y116.35382
G01 X72.31563Y115.942
G01 X74.794Y115.942
G01 X74.794Y116.196
G01 X76.826Y116.196
G01 X76.826Y114.164
G01 X76.572Y114.164
G01 X76.572Y111.37
G01 X76.572Y99.051
G01 X76.826Y99.051
G01 X76.826Y97.019
G01 X74.794Y97.019
G01 X74.794Y99.051
G01 X75.048Y99.051
G01 X75.048Y111.05437
G01 X71.46118Y114.64118
G01 X70.82618Y115.27618
G01 X60.66618Y125.43618
G01 X60.61597Y125.49159
G01 X60.57142Y125.55166
G01 X60.53298Y125.6158
G01 X60.501Y125.6834
G01 X60.501Y125.6834
M5
G01 X76.826Y124.959
M3
G01 X76.572Y124.959
G01 X76.572Y121.276
G01 X76.826Y121.276
G01 X76.826Y119.244
G01 X74.794Y119.244
G01 X74.794Y121.276
G01 X75.048Y121.276
G01 X75.048Y124.959
G01 X74.794Y124.959
G01 X74.794Y126.991
G01 X76.826Y126.991
G01 X76.826Y124.959
G01 X76.826Y124.959
M5
G01 X11.929Y13.199
M3
G01 X11.929Y15.231
G01 X12.183Y15.231
G01 X12.183Y17.07437
G01 X5.42118Y23.83618
G01 X5.37097Y23.89159
G01 X5.32642Y23.95166
G01 X5.28798Y24.0158
G01 X5.256Y24.0834
G01 X5.23081Y24.1538
G01 X5.21264Y24.22634
G01 X5.20167Y24.30031
G01 X5.198Y24.375
G01 X5.198Y102.48
G01 X5.198Y104.639
G01 X4.944Y104.639
G01 X4.944Y106.671
G01 X6.976Y106.671
G01 X6.976Y106.417
G01 X7.23Y106.417
G01 X8.119Y106.417
G01 X8.119Y106.671
G01 X10.151Y106.671
G01 X10.151Y104.639
G01 X9.19663Y104.639
G01 X7.76882Y103.21118
G01 X7.76882Y103.21118
G01 X6.722Y102.16437
G01 X6.722Y24.69063
G01 X13.48382Y17.92882
G01 X13.53403Y17.87341
G01 X13.57858Y17.81334
G01 X13.61702Y17.7492
G01 X13.649Y17.6816
G01 X13.67419Y17.6112
G01 X13.69236Y17.53866
G01 X13.70333Y17.46469
G01 X13.707Y17.39
G01 X13.707Y15.231
G01 X13.961Y15.231
G01 X13.961Y13.199
G01 X11.929Y13.199
G01 X11.929Y13.199
M5
G01 X18.729Y17.6816
M3
G01 X18.75419Y17.6112
G01 X18.77236Y17.53866
G01 X18.78333Y17.46469
G01 X18.787Y17.39
G01 X18.787Y15.231
G01 X19.041Y15.231
G01 X19.041Y13.199
G01 X17.009Y13.199
G01 X17.009Y15.231
G01 X17.263Y15.231
G01 X17.263Y17.07437
G01 X8.59618Y25.74118
G01 X8.54597Y25.79659
G01 X8.50142Y25.85666
G01 X8.46298Y25.9208
G01 X8.431Y25.9884
G01 X8.40581Y26.0588
G01 X8.38764Y26.13134
G01 X8.37667Y26.20531
G01 X8.373Y26.28
G01 X8.373Y101.21
G01 X8.37667Y101.28469
G01 X8.38764Y101.35866
G01 X8.40581Y101.4312
G01 X8.431Y101.5016
G01 X8.46298Y101.5692
G01 X8.50142Y101.63334
G01 X8.54597Y101.69341
G01 X8.59618Y101.74882
G01 X11.48637Y104.639
G01 X11.294Y104.639
G01 X11.294Y106.671
G01 X13.326Y106.671
G01 X13.326Y106.417
G01 X13.58Y106.417
G01 X14.469Y106.417
G01 X14.469Y106.671
G01 X16.501Y106.671
G01 X16.501Y104.639
G01 X14.469Y104.639
G01 X14.469Y104.893
G01 X13.89563Y104.893
G01 X12.84882Y103.84618
G01 X9.897Y100.89437
G01 X9.897Y26.59563
G01 X18.56382Y17.92882
G01 X18.61403Y17.87341
G01 X18.65858Y17.81334
G01 X18.69702Y17.7492
G01 X18.729Y17.6816
G01 X18.729Y17.6816
M5
G01 X76.826Y116.704
M3
G01 X74.794Y116.704
G01 X74.794Y118.736
G01 X76.826Y118.736
G01 X76.826Y116.704
G01 X76.826Y116.704
M5
G01 X76.57202Y129.45335
M3
G01 X76.33732Y129.36937
G01 X76.09553Y129.30881
G01 X75.84896Y129.27223
G01 X75.6Y129.26
G01 X75.35104Y129.27223
G01 X75.10447Y129.30881
G01 X74.86268Y129.36937
G01 X74.62798Y129.45335
G01 X74.40265Y129.55992
G01 X74.18885Y129.68807
G01 X73.98864Y129.83655
G01 X73.80395Y130.00395
G01 X73.63655Y130.18864
G01 X73.48807Y130.38885
G01 X73.35992Y130.60265
G01 X73.25335Y130.82798
G01 X73.16937Y131.06268
G01 X73.10881Y131.30447
G01 X73.07223Y131.55104
G01 X73.06Y131.8
G01 X73.07223Y132.04896
G01 X73.10881Y132.29553
G01 X73.16937Y132.53732
G01 X73.25335Y132.77202
G01 X73.35992Y132.99735
G01 X73.48807Y133.21115
G01 X73.63655Y133.41136
G01 X73.80395Y133.59605
G01 X73.98864Y133.76345
G01 X74.18885Y133.91193
G01 X74.40265Y134.04008
G01 X74.62798Y134.14665
G01 X74.86268Y134.23063
G01 X75.10447Y134.29119
G01 X75.35104Y134.32777
G01 X75.6Y134.34
G01 X75.84896Y134.32777
G01 X76.09553Y134.29119
G01 X76.33732Y134.23063
G01 X76.57202Y134.14665
G01 X76.79735Y134.04008
G01 X77.01115Y133.91193
G01 X77.21136Y133.76345
G01 X77.39605Y133.59605
G01 X77.56345Y133.41136
G01 X77.71193Y133.21115
G01 X77.84008Y132.99735
G01 X77.94665Y132.77202
G01 X78.03063Y132.53732
G01 X78.09119Y132.29553
G01 X78.12777Y132.04896
G01 X78.14Y131.8
G01 X78.12777Y131.55104
G01 X78.09119Y131.30447
G01 X78.03063Y131.06268
G01 X77.94665Y130.82798
G01 X77.84008Y130.60265
G01 X77.71193Y130.38885
G01 X77.56345Y130.18864
G01 X77.39605Y130.00395
G01 X77.21136Y129.83655
G01 X77.01115Y129.68807
G01 X76.79735Y129.55992
G01 X76.57202Y129.45335
G01 X76.57202Y129.45335
M5
G01 X7.79735Y129.55992
M3
G01 X7.57202Y129.45335
G01 X7.33732Y129.36937
G01 X7.09553Y129.30881
G01 X6.84896Y129.27223
G01 X6.6Y129.26
G01 X6.35104Y129.27223
G01 X6.10447Y129.30881
G01 X5.86268Y129.36937
G01 X5.62798Y129.45335
G01 X5.40265Y129.55992
G01 X5.18885Y129.68807
G01 X4.98864Y129.83655
G01 X4.80395Y130.00395
G01 X4.63655Y130.18864
G01 X4.48807Y130.38885
G01 X4.35992Y130.60265
G01 X4.25335Y130.82798
G01 X4.16937Y131.06268
G01 X4.10881Y131.30447
G01 X4.07223Y131.55104
G01 X4.06Y131.8
G01 X4.07223Y132.04896
G01 X4.10881Y132.29553
G01 X4.16937Y132.53732
G01 X4.25335Y132.77202
G01 X4.35992Y132.99735
G01 X4.48807Y133.21115
G01 X4.63655Y133.41136
G01 X4.80395Y133.59605
G01 X4.98864Y133.76345
G01 X5.18885Y133.91193
G01 X5.40265Y134.04008
G01 X5.62798Y134.14665
G01 X5.86268Y134.23063
G01 X6.10447Y134.29119
G01 X6.35104Y134.32777
G01 X6.6Y134.34
G01 X6.84896Y134.32777
G01 X7.09553Y134.29119
G01 X7.33732Y134.23063
G01 X7.57202Y134.14665
G01 X7.79735Y134.04008
G01 X8.01115Y133.91193
G01 X8.21136Y133.76345
G01 X8.39605Y133.59605
G01 X8.56345Y133.41136
G01 X8.71193Y133.21115
G01 X8.84008Y132.99735
G01 X8.94665Y132.77202
G01 X9.03063Y132.53732
G01 X9.09119Y132.29553
G01 X9.12777Y132.04896
G01 X9.14Y131.8
G01 X9.12777Y131.55104
G01 X9.09119Y131.30447
G01 X9.03063Y131.06268
G01 X8.94665Y130.82798
G01 X8.84008Y130.60265
G01 X8.71193Y130.38885
G01 X8.56345Y130.18864
G01 X8.39605Y130.00395
G01 X8.21136Y129.83655
G01 X8.01115Y129.68807
G01 X7.79735Y129.55992
G01 X7.79735Y129.55992
M5
G01 X8.01115Y4.18807
M3
G01 X7.79735Y4.05992
G01 X7.57202Y3.95335
G01 X7.33732Y3.86937
G01 X7.09553Y3.80881
G01 X6.84896Y3.77223
G01 X6.6Y3.76
G01 X6.35104Y3.77223
G01 X6.10447Y3.80881
G01 X5.86268Y3.86937
G01 X5.62798Y3.95335
G01 X5.40265Y4.05992
G01 X5.18885Y4.18807
G01 X4.98864Y4.33655
G01 X4.80395Y4.50395
G01 X4.63655Y4.68864
G01 X4.48807Y4.88885
G01 X4.35992Y5.10265
G01 X4.25335Y5.32798
G01 X4.16937Y5.56268
G01 X4.10881Y5.80447
G01 X4.07223Y6.05104
G01 X4.06Y6.3
G01 X4.07223Y6.54896
G01 X4.10881Y6.79553
G01 X4.16937Y7.03732
G01 X4.25335Y7.27202
G01 X4.35992Y7.49735
G01 X4.48807Y7.71115
G01 X4.63655Y7.91136
G01 X4.80395Y8.09605
G01 X4.98864Y8.26345
G01 X5.18885Y8.41193
G01 X5.40265Y8.54008
G01 X5.62798Y8.64665
G01 X5.86268Y8.73063
G01 X6.10447Y8.79119
G01 X6.35104Y8.82777
G01 X6.6Y8.84
G01 X6.84896Y8.82777
G01 X7.09553Y8.79119
G01 X7.33732Y8.73063
G01 X7.57202Y8.64665
G01 X7.79735Y8.54008
G01 X8.01115Y8.41193
G01 X8.21136Y8.26345
G01 X8.39605Y8.09605
G01 X8.56345Y7.91136
G01 X8.71193Y7.71115
G01 X8.84008Y7.49735
G01 X8.94665Y7.27202
G01 X9.03063Y7.03732
G01 X9.09119Y6.79553
G01 X9.12777Y6.54896
G01 X9.14Y6.3
G01 X9.12777Y6.05104
G01 X9.09119Y5.80447
G01 X9.03063Y5.56268
G01 X8.94665Y5.32798
G01 X8.84008Y5.10265
G01 X8.71193Y4.88885
G01 X8.56345Y4.68864
G01 X8.39605Y4.50395
G01 X8.21136Y4.33655
G01 X8.01115Y4.18807
G01 X8.01115Y4.18807
M5
G01 X77.01115Y4.18807
M3
G01 X76.79735Y4.05992
G01 X76.57202Y3.95335
G01 X76.33732Y3.86937
G01 X76.09553Y3.80881
G01 X75.84896Y3.77223
G01 X75.6Y3.76
G01 X75.35104Y3.77223
G01 X75.10447Y3.80881
G01 X74.86268Y3.86937
G01 X74.62798Y3.95335
G01 X74.40265Y4.05992
G01 X74.18885Y4.18807
G01 X73.98864Y4.33655
G01 X73.80395Y4.50395
G01 X73.63655Y4.68864
G01 X73.48807Y4.88885
G01 X73.35992Y5.10265
G01 X73.25335Y5.32798
G01 X73.16937Y5.56268
G01 X73.10881Y5.80447
G01 X73.07223Y6.05104
G01 X73.06Y6.3
G01 X73.07223Y6.54896
G01 X73.10881Y6.79553
G01 X73.16937Y7.03732
G01 X73.25335Y7.27202
G01 X73.35992Y7.49735
G01 X73.48807Y7.71115
G01 X73.63655Y7.91136
G01 X73.80395Y8.09605
G01 X73.98864Y8.26345
G01 X74.18885Y8.41193
G01 X74.40265Y8.54008
G01 X74.62798Y8.64665
G01 X74.86268Y8.73063
G01 X75.10447Y8.79119
G01 X75.35104Y8.82777
G01 X75.6Y8.84
G01 X75.84896Y8.82777
G01 X76.09553Y8.79119
G01 X76.33732Y8.73063
G01 X76.57202Y8.64665
G01 X76.79735Y8.54008
G01 X77.01115Y8.41193
G01 X77.21136Y8.26345
G01 X77.39605Y8.09605
G01 X77.56345Y7.91136
G01 X77.71193Y7.71115
G01 X77.84008Y7.49735
G01 X77.94665Y7.27202
G01 X78.03063Y7.03732
G01 X78.09119Y6.79553
G01 X78.12777Y6.54896
G01 X78.14Y6.3
G01 X78.12777Y6.05104
G01 X78.09119Y5.80447
G01 X78.03063Y5.56268
G01 X77.94665Y5.32798
G01 X77.84008Y5.10265
G01 X77.71193Y4.88885
G01 X77.56345Y4.68864
G01 X77.39605Y4.50395
G01 X77.21136Y4.33655
G01 X77.01115Y4.18807
G01 X77.01115Y4.18807
M5
G01 X68.2992Y11.76069
M3
G01 X68.04894Y11.57508
G01 X67.78168Y11.4149
G01 X67.50002Y11.28168
G01 X67.20665Y11.17671
G01 X66.90441Y11.10101
G01 X66.5962Y11.05529
G01 X66.285Y11.04
G01 X65.9738Y11.05529
G01 X65.66559Y11.10101
G01 X65.36335Y11.17671
G01 X65.06998Y11.28168
G01 X64.78832Y11.4149
G01 X64.52106Y11.57508
G01 X64.2708Y11.76069
G01 X64.03994Y11.96994
G01 X63.83069Y12.2008
G01 X63.64508Y12.45106
G01 X63.4849Y12.71832
G01 X63.35168Y12.99998
G01 X63.24671Y13.29335
G01 X63.17101Y13.59559
G01 X63.12529Y13.9038
G01 X63.11Y14.215
G01 X63.12529Y14.5262
G01 X63.17101Y14.83441
G01 X63.24671Y15.13665
G01 X63.35168Y15.43002
G01 X63.4849Y15.71168
G01 X63.64508Y15.97894
G01 X63.83069Y16.2292
G01 X64.03994Y16.46006
G01 X64.2708Y16.66931
G01 X64.52106Y16.85492
G01 X64.78832Y17.0151
G01 X65.06998Y17.14832
G01 X65.36335Y17.25329
G01 X65.66559Y17.32899
G01 X65.9738Y17.37471
G01 X66.285Y17.39
G01 X66.5962Y17.37471
G01 X66.90441Y17.32899
G01 X67.20665Y17.25329
G01 X67.50002Y17.14832
G01 X67.78168Y17.0151
G01 X68.04894Y16.85492
G01 X68.2992Y16.66931
G01 X68.53006Y16.46006
G01 X68.73931Y16.2292
G01 X68.92492Y15.97894
G01 X69.0851Y15.71168
G01 X69.21832Y15.43002
G01 X69.32329Y15.13665
G01 X69.39899Y14.83441
G01 X69.44471Y14.5262
G01 X69.46Y14.215
G01 X69.44471Y13.9038
G01 X69.39899Y13.59559
G01 X69.32329Y13.29335
G01 X69.21832Y12.99998
G01 X69.0851Y12.71832
G01 X68.92492Y12.45106
G01 X68.73931Y12.2008
G01 X68.53006Y11.96994
G01 X68.2992Y11.76069
G01 X68.2992Y11.76069
M5
G01 X50.6701Y12.71832
M3
G01 X50.50992Y12.45106
G01 X50.32431Y12.2008
G01 X50.11506Y11.96994
G01 X49.8842Y11.76069
G01 X49.63394Y11.57508
G01 X49.36668Y11.4149
G01 X49.08502Y11.28168
G01 X48.79165Y11.17671
G01 X48.48941Y11.10101
G01 X48.1812Y11.05529
G01 X47.87Y11.04
G01 X47.5588Y11.05529
G01 X47.25059Y11.10101
G01 X46.94835Y11.17671
G01 X46.65498Y11.28168
G01 X46.37332Y11.4149
G01 X46.10606Y11.57508
G01 X45.8558Y11.76069
G01 X45.62494Y11.96994
G01 X45.41569Y12.2008
G01 X45.23008Y12.45106
G01 X45.0699Y12.71832
G01 X44.93668Y12.99998
G01 X44.83171Y13.29335
G01 X44.75601Y13.59559
G01 X44.71029Y13.9038
G01 X44.695Y14.215
G01 X44.71029Y14.5262
G01 X44.75601Y14.83441
G01 X44.83171Y15.13665
G01 X44.93668Y15.43002
G01 X45.0699Y15.71168
G01 X45.23008Y15.97894
G01 X45.41569Y16.2292
G01 X45.62494Y16.46006
G01 X45.8558Y16.66931
G01 X46.10606Y16.85492
G01 X46.37332Y17.0151
G01 X46.65498Y17.14832
G01 X46.94835Y17.25329
G01 X47.25059Y17.32899
G01 X47.5588Y17.37471
G01 X47.87Y17.39
G01 X48.1812Y17.37471
G01 X48.48941Y17.32899
G01 X48.79165Y17.25329
G01 X49.08502Y17.14832
G01 X49.36668Y17.0151
G01 X49.63394Y16.85492
G01 X49.8842Y16.66931
G01 X50.11506Y16.46006
G01 X50.32431Y16.2292
G01 X50.50992Y15.97894
G01 X50.6701Y15.71168
G01 X50.80332Y15.43002
G01 X50.90829Y15.13665
G01 X50.98399Y14.83441
G01 X51.02971Y14.5262
G01 X51.045Y14.215
G01 X51.02971Y13.9038
G01 X50.98399Y13.59559
G01 X50.90829Y13.29335
G01 X50.80332Y12.99998
G01 X50.6701Y12.71832
G01 X50.6701Y12.71832
M5
G01 X60.32832Y12.99998
M3
G01 X60.1951Y12.71832
G01 X60.03492Y12.45106
G01 X59.84931Y12.2008
G01 X59.64006Y11.96994
G01 X59.4092Y11.76069
G01 X59.15894Y11.57508
G01 X58.89168Y11.4149
G01 X58.61002Y11.28168
G01 X58.31665Y11.17671
G01 X58.01441Y11.10101
G01 X57.7062Y11.05529
G01 X57.395Y11.04
G01 X57.0838Y11.05529
G01 X56.77559Y11.10101
G01 X56.47335Y11.17671
G01 X56.17998Y11.28168
G01 X55.89832Y11.4149
G01 X55.63106Y11.57508
G01 X55.3808Y11.76069
G01 X55.14994Y11.96994
G01 X54.94069Y12.2008
G01 X54.75508Y12.45106
G01 X54.5949Y12.71832
G01 X54.46168Y12.99998
G01 X54.35671Y13.29335
G01 X54.28101Y13.59559
G01 X54.23529Y13.9038
G01 X54.22Y14.215
G01 X54.23529Y14.5262
G01 X54.28101Y14.83441
G01 X54.35671Y15.13665
G01 X54.46168Y15.43002
G01 X54.5949Y15.71168
G01 X54.75508Y15.97894
G01 X54.94069Y16.2292
G01 X55.14994Y16.46006
G01 X55.3808Y16.66931
G01 X55.63106Y16.85492
G01 X55.89832Y17.0151
G01 X56.17998Y17.14832
G01 X56.47335Y17.25329
G01 X56.77559Y17.32899
G01 X57.0838Y17.37471
G01 X57.395Y17.39
G01 X57.7062Y17.37471
G01 X58.01441Y17.32899
G01 X58.31665Y17.25329
G01 X58.61002Y17.14832
G01 X58.89168Y17.0151
G01 X59.15894Y16.85492
G01 X59.4092Y16.66931
G01 X59.64006Y16.46006
G01 X59.84931Y16.2292
G01 X60.03492Y15.97894
G01 X60.1951Y15.71168
G01 X60.32832Y15.43002
G01 X60.43329Y15.13665
G01 X60.50899Y14.83441
G01 X60.55471Y14.5262
G01 X60.57Y14.215
G01 X60.55471Y13.9038
G01 X60.50899Y13.59559
G01 X60.43329Y13.29335
G01 X60.32832Y12.99998
G01 X60.32832Y12.99998
M5
G01 X80.39723Y1.97051
M3
G01 X80.39387Y1.96112
G01 X80.3896Y1.95211
G01 X80.38448Y1.94355
G01 X80.37854Y1.93555
G01 X80.37184Y1.92816
G01 X80.36445Y1.92146
G01 X80.35645Y1.91552
G01 X80.34789Y1.9104
G01 X80.33888Y1.90613
G01 X80.32949Y1.90277
G01 X80.31982Y1.90035
G01 X80.30996Y1.89889
G01 X80.3Y1.8984
G01 X2.0Y1.8984
G01 X1.99004Y1.89889
G01 X1.98018Y1.90035
G01 X1.97051Y1.90277
G01 X1.96112Y1.90613
G01 X1.95211Y1.9104
G01 X1.94355Y1.91552
G01 X1.93555Y1.92146
G01 X1.92816Y1.92816
G01 X1.92146Y1.93555
G01 X1.91552Y1.94355
G01 X1.9104Y1.95211
G01 X1.90613Y1.96112
G01 X1.90277Y1.97051
G01 X1.90035Y1.98018
G01 X1.89889Y1.99004
G01 X1.8984Y2.0
G01 X1.8984Y136.3
G01 X1.89889Y136.30996
G01 X1.90035Y136.31982
G01 X1.90277Y136.32949
G01 X1.90613Y136.33888
G01 X1.9104Y136.34789
G01 X1.91552Y136.35645
G01 X1.92146Y136.36445
G01 X1.92816Y136.37184
G01 X1.93555Y136.37854
G01 X1.94355Y136.38448
G01 X1.95211Y136.3896
G01 X1.96112Y136.39387
G01 X1.97051Y136.39723
G01 X1.98018Y136.39965
G01 X1.99004Y136.40111
G01 X2.0Y136.4016
G01 X80.3Y136.4016
G01 X80.30996Y136.40111
G01 X80.31982Y136.39965
G01 X80.32949Y136.39723
G01 X80.33888Y136.39387
G01 X80.34789Y136.3896
G01 X80.35645Y136.38448
G01 X80.36445Y136.37854
G01 X80.37184Y136.37184
G01 X80.37854Y136.36445
G01 X80.38448Y136.35645
G01 X80.3896Y136.34789
G01 X80.39387Y136.33888
G01 X80.39723Y136.32949
G01 X80.39965Y136.31982
G01 X80.40111Y136.30996
G01 X80.4016Y136.3
G01 X80.4016Y2.0
G01 X80.40111Y1.99004
G01 X80.39965Y1.98018
G01 X80.39723Y1.97051
G01 X80.39723Y1.97051
M5
G01 X68.698Y109.78437
M3
G01 X67.047Y111.43537
G01 X67.047Y109.211
G01 X67.301Y109.211
G01 X67.301Y108.957
G01 X68.444Y108.957
G01 X68.444Y109.211
G01 X68.698Y109.211
G01 X68.698Y109.78437
G01 X68.698Y109.78437
M5
G01 X53.839Y109.211
M3
G01 X54.093Y109.211
G01 X54.093Y116.13437
G01 X52.442Y117.78537
G01 X52.442Y109.211
G01 X52.696Y109.211
G01 X52.696Y108.957
G01 X53.839Y108.957
G01 X53.839Y109.211
G01 X53.839Y109.211
M5
G01 X45.711Y109.211
M3
G01 X45.711Y108.957
G01 X46.854Y108.957
G01 X46.854Y109.211
G01 X47.108Y109.211
G01 X47.108Y118.67437
G01 X45.457Y120.32537
G01 X45.457Y109.211
G01 X45.711Y109.211
G01 X45.711Y109.211
M5
G01 X16.501Y115.053
M3
G01 X16.501Y114.799
G01 X16.247Y114.799
G01 X16.247Y113.402
G01 X17.07437Y113.402
G01 X18.72537Y115.053
G01 X16.501Y115.053
G01 X16.501Y115.053
M5
G01 X73.83963Y114.418
M3
G01 X75.048Y113.20963
G01 X75.048Y114.164
G01 X74.794Y114.164
G01 X74.794Y114.418
G01 X73.83963Y114.418
G01 X73.83963Y114.418
M5
G01 X2.1016Y2.1016
M3
G01 X80.1984Y2.1016
G01 X80.1984Y136.1984
G01 X2.1016Y136.1984
G01 X2.1016Y2.1016
G01 X2.1016Y2.1016
M5

M5 ; Disable End-Effector Signal

; Returning the Deactivating Tool-1
C0 ; PWM Tool select demultiplexer to select tool zero which is the empty tool slot in multiplexers
#TODO X-0.0Y-0.0Z-0.0 ;  ;Remove tool offset coordinate
G00X165.0Y0.0Z10.5 ; Go to Tool-1 Home Pos
G00X92 ; Enter Female Kinematic Mount Home Pos
A0 ; Latch OFF Kinematic Mount
G4 P5 ; Wait for Kinematic Mount to fully detach
G00X188 ; Exit Female Kinematic Mount Home Pos

; Machine deinitialization Sequence... 
G00X0.0Y0.0Z0.0
B0 ; Turn Machine OFF
