; This gcode is generated by my specialised python script for my PCB manufacturer project :))

; Machine Initialization Sequence...

G21 ; to set metric units
G90 ; to set absolute mode , G91 for incremental mode
G94 ; To set the active feed rate mode to units per minute mode

M5 ; disabling spindle PWM
C0 ; Choosing the empty tool slot in the multiplexer circuits

B1 ; Turn ON Machine

$H ; Homing :)
G10 P0 L20 X0.0Y0.0Z0.0 ; Force Reset current coordinates after homing


; The following gcode is the PCB trace laser marking gcode

M5 ; Being extra sure it won't light up before activation

; Getting and Activating Tool-1, The Tool.Laser
G00X165.0Y0.0Z10.5 ; Go to Tool-1 Home Pos
G00X188 ; Enter Female Kinematic Mount Home Pos
A1 ; Latch on Kinematic Mount
G4 P5 ; Wait for Kinematic Mount to fully attach
G00X92 ; Exit Female Kinematic Mount Home Pos
#TODO X0.0Y0.0Z0.0 ;  ;Add tool offset coordinate
C1 ; Choosing tool 1 in the choose demultiplexer circuits

F400 ; setting default feedrate

G00Z16 ; Moving to correct focal length Z position

S200 ; Setting Laser Power

; Number of passes: 1

; Pass number: 1
G01 X34.916Y62.236
M3
G01 X34.916Y60.204
G01 X34.662Y60.204
G01 X34.662Y50.806
G01 X34.916Y50.806
G01 X34.916Y48.774
G01 X34.662Y48.774
G01 X34.662Y47.56563
G01 X35.07382Y47.15382
G01 X35.12403Y47.09841
G01 X35.16858Y47.03834
G01 X35.20702Y46.9742
G01 X35.239Y46.9066
G01 X35.26419Y46.8362
G01 X35.28236Y46.76366
G01 X35.29333Y46.68969
G01 X35.297Y46.615
G01 X35.297Y45.02563
G01 X35.70882Y44.61382
G01 X36.97882Y43.34382
G01 X37.02903Y43.28841
G01 X37.07358Y43.22834
G01 X37.11202Y43.1642
G01 X37.144Y43.0966
G01 X37.16919Y43.0262
G01 X37.18736Y42.95366
G01 X37.19833Y42.87969
G01 X37.202Y42.805
G01 X37.202Y41.281
G01 X37.456Y41.281
G01 X37.456Y39.249
G01 X35.424Y39.249
G01 X35.424Y39.503
G01 X34.281Y39.503
G01 X34.281Y39.249
G01 X32.249Y39.249
G01 X32.249Y39.503
G01 X31.106Y39.503
G01 X31.106Y39.249
G01 X29.074Y39.249
G01 X29.074Y41.281
G01 X29.328Y41.281
G01 X29.328Y42.17
G01 X29.33167Y42.24469
G01 X29.34264Y42.31866
G01 X29.36081Y42.3912
G01 X29.386Y42.4616
G01 X29.41798Y42.5292
G01 X29.45642Y42.59334
G01 X29.50097Y42.65341
G01 X29.55118Y42.70882
G01 X31.45618Y44.61382
G01 X32.503Y45.66063
G01 X32.503Y46.615
G01 X32.50667Y46.68969
G01 X32.51764Y46.76366
G01 X32.53581Y46.8362
G01 X32.561Y46.9066
G01 X32.59298Y46.9742
G01 X32.63142Y47.03834
G01 X32.67597Y47.09841
G01 X32.72618Y47.15382
G01 X33.138Y47.56563
G01 X33.138Y48.774
G01 X32.884Y48.774
G01 X32.884Y49.028
G01 X32.376Y49.028
G01 X32.376Y48.774
G01 X30.344Y48.774
G01 X30.344Y50.806
G01 X32.376Y50.806
G01 X32.376Y50.552
G01 X32.884Y50.552
G01 X32.884Y50.806
G01 X33.138Y50.806
G01 X33.138Y60.204
G01 X32.884Y60.204
G01 X32.884Y60.458
G01 X32.376Y60.458
G01 X32.376Y60.204
G01 X30.344Y60.204
G01 X30.344Y62.236
G01 X32.376Y62.236
G01 X32.376Y61.982
G01 X32.884Y61.982
G01 X32.884Y62.236
G01 X33.138Y62.236
G01 X33.138Y71.634
G01 X32.884Y71.634
G01 X32.884Y71.888
G01 X32.376Y71.888
G01 X32.376Y71.634
G01 X30.344Y71.634
G01 X30.344Y73.666
G01 X32.376Y73.666
G01 X32.376Y73.412
G01 X32.884Y73.412
G01 X32.884Y73.666
G01 X34.916Y73.666
G01 X34.916Y71.634
G01 X34.662Y71.634
G01 X34.662Y62.236
G01 X34.916Y62.236
G01 X34.916Y62.236
M5
G01 X36.02528Y65.51938
M3
G01 X36.02283Y65.56917
G01 X36.02283Y81.23875
G01 X34.19758Y83.064
G01 X32.884Y83.064
G01 X32.884Y83.318
G01 X32.376Y83.318
G01 X32.376Y83.064
G01 X30.344Y83.064
G01 X30.344Y85.096
G01 X32.376Y85.096
G01 X32.376Y84.842
G01 X32.884Y84.842
G01 X32.884Y85.096
G01 X33.138Y85.096
G01 X33.138Y94.494
G01 X32.884Y94.494
G01 X32.884Y94.748
G01 X32.376Y94.748
G01 X32.376Y94.494
G01 X30.344Y94.494
G01 X30.344Y96.526
G01 X32.376Y96.526
G01 X32.376Y96.272
G01 X32.884Y96.272
G01 X32.884Y96.526
G01 X33.138Y96.526
G01 X33.138Y105.924
G01 X32.884Y105.924
G01 X32.884Y106.178
G01 X32.376Y106.178
G01 X32.376Y105.924
G01 X30.344Y105.924
G01 X30.344Y107.956
G01 X32.376Y107.956
G01 X32.376Y107.702
G01 X32.884Y107.702
G01 X32.884Y107.956
G01 X34.916Y107.956
G01 X34.916Y105.924
G01 X34.662Y105.924
G01 X34.662Y96.526
G01 X34.916Y96.526
G01 X34.916Y94.494
G01 X34.662Y94.494
G01 X34.662Y85.096
G01 X34.916Y85.096
G01 X34.916Y83.78242
G01 X36.89004Y81.80838
G01 X36.92352Y81.77144
G01 X36.95322Y81.7314
G01 X36.97885Y81.68864
G01 X37.00016Y81.64357
G01 X37.01696Y81.59663
G01 X37.02907Y81.54828
G01 X37.03638Y81.49896
G01 X37.03883Y81.44917
G01 X37.03883Y65.77959
G01 X38.55042Y64.268
G01 X38.80539Y64.268
G01 X40.885Y64.268
G01 X43.64958Y64.268
G01 X44.8684Y65.48682
G01 X44.8684Y79.23964
G01 X44.87085Y79.28943
G01 X44.87816Y79.33875
G01 X44.89027Y79.3871
G01 X44.90707Y79.43404
G01 X44.92838Y79.47911
G01 X44.95401Y79.52187
G01 X44.98371Y79.56191
G01 X45.00529Y79.58572
G01 X45.01719Y79.59885
G01 X45.85484Y80.4365
G01 X45.89178Y80.46998
G01 X45.93182Y80.49968
G01 X45.97458Y80.52531
G01 X46.01965Y80.54662
G01 X46.06659Y80.56342
G01 X46.11494Y80.57553
G01 X46.16426Y80.58284
G01 X46.21405Y80.58529
G01 X54.41271Y80.58529
G01 X54.4625Y80.58284
G01 X54.51182Y80.57553
G01 X54.56017Y80.56342
G01 X54.60711Y80.54662
G01 X54.65218Y80.52531
G01 X54.69494Y80.49968
G01 X54.73498Y80.46998
G01 X54.77192Y80.4365
G01 X55.13096Y80.07746
G01 X55.1725Y80.0795
G01 X55.24719Y80.07583
G01 X55.32116Y80.06486
G01 X55.3937Y80.04669
G01 X55.4641Y80.0215
G01 X55.5317Y79.98952
G01 X55.59584Y79.95108
G01 X55.65591Y79.90653
G01 X55.71132Y79.85632
G01 X58.56882Y76.99882
G01 X58.61903Y76.94341
G01 X58.66358Y76.88334
G01 X58.70202Y76.8192
G01 X58.734Y76.7516
G01 X58.75919Y76.6812
G01 X58.77736Y76.60866
G01 X58.78833Y76.53469
G01 X58.792Y76.46
G01 X58.792Y50.425
G01 X58.792Y45.345
G01 X58.792Y44.075
G01 X58.792Y41.281
G01 X59.046Y41.281
G01 X59.046Y39.249
G01 X57.014Y39.249
G01 X57.014Y39.503
G01 X55.871Y39.503
G01 X55.871Y39.249
G01 X53.839Y39.249
G01 X53.839Y39.503
G01 X52.696Y39.503
G01 X52.696Y39.249
G01 X50.664Y39.249
G01 X50.664Y41.281
G01 X50.918Y41.281
G01 X50.918Y44.075
G01 X50.92167Y44.14969
G01 X50.93264Y44.22366
G01 X50.95081Y44.2962
G01 X50.976Y44.3666
G01 X51.00798Y44.4342
G01 X51.03201Y44.47431
G01 X51.04642Y44.49834
G01 X51.09097Y44.55841
G01 X51.14118Y44.61382
G01 X52.41118Y45.88382
G01 X54.31618Y47.78882
G01 X57.268Y50.74063
G01 X57.268Y76.14437
G01 X54.63368Y78.77868
G01 X54.58347Y78.83409
G01 X54.53892Y78.89416
G01 X54.50048Y78.9583
G01 X54.4685Y79.0259
G01 X54.44331Y79.0963
G01 X54.42514Y79.16884
G01 X54.41417Y79.24281
G01 X54.4105Y79.3175
G01 X54.41254Y79.35904
G01 X54.20229Y79.56929
G01 X46.42447Y79.56929
G01 X45.8844Y79.02922
G01 X45.8844Y65.2764
G01 X45.88195Y65.22661
G01 X45.87464Y65.17729
G01 X45.86253Y65.12894
G01 X45.84573Y65.082
G01 X45.82442Y65.03693
G01 X45.79879Y64.99417
G01 X45.76909Y64.95413
G01 X45.73561Y64.91719
G01 X44.21921Y63.40079
G01 X44.18227Y63.36731
G01 X44.14223Y63.33761
G01 X44.09947Y63.31198
G01 X44.0544Y63.29067
G01 X44.00746Y63.27387
G01 X43.95911Y63.26176
G01 X43.90979Y63.25445
G01 X43.86Y63.252
G01 X40.885Y63.252
G01 X38.80539Y63.252
G01 X38.34Y63.252
G01 X38.29021Y63.25445
G01 X38.24089Y63.26176
G01 X38.19254Y63.27387
G01 X38.1456Y63.29067
G01 X38.10053Y63.31198
G01 X38.05777Y63.33761
G01 X38.01773Y63.36731
G01 X37.98079Y63.40079
G01 X36.17162Y65.20996
G01 X36.13814Y65.2469
G01 X36.10844Y65.28694
G01 X36.08281Y65.3297
G01 X36.0615Y65.37477
G01 X36.0447Y65.42171
G01 X36.03259Y65.47006
G01 X36.02528Y65.51938
G01 X36.02528Y65.51938
M5
G01 X46.854Y101.606
M3
G01 X47.108Y101.606
G01 X47.108Y111.004
G01 X46.854Y111.004
G01 X46.854Y113.036
G01 X48.886Y113.036
G01 X48.886Y112.782
G01 X49.394Y112.782
G01 X49.394Y113.036
G01 X51.426Y113.036
G01 X51.426Y111.004
G01 X49.394Y111.004
G01 X49.394Y111.258
G01 X48.886Y111.258
G01 X48.886Y111.004
G01 X48.632Y111.004
G01 X48.632Y101.606
G01 X48.886Y101.606
G01 X48.886Y101.352
G01 X49.394Y101.352
G01 X49.394Y101.606
G01 X51.426Y101.606
G01 X51.426Y99.574
G01 X49.394Y99.574
G01 X49.394Y99.828
G01 X48.886Y99.828
G01 X48.886Y99.574
G01 X48.632Y99.574
G01 X48.632Y93.097
G01 X52.315Y93.097
G01 X52.38969Y93.09333
G01 X52.46366Y93.08236
G01 X52.5362Y93.06419
G01 X52.6066Y93.039
G01 X52.6742Y93.00702
G01 X52.73834Y92.96858
G01 X52.79841Y92.92403
G01 X52.85382Y92.87382
G01 X63.64882Y82.07882
G01 X63.69903Y82.02341
G01 X63.74358Y81.96334
G01 X63.78202Y81.8992
G01 X63.814Y81.8316
G01 X63.83919Y81.7612
G01 X63.85736Y81.68866
G01 X63.86833Y81.61469
G01 X63.872Y81.54
G01 X63.872Y56.775
G01 X63.872Y49.47063
G01 X66.82382Y46.51882
G01 X68.72882Y44.61382
G01 X69.99882Y43.34382
G01 X70.04903Y43.28841
G01 X70.09358Y43.22834
G01 X70.13202Y43.1642
G01 X70.164Y43.0966
G01 X70.18919Y43.0262
G01 X70.20736Y42.95366
G01 X70.21833Y42.87969
G01 X70.222Y42.805
G01 X70.222Y41.281
G01 X70.476Y41.281
G01 X70.476Y39.249
G01 X68.444Y39.249
G01 X68.444Y39.503
G01 X67.301Y39.503
G01 X67.301Y39.249
G01 X65.269Y39.249
G01 X65.269Y39.503
G01 X64.126Y39.503
G01 X64.126Y39.249
G01 X62.094Y39.249
G01 X62.094Y41.281
G01 X62.348Y41.281
G01 X62.348Y49.155
G01 X62.348Y56.775
G01 X62.348Y81.22437
G01 X51.99937Y91.573
G01 X48.632Y91.573
G01 X48.632Y90.176
G01 X48.886Y90.176
G01 X48.886Y89.922
G01 X49.394Y89.922
G01 X49.394Y90.176
G01 X51.426Y90.176
G01 X51.426Y88.144
G01 X49.394Y88.144
G01 X49.394Y88.398
G01 X48.886Y88.398
G01 X48.886Y88.144
G01 X46.854Y88.144
G01 X46.854Y90.176
G01 X47.108Y90.176
G01 X47.108Y92.335
G01 X47.108Y99.574
G01 X46.854Y99.574
G01 X46.854Y101.606
G01 X46.854Y101.606
M5
G01 X48.886Y55.632
M3
G01 X49.394Y55.632
G01 X49.394Y55.886
G01 X51.426Y55.886
G01 X51.426Y53.854
G01 X49.394Y53.854
G01 X49.394Y54.108
G01 X48.886Y54.108
G01 X48.886Y53.854
G01 X48.632Y53.854
G01 X48.632Y45.345
G01 X48.632Y41.281
G01 X48.886Y41.281
G01 X48.886Y39.249
G01 X46.854Y39.249
G01 X46.854Y39.503
G01 X45.711Y39.503
G01 X45.711Y39.249
G01 X43.679Y39.249
G01 X43.679Y39.503
G01 X42.536Y39.503
G01 X42.536Y39.249
G01 X40.504Y39.249
G01 X40.504Y41.281
G01 X40.758Y41.281
G01 X40.758Y44.075
G01 X40.76167Y44.14969
G01 X40.77264Y44.22366
G01 X40.79081Y44.2962
G01 X40.816Y44.3666
G01 X40.84798Y44.4342
G01 X40.87201Y44.47431
G01 X40.88642Y44.49834
G01 X40.93097Y44.55841
G01 X40.98118Y44.61382
G01 X42.25118Y45.88382
G01 X42.30659Y45.93403
G01 X42.36666Y45.97858
G01 X42.4308Y46.01702
G01 X42.4984Y46.049
G01 X42.5688Y46.07419
G01 X42.64134Y46.09236
G01 X42.71531Y46.10333
G01 X42.79Y46.107
G01 X44.695Y46.107
G01 X47.108Y46.107
G01 X47.108Y53.854
G01 X46.854Y53.854
G01 X46.854Y55.886
G01 X47.108Y55.886
G01 X47.108Y65.284
G01 X46.854Y65.284
G01 X46.854Y67.316
G01 X47.108Y67.316
G01 X47.108Y76.714
G01 X46.854Y76.714
G01 X46.854Y78.746
G01 X48.886Y78.746
G01 X48.886Y78.492
G01 X49.394Y78.492
G01 X49.394Y78.746
G01 X51.426Y78.746
G01 X51.426Y76.714
G01 X49.394Y76.714
G01 X49.394Y76.968
G01 X48.886Y76.968
G01 X48.886Y76.714
G01 X48.632Y76.714
G01 X48.632Y67.316
G01 X48.886Y67.316
G01 X48.886Y67.062
G01 X49.394Y67.062
G01 X49.394Y67.316
G01 X51.426Y67.316
G01 X51.426Y65.284
G01 X49.394Y65.284
G01 X49.394Y65.538
G01 X48.886Y65.538
G01 X48.886Y65.284
G01 X48.632Y65.284
G01 X48.632Y55.886
G01 X48.886Y55.886
G01 X48.886Y55.632
G01 X48.886Y55.632
M5
G01 X68.74158Y46.53158
M3
G01 X67.47158Y47.80158
G01 X67.47158Y47.80158
G01 X65.56658Y49.70658
G01 X65.49962Y49.78046
G01 X65.44023Y49.86054
G01 X65.38897Y49.94606
G01 X65.34634Y50.03619
G01 X65.31275Y50.13007
G01 X65.28852Y50.22679
G01 X65.27389Y50.32541
G01 X65.269Y50.425
G01 X65.269Y81.54
G01 X65.269Y82.38916
G01 X54.13658Y93.52158
G01 X54.06962Y93.59546
G01 X54.01023Y93.67554
G01 X53.95897Y93.76106
G01 X53.91634Y93.85119
G01 X53.88275Y93.94507
G01 X53.85852Y94.04179
G01 X53.84389Y94.14041
G01 X53.839Y94.24
G01 X53.839Y94.875
G01 X53.839Y97.415
G01 X53.839Y119.9575
G01 X53.2675Y119.9575
G01 X53.2675Y128.2125
G01 X61.5225Y128.2125
G01 X61.5225Y126.625
G01 X63.4656Y126.625
G01 X63.4656Y126.9044
G01 X64.82912Y126.9044
G01 X65.06998Y127.01832
G01 X65.36335Y127.12329
G01 X65.66559Y127.19899
G01 X65.9738Y127.24471
G01 X66.285Y127.26
G01 X66.5962Y127.24471
G01 X66.90441Y127.19899
G01 X67.20665Y127.12329
G01 X67.50002Y127.01832
G01 X67.74088Y126.9044
G01 X69.1044Y126.9044
G01 X69.1044Y125.54088
G01 X69.21832Y125.30002
G01 X69.32329Y125.00665
G01 X69.39899Y124.70441
G01 X69.44471Y124.3962
G01 X69.46Y124.085
G01 X69.44471Y123.7738
G01 X69.39899Y123.46559
G01 X69.32329Y123.16335
G01 X69.21832Y122.86998
G01 X69.1044Y122.62912
G01 X69.1044Y121.2656
G01 X68.65858Y121.2656
G01 X68.65858Y118.751
G01 X68.825Y118.751
G01 X68.92459Y118.74611
G01 X69.02321Y118.73148
G01 X69.11993Y118.70725
G01 X69.21381Y118.67366
G01 X69.30394Y118.63103
G01 X69.38946Y118.57977
G01 X69.46954Y118.52038
G01 X69.54342Y118.45342
G01 X73.98842Y114.00842
G01 X74.05538Y113.93454
G01 X74.11477Y113.85446
G01 X74.16603Y113.76894
G01 X74.20866Y113.67881
G01 X74.24225Y113.58493
G01 X74.26648Y113.48821
G01 X74.28111Y113.38959
G01 X74.286Y113.29
G01 X74.286Y43.44
G01 X74.286Y41.535
G01 X74.286Y41.281
G01 X74.286Y40.265
G01 X74.286Y39.249
G01 X73.27Y39.249
G01 X72.254Y39.249
G01 X72.254Y39.84416
G01 X71.78958Y40.30858
G01 X71.72262Y40.38246
G01 X71.66323Y40.46254
G01 X71.61197Y40.54806
G01 X71.56934Y40.63819
G01 X71.53575Y40.73207
G01 X71.51152Y40.82879
G01 X71.49689Y40.92741
G01 X71.492Y41.027
G01 X71.492Y43.78116
G01 X70.64658Y44.62658
G01 X68.74158Y46.53158
G01 X68.74158Y46.53158
G01 X68.74158Y46.53158
M5
G01 X67.301Y30.867
M3
G01 X68.444Y30.867
G01 X68.444Y31.121
G01 X70.476Y31.121
G01 X70.476Y29.089
G01 X68.444Y29.089
G01 X68.444Y29.343
G01 X67.301Y29.343
G01 X67.301Y29.089
G01 X65.269Y29.089
G01 X65.269Y31.121
G01 X67.301Y31.121
G01 X67.301Y30.867
G01 X67.301Y30.867
M5
G01 X53.839Y29.089
M3
G01 X53.839Y29.343
G01 X52.696Y29.343
G01 X52.696Y29.089
G01 X50.664Y29.089
G01 X50.664Y31.121
G01 X52.696Y31.121
G01 X52.696Y30.867
G01 X53.839Y30.867
G01 X53.839Y31.121
G01 X55.871Y31.121
G01 X55.871Y29.089
G01 X53.839Y29.089
G01 X53.839Y29.089
M5
G01 X61.332Y78.365
M3
G01 X61.332Y74.555
G01 X61.332Y63.76
G01 X61.332Y35.53534
G01 X61.332Y30.867
G01 X62.094Y30.867
G01 X62.094Y31.121
G01 X64.126Y31.121
G01 X64.126Y29.089
G01 X62.094Y29.089
G01 X62.094Y29.343
G01 X60.57Y29.343
G01 X59.935Y29.343
G01 X59.046Y29.343
G01 X59.046Y29.089
G01 X57.014Y29.089
G01 X57.014Y31.121
G01 X59.046Y31.121
G01 X59.046Y30.867
G01 X59.808Y30.867
G01 X59.808Y35.53534
G01 X59.808Y63.76
G01 X59.808Y74.555
G01 X59.808Y78.04937
G01 X59.39618Y78.46118
G01 X59.39618Y78.46118
G01 X57.80868Y80.04868
G01 X56.92192Y80.93545
G01 X56.125Y80.93545
G01 X56.05031Y80.93912
G01 X55.97634Y80.95009
G01 X55.9038Y80.96826
G01 X55.8334Y80.99345
G01 X55.7658Y81.02543
G01 X55.70166Y81.06387
G01 X55.64159Y81.10842
G01 X55.58618Y81.15863
G01 X55.55826Y81.18945
G01 X50.63322Y81.18945
G01 X48.34755Y81.18945
G01 X48.34755Y81.18945
G01 X48.29776Y81.1919
G01 X48.24844Y81.19921
G01 X48.20009Y81.21132
G01 X48.19296Y81.21387
G01 X48.15315Y81.22812
G01 X48.1167Y81.24536
G01 X48.10808Y81.24943
G01 X48.06532Y81.27506
G01 X48.02528Y81.30476
G01 X47.98834Y81.33824
G01 X47.51079Y81.81579
G01 X47.47731Y81.85273
G01 X47.44761Y81.89277
G01 X47.42198Y81.93553
G01 X47.42198Y81.93553
G01 X47.40067Y81.9806
G01 X47.38387Y82.02754
G01 X47.3758Y82.05975
G01 X47.37176Y82.07589
G01 X47.36445Y82.12521
G01 X47.362Y82.175
G01 X47.362Y83.064
G01 X46.854Y83.064
G01 X46.854Y85.096
G01 X48.886Y85.096
G01 X48.886Y83.064
G01 X48.378Y83.064
G01 X48.378Y82.38542
G01 X48.55797Y82.20545
G01 X50.63322Y82.20545
G01 X55.55826Y82.20545
G01 X55.58618Y82.23627
G01 X55.64159Y82.28648
G01 X55.70166Y82.33103
G01 X55.7658Y82.36947
G01 X55.8334Y82.40145
G01 X55.9038Y82.42664
G01 X55.97634Y82.44481
G01 X56.05031Y82.45578
G01 X56.125Y82.45945
G01 X57.23755Y82.45945
G01 X57.31224Y82.45578
G01 X57.38621Y82.44481
G01 X57.45875Y82.42664
G01 X57.52915Y82.40145
G01 X57.59675Y82.36947
G01 X57.66089Y82.33103
G01 X57.72096Y82.28648
G01 X57.77637Y82.23627
G01 X57.93382Y82.07882
G01 X58.88632Y81.12632
G01 X60.47382Y79.53882
G01 X60.47382Y79.53882
G01 X61.10882Y78.90382
G01 X61.13652Y78.87325
G01 X61.15903Y78.84841
G01 X61.20358Y78.78834
G01 X61.24202Y78.7242
G01 X61.274Y78.6566
G01 X61.29919Y78.5862
G01 X61.31736Y78.51366
G01 X61.32833Y78.43969
G01 X61.332Y78.365
G01 X61.332Y78.365
G01 X61.332Y78.365
M5
G01 X46.854Y31.121
M3
G01 X48.886Y31.121
G01 X48.886Y29.089
G01 X46.854Y29.089
G01 X46.854Y29.343
G01 X45.711Y29.343
G01 X45.711Y29.089
G01 X43.679Y29.089
G01 X43.679Y31.121
G01 X45.711Y31.121
G01 X45.711Y30.867
G01 X46.854Y30.867
G01 X46.854Y31.121
G01 X46.854Y31.121
M5
G01 X38.34642Y46.40334
M3
G01 X38.39097Y46.46341
G01 X38.44118Y46.51882
G01 X40.123Y48.20063
G01 X40.123Y53.854
G01 X39.869Y53.854
G01 X39.869Y55.886
G01 X41.901Y55.886
G01 X41.901Y53.854
G01 X41.647Y53.854
G01 X41.647Y47.885
G01 X41.64333Y47.81031
G01 X41.63236Y47.73634
G01 X41.61419Y47.6638
G01 X41.589Y47.5934
G01 X41.55702Y47.5258
G01 X41.51858Y47.46166
G01 X41.47403Y47.40159
G01 X41.42382Y47.34618
G01 X39.742Y45.66437
G01 X39.742Y30.867
G01 X40.504Y30.867
G01 X40.504Y31.121
G01 X42.536Y31.121
G01 X42.536Y29.089
G01 X40.504Y29.089
G01 X40.504Y29.343
G01 X39.615Y29.343
G01 X38.98Y29.343
G01 X37.456Y29.343
G01 X37.456Y29.089
G01 X35.424Y29.089
G01 X35.424Y31.121
G01 X37.456Y31.121
G01 X37.456Y30.867
G01 X38.218Y30.867
G01 X38.218Y45.98
G01 X38.22167Y46.05469
G01 X38.23264Y46.12866
G01 X38.25081Y46.2012
G01 X38.276Y46.2716
G01 X38.30798Y46.3392
G01 X38.34642Y46.40334
G01 X38.34642Y46.40334
M5
G01 X32.249Y29.089
M3
G01 X32.249Y29.343
G01 X31.106Y29.343
G01 X31.106Y29.089
G01 X29.074Y29.089
G01 X29.074Y31.121
G01 X31.106Y31.121
G01 X31.106Y30.867
G01 X32.249Y30.867
G01 X32.249Y31.121
G01 X34.281Y31.121
G01 X34.281Y29.089
G01 X32.249Y29.089
G01 X32.249Y29.089
M5
G01 X20.057Y32.264
M3
G01 X19.549Y32.264
G01 X19.549Y34.296
G01 X21.581Y34.296
G01 X21.581Y32.264
G01 X21.073Y32.264
G01 X21.073Y28.41042
G01 X23.95042Y25.533
G01 X40.25Y25.533
G01 X40.29979Y25.53055
G01 X40.34911Y25.52324
G01 X40.39746Y25.51113
G01 X40.4444Y25.49433
G01 X40.48947Y25.47302
G01 X40.53223Y25.44739
G01 X40.57227Y25.41769
G01 X40.60921Y25.38421
G01 X41.24421Y24.74921
G01 X41.27769Y24.71227
G01 X41.30739Y24.67223
G01 X41.33302Y24.62947
G01 X41.35433Y24.5844
G01 X41.37113Y24.53746
G01 X41.38324Y24.48911
G01 X41.39055Y24.43979
G01 X41.393Y24.39
G01 X41.393Y23.8726
G01 X41.393Y21.977
G01 X42.282Y21.977
G01 X42.282Y19.183
G01 X39.488Y19.183
G01 X39.488Y21.977
G01 X40.377Y21.977
G01 X40.377Y23.8726
G01 X40.377Y24.17958
G01 X40.03958Y24.517
G01 X23.74Y24.517
G01 X23.69021Y24.51945
G01 X23.64089Y24.52676
G01 X23.59254Y24.53887
G01 X23.5456Y24.55567
G01 X23.50053Y24.57698
G01 X23.45777Y24.60261
G01 X23.41773Y24.63231
G01 X23.38079Y24.66579
G01 X20.20579Y27.84079
G01 X20.17231Y27.87773
G01 X20.14261Y27.91777
G01 X20.11698Y27.96053
G01 X20.09567Y28.0056
G01 X20.07887Y28.05254
G01 X20.06676Y28.10089
G01 X20.05945Y28.15021
G01 X20.057Y28.2
G01 X20.057Y32.264
G01 X20.057Y32.264
M5
G01 X24.883Y32.264
M3
G01 X24.629Y32.264
G01 X24.629Y34.296
G01 X26.661Y34.296
G01 X26.661Y32.264
G01 X26.407Y32.264
G01 X26.407Y29.15063
G01 X27.86563Y27.692
G01 X46.6Y27.692
G01 X46.67469Y27.68833
G01 X46.74866Y27.67736
G01 X46.8212Y27.65919
G01 X46.8916Y27.634
G01 X46.9592Y27.60202
G01 X47.02334Y27.56358
G01 X47.08341Y27.51903
G01 X47.13882Y27.46882
G01 X49.04382Y25.56382
G01 X49.09403Y25.50841
G01 X49.13858Y25.44834
G01 X49.17702Y25.3842
G01 X49.209Y25.3166
G01 X49.23419Y25.2462
G01 X49.25236Y25.17366
G01 X49.26333Y25.09969
G01 X49.267Y25.025
G01 X49.267Y21.977
G01 X49.902Y21.977
G01 X49.902Y19.183
G01 X47.108Y19.183
G01 X47.108Y21.977
G01 X47.743Y21.977
G01 X47.743Y24.70937
G01 X46.28437Y26.168
G01 X27.55Y26.168
G01 X27.47531Y26.17167
G01 X27.40134Y26.18264
G01 X27.3288Y26.20081
G01 X27.2584Y26.226
G01 X27.1908Y26.25798
G01 X27.12666Y26.29642
G01 X27.06659Y26.34097
G01 X27.01118Y26.39118
G01 X25.10618Y28.29618
G01 X25.05597Y28.35159
G01 X25.01142Y28.41166
G01 X24.97298Y28.4758
G01 X24.941Y28.5434
G01 X24.91581Y28.6138
G01 X24.89764Y28.68634
G01 X24.88667Y28.76031
G01 X24.883Y28.835
G01 X24.883Y32.264
G01 X24.883Y32.264
M5
G01 X23.30471Y20.10706
M3
G01 X23.35403Y20.11437
G01 X23.40382Y20.11682
G01 X33.67463Y20.11682
G01 X34.49702Y20.93921
G01 X34.53396Y20.97269
G01 X34.574Y21.00239
G01 X34.61676Y21.02802
G01 X34.66183Y21.04933
G01 X34.70877Y21.06613
G01 X34.75712Y21.07824
G01 X34.80644Y21.08555
G01 X34.85623Y21.088
G01 X35.678Y21.088
G01 X35.678Y21.977
G01 X38.472Y21.977
G01 X38.472Y19.183
G01 X35.678Y19.183
G01 X35.678Y20.072
G01 X35.06665Y20.072
G01 X34.24426Y19.24961
G01 X34.20732Y19.21613
G01 X34.16728Y19.18643
G01 X34.12452Y19.1608
G01 X34.07945Y19.13949
G01 X34.03251Y19.12269
G01 X33.98416Y19.11058
G01 X33.93484Y19.10327
G01 X33.88505Y19.10082
G01 X23.61424Y19.10082
G01 X21.581Y17.06758
G01 X21.581Y15.754
G01 X19.549Y15.754
G01 X19.549Y17.786
G01 X20.86258Y17.786
G01 X23.04461Y19.96803
G01 X23.08155Y20.00151
G01 X23.12159Y20.03121
G01 X23.16435Y20.05684
G01 X23.20942Y20.07815
G01 X23.25636Y20.09495
G01 X23.30471Y20.10706
G01 X23.30471Y20.10706
M5
G01 X50.918Y21.977
M3
G01 X53.712Y21.977
G01 X53.712Y21.342
G01 X74.794Y21.342
G01 X74.794Y21.596
G01 X76.826Y21.596
G01 X76.826Y19.564
G01 X74.794Y19.564
G01 X74.794Y19.818
G01 X53.712Y19.818
G01 X53.712Y19.183
G01 X50.918Y19.183
G01 X50.918Y21.977
G01 X50.918Y21.977
M5
G01 X36.059Y113.925
M3
G01 X36.059Y114.26732
G01 X36.059Y116.465
G01 X36.06389Y116.56459
G01 X36.07852Y116.66321
G01 X36.10275Y116.75993
G01 X36.13634Y116.85381
G01 X36.17897Y116.94394
G01 X36.23023Y117.02946
G01 X36.28962Y117.10954
G01 X36.35658Y117.18342
G01 X36.35658Y117.18342
G01 X37.62658Y118.45342
G01 X37.62658Y118.45342
G01 X37.70046Y118.52038
G01 X37.78054Y118.57977
G01 X37.86606Y118.63103
G01 X37.95619Y118.67366
G01 X38.05007Y118.70725
G01 X38.14679Y118.73148
G01 X38.24541Y118.74611
G01 X38.345Y118.751
G01 X40.54268Y118.751
G01 X42.42751Y118.751
G01 X42.44994Y118.77343
G01 X42.6808Y118.98267
G01 X42.77451Y119.05217
G01 X42.84401Y119.14588
G01 X43.05326Y119.37674
G01 X43.65647Y119.97996
G01 X43.65657Y119.98006
G01 X43.65675Y119.98023
G01 X43.65692Y119.98042
G01 X43.68843Y120.01191
G01 X43.7425Y120.06599
G01 X43.7425Y128.2125
G01 X51.9975Y128.2125
G01 X51.9975Y119.9575
G01 X51.426Y119.9575
G01 X51.426Y119.005
G01 X51.426Y117.735
G01 X51.426Y115.83
G01 X51.42111Y115.73041
G01 X51.40982Y115.65435
G01 X51.40648Y115.63179
G01 X51.38225Y115.53507
G01 X51.34866Y115.44119
G01 X51.30603Y115.35106
G01 X51.30603Y115.35106
G01 X51.29752Y115.33686
G01 X51.25477Y115.26554
G01 X51.19538Y115.18546
G01 X51.12842Y115.11158
G01 X50.49342Y114.47658
G01 X50.41954Y114.40962
G01 X50.33946Y114.35023
G01 X50.25394Y114.29897
G01 X50.16381Y114.25634
G01 X50.14701Y114.25033
G01 X50.06993Y114.22275
G01 X49.98532Y114.20156
G01 X49.97321Y114.19852
G01 X49.87459Y114.18389
G01 X49.775Y114.179
G01 X49.775Y114.179
G01 X47.87Y114.179
G01 X46.83577Y114.179
G01 X45.711Y113.05424
G01 X45.711Y99.955
G01 X45.711Y82.81
G01 X45.70611Y82.71041
G01 X45.69148Y82.61179
G01 X45.66725Y82.51507
G01 X45.63366Y82.42119
G01 X45.59103Y82.33106
G01 X45.53977Y82.24554
G01 X45.48038Y82.16546
G01 X45.41342Y82.09158
G01 X45.41342Y82.09158
G01 X44.14342Y80.82158
G01 X44.14342Y80.82158
G01 X44.06954Y80.75462
G01 X44.06Y80.74754
G01 X44.06Y77.73
G01 X44.06Y70.11
G01 X44.06Y68.5
G01 X44.04471Y68.1888
G01 X43.99899Y67.88059
G01 X43.92329Y67.57835
G01 X43.81832Y67.28498
G01 X43.6851Y67.00332
G01 X43.52492Y66.73606
G01 X43.33931Y66.4858
G01 X43.13006Y66.25494
G01 X42.8992Y66.04569
G01 X42.64894Y65.86008
G01 X42.38168Y65.6999
G01 X42.10002Y65.56668
G01 X41.80665Y65.46171
G01 X41.50441Y65.38601
G01 X41.1962Y65.34029
G01 X40.885Y65.325
G01 X40.5738Y65.34029
G01 X40.26559Y65.38601
G01 X39.96335Y65.46171
G01 X39.66998Y65.56668
G01 X39.38832Y65.6999
G01 X39.12106Y65.86008
G01 X38.8708Y66.04569
G01 X38.63994Y66.25494
G01 X38.43069Y66.4858
G01 X38.24508Y66.73606
G01 X38.0849Y67.00332
G01 X37.95168Y67.28498
G01 X37.84671Y67.57835
G01 X37.77101Y67.88059
G01 X37.72529Y68.1888
G01 X37.71Y68.5
G01 X37.71Y70.11
G01 X37.71Y77.73
G01 X37.71Y81.54
G01 X37.71Y83.27816
G01 X36.35658Y84.63158
G01 X36.35658Y84.63158
G01 X36.28962Y84.70546
G01 X36.23023Y84.78554
G01 X36.17897Y84.87106
G01 X36.13634Y84.96119
G01 X36.10275Y85.05507
G01 X36.07852Y85.15179
G01 X36.06389Y85.25041
G01 X36.059Y85.35
G01 X36.059Y105.67
G01 X36.059Y113.925
G01 X36.059Y113.925
M5
G01 X74.27Y120.91
M3
G01 X73.9588Y120.92529
G01 X73.65059Y120.97101
G01 X73.34835Y121.04671
G01 X73.05498Y121.15168
G01 X72.81412Y121.2656
G01 X71.4506Y121.2656
G01 X71.4506Y122.62912
G01 X71.33668Y122.86998
G01 X71.23171Y123.16335
G01 X71.15601Y123.46559
G01 X71.11029Y123.7738
G01 X71.095Y124.085
G01 X71.11029Y124.3962
G01 X71.15601Y124.70441
G01 X71.23171Y125.00665
G01 X71.33668Y125.30002
G01 X71.4506Y125.54088
G01 X71.4506Y126.9044
G01 X72.81412Y126.9044
G01 X73.05498Y127.01832
G01 X73.34835Y127.12329
G01 X73.65059Y127.19899
G01 X73.9588Y127.24471
G01 X74.27Y127.26
G01 X74.5812Y127.24471
G01 X74.88941Y127.19899
G01 X75.19165Y127.12329
G01 X75.48502Y127.01832
G01 X75.72588Y126.9044
G01 X77.0894Y126.9044
G01 X77.0894Y125.54088
G01 X77.20332Y125.30002
G01 X77.30829Y125.00665
G01 X77.38399Y124.70441
G01 X77.42971Y124.3962
G01 X77.445Y124.085
G01 X77.42971Y123.7738
G01 X77.38399Y123.46559
G01 X77.30829Y123.16335
G01 X77.20332Y122.86998
G01 X77.0894Y122.62912
G01 X77.0894Y121.2656
G01 X76.572Y121.2656
G01 X76.572Y115.56
G01 X76.572Y114.56
G01 X76.572Y113.5
G01 X76.572Y41.281
G01 X76.826Y41.281
G01 X76.826Y39.249
G01 X74.794Y39.249
G01 X74.794Y41.281
G01 X75.048Y41.281
G01 X75.048Y113.5
G01 X75.048Y114.56
G01 X75.048Y115.56
G01 X75.048Y121.01073
G01 X74.88941Y120.97101
G01 X74.5812Y120.92529
G01 X74.27Y120.91
G01 X74.27Y120.91
M5
G01 X32.376Y51.314
M3
G01 X30.344Y51.314
G01 X30.344Y53.346
G01 X32.376Y53.346
G01 X32.376Y51.314
G01 X32.376Y51.314
M5
G01 X32.376Y55.886
M3
G01 X32.376Y53.854
G01 X30.344Y53.854
G01 X30.344Y55.886
G01 X32.376Y55.886
G01 X32.376Y55.886
M5
G01 X30.344Y62.744
M3
G01 X30.344Y64.776
G01 X32.376Y64.776
G01 X32.376Y62.744
G01 X30.344Y62.744
G01 X30.344Y62.744
M5
G01 X32.376Y65.284
M3
G01 X30.344Y65.284
G01 X30.344Y67.316
G01 X32.376Y67.316
G01 X32.376Y65.284
G01 X32.376Y65.284
M5
G01 X30.344Y76.206
M3
G01 X32.376Y76.206
G01 X32.376Y74.174
G01 X30.344Y74.174
G01 X30.344Y76.206
G01 X30.344Y76.206
M5
G01 X30.344Y76.714
M3
G01 X30.344Y78.746
G01 X32.376Y78.746
G01 X32.376Y76.714
G01 X30.344Y76.714
G01 X30.344Y76.714
M5
G01 X51.426Y76.206
M3
G01 X51.426Y74.174
G01 X49.394Y74.174
G01 X49.394Y76.206
G01 X51.426Y76.206
G01 X51.426Y76.206
M5
G01 X49.394Y73.666
M3
G01 X51.426Y73.666
G01 X51.426Y71.634
G01 X49.394Y71.634
G01 X49.394Y73.666
G01 X49.394Y73.666
M5
G01 X51.426Y62.744
M3
G01 X49.394Y62.744
G01 X49.394Y64.776
G01 X51.426Y64.776
G01 X51.426Y62.744
G01 X51.426Y62.744
M5
G01 X51.426Y62.236
M3
G01 X51.426Y60.204
G01 X49.394Y60.204
G01 X49.394Y62.236
G01 X51.426Y62.236
G01 X51.426Y62.236
M5
G01 X49.394Y51.314
M3
G01 X49.394Y53.346
G01 X51.426Y53.346
G01 X51.426Y51.314
G01 X49.394Y51.314
G01 X49.394Y51.314
M5
G01 X51.426Y48.774
M3
G01 X49.394Y48.774
G01 X49.394Y50.806
G01 X51.426Y50.806
G01 X51.426Y48.774
G01 X51.426Y48.774
M5
G01 X32.376Y85.604
M3
G01 X30.344Y85.604
G01 X30.344Y87.636
G01 X32.376Y87.636
G01 X32.376Y85.604
G01 X32.376Y85.604
M5
G01 X32.376Y90.176
M3
G01 X32.376Y88.144
G01 X30.344Y88.144
G01 X30.344Y90.176
G01 X32.376Y90.176
G01 X32.376Y90.176
M5
G01 X30.344Y97.034
M3
G01 X30.344Y99.066
G01 X32.376Y99.066
G01 X32.376Y97.034
G01 X30.344Y97.034
G01 X30.344Y97.034
M5
G01 X32.376Y99.574
M3
G01 X30.344Y99.574
G01 X30.344Y101.606
G01 X32.376Y101.606
G01 X32.376Y99.574
G01 X32.376Y99.574
M5
G01 X30.344Y110.496
M3
G01 X32.376Y110.496
G01 X32.376Y108.464
G01 X30.344Y108.464
G01 X30.344Y110.496
G01 X30.344Y110.496
M5
G01 X30.344Y111.004
M3
G01 X30.344Y113.036
G01 X32.376Y113.036
G01 X32.376Y111.004
G01 X30.344Y111.004
G01 X30.344Y111.004
M5
G01 X51.426Y110.496
M3
G01 X51.426Y108.464
G01 X49.394Y108.464
G01 X49.394Y110.496
G01 X51.426Y110.496
G01 X51.426Y110.496
M5
G01 X49.394Y107.956
M3
G01 X51.426Y107.956
G01 X51.426Y105.924
G01 X49.394Y105.924
G01 X49.394Y107.956
G01 X49.394Y107.956
M5
G01 X51.426Y97.034
M3
G01 X49.394Y97.034
G01 X49.394Y99.066
G01 X51.426Y99.066
G01 X51.426Y97.034
G01 X51.426Y97.034
M5
G01 X51.426Y96.526
M3
G01 X51.426Y94.494
G01 X49.394Y94.494
G01 X49.394Y96.526
G01 X51.426Y96.526
G01 X51.426Y96.526
M5
G01 X49.394Y85.604
M3
G01 X49.394Y87.636
G01 X51.426Y87.636
G01 X51.426Y85.604
G01 X49.394Y85.604
G01 X49.394Y85.604
M5
G01 X51.426Y83.064
M3
G01 X49.394Y83.064
G01 X49.394Y85.096
G01 X51.426Y85.096
G01 X51.426Y83.064
G01 X51.426Y83.064
M5
G01 X24.6925Y119.9575
M3
G01 X24.6925Y128.2125
G01 X32.9475Y128.2125
G01 X32.9475Y119.9575
G01 X24.6925Y119.9575
G01 X24.6925Y119.9575
M5
G01 X34.2175Y128.2125
M3
G01 X42.4725Y128.2125
G01 X42.4725Y119.9575
G01 X34.2175Y119.9575
G01 X34.2175Y128.2125
G01 X34.2175Y128.2125
M5
G01 X62.221Y10.166
M3
G01 X62.221Y8.134
G01 X60.189Y8.134
G01 X60.189Y10.166
G01 X62.221Y10.166
G01 X62.221Y10.166
M5
G01 X59.681Y10.166
M3
G01 X59.681Y8.134
G01 X57.649Y8.134
G01 X57.649Y10.166
G01 X59.681Y10.166
G01 X59.681Y10.166
M5
G01 X55.109Y10.166
M3
G01 X57.141Y10.166
G01 X57.141Y8.134
G01 X55.109Y8.134
G01 X55.109Y10.166
G01 X55.109Y10.166
M5
G01 X52.569Y8.134
M3
G01 X52.569Y10.166
G01 X54.601Y10.166
G01 X54.601Y8.134
G01 X52.569Y8.134
G01 X52.569Y8.134
M5
G01 X52.061Y8.134
M3
G01 X50.029Y8.134
G01 X50.029Y10.166
G01 X52.061Y10.166
G01 X52.061Y8.134
G01 X52.061Y8.134
M5
G01 X49.521Y10.166
M3
G01 X49.521Y8.134
G01 X47.489Y8.134
G01 X47.489Y10.166
G01 X49.521Y10.166
G01 X49.521Y10.166
M5
G01 X44.949Y10.166
M3
G01 X46.981Y10.166
G01 X46.981Y8.134
G01 X44.949Y8.134
G01 X44.949Y10.166
G01 X44.949Y10.166
M5
G01 X42.409Y8.134
M3
G01 X42.409Y10.166
G01 X44.441Y10.166
G01 X44.441Y8.134
G01 X42.409Y8.134
G01 X42.409Y8.134
M5
G01 X41.901Y8.134
M3
G01 X39.869Y8.134
G01 X39.869Y10.166
G01 X41.901Y10.166
G01 X41.901Y8.134
G01 X41.901Y8.134
M5
G01 X39.361Y10.166
M3
G01 X39.361Y8.134
G01 X37.329Y8.134
G01 X37.329Y10.166
G01 X39.361Y10.166
G01 X39.361Y10.166
M5
G01 X34.789Y10.166
M3
G01 X36.821Y10.166
G01 X36.821Y8.134
G01 X34.789Y8.134
G01 X34.789Y10.166
G01 X34.789Y10.166
M5
G01 X32.249Y8.134
M3
G01 X32.249Y10.166
G01 X34.281Y10.166
G01 X34.281Y8.134
G01 X32.249Y8.134
G01 X32.249Y8.134
M5
G01 X31.741Y8.134
M3
G01 X29.709Y8.134
G01 X29.709Y10.166
G01 X31.741Y10.166
G01 X31.741Y8.134
G01 X31.741Y8.134
M5
G01 X29.201Y10.166
M3
G01 X29.201Y8.134
G01 X27.169Y8.134
G01 X27.169Y10.166
G01 X29.201Y10.166
G01 X29.201Y10.166
M5
G01 X24.629Y10.166
M3
G01 X26.661Y10.166
G01 X26.661Y8.134
G01 X24.629Y8.134
G01 X24.629Y10.166
G01 X24.629Y10.166
M5
G01 X22.089Y8.134
M3
G01 X22.089Y10.166
G01 X24.121Y10.166
G01 X24.121Y8.134
G01 X22.089Y8.134
G01 X22.089Y8.134
M5
G01 X21.581Y8.134
M3
G01 X19.549Y8.134
G01 X19.549Y10.166
G01 X21.581Y10.166
G01 X21.581Y8.134
G01 X21.581Y8.134
M5
G01 X24.121Y32.264
M3
G01 X22.089Y32.264
G01 X22.089Y34.296
G01 X24.121Y34.296
G01 X24.121Y32.264
G01 X24.121Y32.264
M5
G01 X22.089Y40.011
M3
G01 X24.121Y40.011
G01 X24.121Y37.979
G01 X22.089Y37.979
G01 X22.089Y40.011
G01 X22.089Y40.011
M5
G01 X24.629Y37.979
M3
G01 X24.629Y40.011
G01 X26.661Y40.011
G01 X26.661Y37.979
G01 X24.629Y37.979
G01 X24.629Y37.979
M5
G01 X15.104Y41.281
M3
G01 X17.136Y41.281
G01 X17.136Y39.249
G01 X15.104Y39.249
G01 X15.104Y41.281
G01 X15.104Y41.281
M5
G01 X15.104Y38.741
M3
G01 X17.136Y38.741
G01 X17.136Y36.709
G01 X15.104Y36.709
G01 X15.104Y38.741
G01 X15.104Y38.741
M5
G01 X17.009Y123.069
M3
G01 X17.009Y125.101
G01 X19.041Y125.101
G01 X19.041Y123.069
G01 X17.009Y123.069
G01 X17.009Y123.069
M5
G01 X13.961Y123.069
M3
G01 X11.929Y123.069
G01 X11.929Y125.101
G01 X13.961Y125.101
G01 X13.961Y123.069
G01 X13.961Y123.069
M5
G01 X10.151Y21.469
M3
G01 X8.119Y21.469
G01 X8.119Y23.501
G01 X10.151Y23.501
G01 X10.151Y21.469
G01 X10.151Y21.469
M5
G01 X10.151Y31.629
M3
G01 X8.119Y31.629
G01 X8.119Y33.661
G01 X10.151Y33.661
G01 X10.151Y31.629
G01 X10.151Y31.629
M5
G01 X13.326Y23.501
M3
G01 X13.326Y21.469
G01 X11.294Y21.469
G01 X11.294Y23.501
G01 X13.326Y23.501
G01 X13.326Y23.501
M5
G01 X11.294Y33.661
M3
G01 X13.326Y33.661
G01 X13.326Y31.629
G01 X11.294Y31.629
G01 X11.294Y33.661
G01 X11.294Y33.661
M5
G01 X14.469Y31.629
M3
G01 X14.469Y33.661
G01 X16.501Y33.661
G01 X16.501Y31.629
G01 X14.469Y31.629
G01 X14.469Y31.629
M5
G01 X16.501Y21.469
M3
G01 X14.469Y21.469
G01 X14.469Y23.501
G01 X16.501Y23.501
G01 X16.501Y21.469
G01 X16.501Y21.469
M5
G01 X6.976Y33.661
M3
G01 X6.976Y31.629
G01 X4.944Y31.629
G01 X4.944Y33.661
G01 X6.976Y33.661
G01 X6.976Y33.661
M5
G01 X6.976Y23.501
M3
G01 X6.976Y21.469
G01 X4.944Y21.469
G01 X4.944Y23.501
G01 X6.976Y23.501
G01 X6.976Y23.501
M5
G01 X29.709Y23.501
M3
G01 X31.741Y23.501
G01 X31.741Y21.469
G01 X29.709Y21.469
G01 X29.709Y23.501
G01 X29.709Y23.501
M5
G01 X19.549Y21.469
M3
G01 X19.549Y23.501
G01 X21.581Y23.501
G01 X21.581Y21.469
G01 X19.549Y21.469
G01 X19.549Y21.469
M5
G01 X15.231Y11.944
M3
G01 X13.199Y11.944
G01 X13.199Y13.976
G01 X15.231Y13.976
G01 X15.231Y11.944
G01 X15.231Y11.944
M5
G01 X12.691Y13.976
M3
G01 X12.691Y11.944
G01 X10.659Y11.944
G01 X10.659Y13.976
G01 X12.691Y13.976
G01 X12.691Y13.976
M5
G01 X8.119Y13.976
M3
G01 X10.151Y13.976
G01 X10.151Y11.944
G01 X8.119Y11.944
G01 X8.119Y13.976
G01 X8.119Y13.976
M5
G01 X29.709Y15.754
M3
G01 X29.709Y17.786
G01 X31.741Y17.786
G01 X31.741Y15.754
G01 X29.709Y15.754
G01 X29.709Y15.754
M5
G01 X26.661Y15.754
M3
G01 X24.629Y15.754
G01 X24.629Y17.786
G01 X26.661Y17.786
G01 X26.661Y15.754
G01 X26.661Y15.754
M5
G01 X17.136Y18.421
M3
G01 X17.136Y16.389
G01 X15.104Y16.389
G01 X15.104Y18.421
G01 X17.136Y18.421
G01 X17.136Y18.421
M5
G01 X4.944Y18.421
M3
G01 X6.976Y18.421
G01 X6.976Y16.389
G01 X4.944Y16.389
G01 X4.944Y18.421
G01 X4.944Y18.421
M5
G01 X21.581Y13.214
M3
G01 X19.549Y13.214
G01 X19.549Y15.246
G01 X21.581Y15.246
G01 X21.581Y13.214
G01 X21.581Y13.214
M5
G01 X66.666Y13.341
M3
G01 X66.666Y11.309
G01 X64.634Y11.309
G01 X64.634Y13.341
G01 X66.666Y13.341
G01 X66.666Y13.341
M5
G01 X74.794Y13.341
M3
G01 X76.826Y13.341
G01 X76.826Y11.309
G01 X74.794Y11.309
G01 X74.794Y13.341
G01 X74.794Y13.341
M5
G01 X74.794Y17.024
M3
G01 X74.794Y19.056
G01 X76.826Y19.056
G01 X76.826Y17.024
G01 X74.794Y17.024
G01 X74.794Y17.024
M5
G01 X76.826Y24.136
M3
G01 X76.826Y22.104
G01 X74.794Y22.104
G01 X74.794Y24.136
G01 X76.826Y24.136
G01 X76.826Y24.136
M5
G01 X76.57202Y4.15335
M3
G01 X76.33732Y4.06937
G01 X76.09553Y4.00881
G01 X75.84896Y3.97223
G01 X75.6Y3.96
G01 X75.35104Y3.97223
G01 X75.10447Y4.00881
G01 X74.86268Y4.06937
G01 X74.62798Y4.15335
G01 X74.40265Y4.25992
G01 X74.18885Y4.38807
G01 X73.98864Y4.53655
G01 X73.80395Y4.70395
G01 X73.63655Y4.88864
G01 X73.48807Y5.08885
G01 X73.35992Y5.30265
G01 X73.25335Y5.52798
G01 X73.16937Y5.76268
G01 X73.10881Y6.00447
G01 X73.07223Y6.25104
G01 X73.06Y6.5
G01 X73.07223Y6.74896
G01 X73.10881Y6.99553
G01 X73.16937Y7.23732
G01 X73.25335Y7.47202
G01 X73.35992Y7.69735
G01 X73.48807Y7.91115
G01 X73.63655Y8.11136
G01 X73.80395Y8.29605
G01 X73.98864Y8.46345
G01 X74.18885Y8.61193
G01 X74.40265Y8.74008
G01 X74.62798Y8.84665
G01 X74.86268Y8.93063
G01 X75.10447Y8.99119
G01 X75.35104Y9.02777
G01 X75.6Y9.04
G01 X75.84896Y9.02777
G01 X76.09553Y8.99119
G01 X76.33732Y8.93063
G01 X76.57202Y8.84665
G01 X76.79735Y8.74008
G01 X77.01115Y8.61193
G01 X77.21136Y8.46345
G01 X77.39605Y8.29605
G01 X77.56345Y8.11136
G01 X77.71193Y7.91115
G01 X77.84008Y7.69735
G01 X77.94665Y7.47202
G01 X78.03063Y7.23732
G01 X78.09119Y6.99553
G01 X78.12777Y6.74896
G01 X78.14Y6.5
G01 X78.12777Y6.25104
G01 X78.09119Y6.00447
G01 X78.03063Y5.76268
G01 X77.94665Y5.52798
G01 X77.84008Y5.30265
G01 X77.71193Y5.08885
G01 X77.56345Y4.88864
G01 X77.39605Y4.70395
G01 X77.21136Y4.53655
G01 X77.01115Y4.38807
G01 X76.79735Y4.25992
G01 X76.57202Y4.15335
G01 X76.57202Y4.15335
M5
G01 X7.79735Y4.25992
M3
G01 X7.57202Y4.15335
G01 X7.33732Y4.06937
G01 X7.09553Y4.00881
G01 X6.84896Y3.97223
G01 X6.6Y3.96
G01 X6.35104Y3.97223
G01 X6.10447Y4.00881
G01 X5.86268Y4.06937
G01 X5.62798Y4.15335
G01 X5.40265Y4.25992
G01 X5.18885Y4.38807
G01 X4.98864Y4.53655
G01 X4.80395Y4.70395
G01 X4.63655Y4.88864
G01 X4.48807Y5.08885
G01 X4.35992Y5.30265
G01 X4.25335Y5.52798
G01 X4.16937Y5.76268
G01 X4.10881Y6.00447
G01 X4.07223Y6.25104
G01 X4.06Y6.5
G01 X4.07223Y6.74896
G01 X4.10881Y6.99553
G01 X4.16937Y7.23732
G01 X4.25335Y7.47202
G01 X4.35992Y7.69735
G01 X4.48807Y7.91115
G01 X4.63655Y8.11136
G01 X4.80395Y8.29605
G01 X4.98864Y8.46345
G01 X5.18885Y8.61193
G01 X5.40265Y8.74008
G01 X5.62798Y8.84665
G01 X5.86268Y8.93063
G01 X6.10447Y8.99119
G01 X6.35104Y9.02777
G01 X6.6Y9.04
G01 X6.84896Y9.02777
G01 X7.09553Y8.99119
G01 X7.33732Y8.93063
G01 X7.57202Y8.84665
G01 X7.79735Y8.74008
G01 X8.01115Y8.61193
G01 X8.21136Y8.46345
G01 X8.39605Y8.29605
G01 X8.56345Y8.11136
G01 X8.71193Y7.91115
G01 X8.84008Y7.69735
G01 X8.94665Y7.47202
G01 X9.03063Y7.23732
G01 X9.09119Y6.99553
G01 X9.12777Y6.74896
G01 X9.14Y6.5
G01 X9.12777Y6.25104
G01 X9.09119Y6.00447
G01 X9.03063Y5.76268
G01 X8.94665Y5.52798
G01 X8.84008Y5.30265
G01 X8.71193Y5.08885
G01 X8.56345Y4.88864
G01 X8.39605Y4.70395
G01 X8.21136Y4.53655
G01 X8.01115Y4.38807
G01 X7.79735Y4.25992
G01 X7.79735Y4.25992
M5
G01 X8.01115Y129.88807
M3
G01 X7.79735Y129.75992
G01 X7.57202Y129.65335
G01 X7.33732Y129.56937
G01 X7.09553Y129.50881
G01 X6.84896Y129.47223
G01 X6.6Y129.46
G01 X6.35104Y129.47223
G01 X6.10447Y129.50881
G01 X5.86268Y129.56937
G01 X5.62798Y129.65335
G01 X5.40265Y129.75992
G01 X5.18885Y129.88807
G01 X4.98864Y130.03655
G01 X4.80395Y130.20395
G01 X4.63655Y130.38864
G01 X4.48807Y130.58885
G01 X4.35992Y130.80265
G01 X4.25335Y131.02798
G01 X4.16937Y131.26268
G01 X4.10881Y131.50447
G01 X4.07223Y131.75104
G01 X4.06Y132.0
G01 X4.07223Y132.24896
G01 X4.10881Y132.49553
G01 X4.16937Y132.73732
G01 X4.25335Y132.97202
G01 X4.35992Y133.19735
G01 X4.48807Y133.41115
G01 X4.63655Y133.61136
G01 X4.80395Y133.79605
G01 X4.98864Y133.96345
G01 X5.18885Y134.11193
G01 X5.40265Y134.24008
G01 X5.62798Y134.34665
G01 X5.86268Y134.43063
G01 X6.10447Y134.49119
G01 X6.35104Y134.52777
G01 X6.6Y134.54
G01 X6.84896Y134.52777
G01 X7.09553Y134.49119
G01 X7.33732Y134.43063
G01 X7.57202Y134.34665
G01 X7.79735Y134.24008
G01 X8.01115Y134.11193
G01 X8.21136Y133.96345
G01 X8.39605Y133.79605
G01 X8.56345Y133.61136
G01 X8.71193Y133.41115
G01 X8.84008Y133.19735
G01 X8.94665Y132.97202
G01 X9.03063Y132.73732
G01 X9.09119Y132.49553
G01 X9.12777Y132.24896
G01 X9.14Y132.0
G01 X9.12777Y131.75104
G01 X9.09119Y131.50447
G01 X9.03063Y131.26268
G01 X8.94665Y131.02798
G01 X8.84008Y130.80265
G01 X8.71193Y130.58885
G01 X8.56345Y130.38864
G01 X8.39605Y130.20395
G01 X8.21136Y130.03655
G01 X8.01115Y129.88807
G01 X8.01115Y129.88807
M5
G01 X77.01115Y129.88807
M3
G01 X76.79735Y129.75992
G01 X76.57202Y129.65335
G01 X76.33732Y129.56937
G01 X76.09553Y129.50881
G01 X75.84896Y129.47223
G01 X75.6Y129.46
G01 X75.35104Y129.47223
G01 X75.10447Y129.50881
G01 X74.86268Y129.56937
G01 X74.62798Y129.65335
G01 X74.40265Y129.75992
G01 X74.18885Y129.88807
G01 X73.98864Y130.03655
G01 X73.80395Y130.20395
G01 X73.63655Y130.38864
G01 X73.48807Y130.58885
G01 X73.35992Y130.80265
G01 X73.25335Y131.02798
G01 X73.16937Y131.26268
G01 X73.10881Y131.50447
G01 X73.07223Y131.75104
G01 X73.06Y132.0
G01 X73.07223Y132.24896
G01 X73.10881Y132.49553
G01 X73.16937Y132.73732
G01 X73.25335Y132.97202
G01 X73.35992Y133.19735
G01 X73.48807Y133.41115
G01 X73.63655Y133.61136
G01 X73.80395Y133.79605
G01 X73.98864Y133.96345
G01 X74.18885Y134.11193
G01 X74.40265Y134.24008
G01 X74.62798Y134.34665
G01 X74.86268Y134.43063
G01 X75.10447Y134.49119
G01 X75.35104Y134.52777
G01 X75.6Y134.54
G01 X75.84896Y134.52777
G01 X76.09553Y134.49119
G01 X76.33732Y134.43063
G01 X76.57202Y134.34665
G01 X76.79735Y134.24008
G01 X77.01115Y134.11193
G01 X77.21136Y133.96345
G01 X77.39605Y133.79605
G01 X77.56345Y133.61136
G01 X77.71193Y133.41115
G01 X77.84008Y133.19735
G01 X77.94665Y132.97202
G01 X78.03063Y132.73732
G01 X78.09119Y132.49553
G01 X78.12777Y132.24896
G01 X78.14Y132.0
G01 X78.12777Y131.75104
G01 X78.09119Y131.50447
G01 X78.03063Y131.26268
G01 X77.94665Y131.02798
G01 X77.84008Y130.80265
G01 X77.71193Y130.58885
G01 X77.56345Y130.38864
G01 X77.39605Y130.20395
G01 X77.21136Y130.03655
G01 X77.01115Y129.88807
G01 X77.01115Y129.88807
M5
G01 X80.32949Y136.39723
M3
G01 X80.33888Y136.39387
G01 X80.34789Y136.3896
G01 X80.35645Y136.38448
G01 X80.36445Y136.37854
G01 X80.37184Y136.37184
G01 X80.37854Y136.36445
G01 X80.38448Y136.35645
G01 X80.3896Y136.34789
G01 X80.39387Y136.33888
G01 X80.39723Y136.32949
G01 X80.39965Y136.31982
G01 X80.40111Y136.30996
G01 X80.4016Y136.3
G01 X80.4016Y2.0
G01 X80.40111Y1.99004
G01 X80.39965Y1.98018
G01 X80.39723Y1.97051
G01 X80.39387Y1.96112
G01 X80.3896Y1.95211
G01 X80.38448Y1.94355
G01 X80.37854Y1.93555
G01 X80.37184Y1.92816
G01 X80.36445Y1.92146
G01 X80.35645Y1.91552
G01 X80.34789Y1.9104
G01 X80.33888Y1.90613
G01 X80.32949Y1.90277
G01 X80.31982Y1.90035
G01 X80.30996Y1.89889
G01 X80.3Y1.8984
G01 X2.0Y1.8984
G01 X1.99004Y1.89889
G01 X1.98018Y1.90035
G01 X1.97051Y1.90277
G01 X1.96112Y1.90613
G01 X1.95211Y1.9104
G01 X1.94355Y1.91552
G01 X1.93555Y1.92146
G01 X1.92816Y1.92816
G01 X1.92146Y1.93555
G01 X1.91552Y1.94355
G01 X1.9104Y1.95211
G01 X1.90613Y1.96112
G01 X1.90277Y1.97051
G01 X1.90035Y1.98018
G01 X1.89889Y1.99004
G01 X1.8984Y2.0
G01 X1.8984Y136.3
G01 X1.89889Y136.30996
G01 X1.90035Y136.31982
G01 X1.90277Y136.32949
G01 X1.90613Y136.33888
G01 X1.9104Y136.34789
G01 X1.91552Y136.35645
G01 X1.92146Y136.36445
G01 X1.92816Y136.37184
G01 X1.93555Y136.37854
G01 X1.94355Y136.38448
G01 X1.95211Y136.3896
G01 X1.96112Y136.39387
G01 X1.97051Y136.39723
G01 X1.98018Y136.39965
G01 X1.99004Y136.40111
G01 X2.0Y136.4016
G01 X80.3Y136.4016
G01 X80.30996Y136.40111
G01 X80.31982Y136.39965
G01 X80.32949Y136.39723
G01 X80.32949Y136.39723
M5
G01 X34.027Y43.313
M3
G01 X34.027Y41.281
G01 X34.281Y41.281
G01 X34.281Y41.027
G01 X35.424Y41.027
G01 X35.424Y41.281
G01 X35.678Y41.281
G01 X35.678Y42.48937
G01 X34.85437Y43.313
G01 X34.027Y43.313
G01 X34.027Y43.313
M5
G01 X32.249Y41.027
M3
G01 X32.249Y41.281
G01 X32.503Y41.281
G01 X32.503Y43.313
G01 X32.31063Y43.313
G01 X30.852Y41.85437
G01 X30.852Y41.281
G01 X31.106Y41.281
G01 X31.106Y41.027
G01 X32.249Y41.027
G01 X32.249Y41.027
M5
G01 X57.268Y44.075
M3
G01 X57.268Y45.345
G01 X57.268Y48.58537
G01 X55.617Y46.93437
G01 X55.617Y45.345
G01 X55.617Y45.02957
G01 X55.617Y42.805
G01 X55.617Y41.281
G01 X55.871Y41.281
G01 X55.871Y41.027
G01 X57.014Y41.027
G01 X57.014Y41.281
G01 X57.268Y41.281
G01 X57.268Y44.075
G01 X57.268Y44.075
M5
G01 X52.442Y41.281
M3
G01 X52.696Y41.281
G01 X52.696Y41.027
G01 X53.839Y41.027
G01 X53.839Y41.281
G01 X54.093Y41.281
G01 X54.093Y42.805
G01 X54.093Y45.02957
G01 X54.093Y45.345
G01 X54.093Y45.41037
G01 X53.48882Y44.80618
G01 X52.442Y43.75937
G01 X52.442Y41.281
G01 X52.442Y41.281
M5
G01 X64.126Y41.281
M3
G01 X64.126Y41.027
G01 X65.269Y41.027
G01 X65.269Y41.281
G01 X65.523Y41.281
G01 X65.523Y45.66437
G01 X63.872Y47.31537
G01 X63.872Y41.281
G01 X64.126Y41.281
G01 X64.126Y41.281
M5
G01 X68.444Y41.027
M3
G01 X68.444Y41.281
G01 X68.698Y41.281
G01 X68.698Y42.48937
G01 X67.65118Y43.53618
G01 X67.047Y44.14037
G01 X67.047Y41.281
G01 X67.301Y41.281
G01 X67.301Y41.027
G01 X68.444Y41.027
G01 X68.444Y41.027
M5
G01 X42.282Y43.75937
M3
G01 X42.282Y41.281
G01 X42.536Y41.281
G01 X42.536Y41.027
G01 X43.679Y41.027
G01 X43.679Y41.281
G01 X43.933Y41.281
G01 X43.933Y44.583
G01 X43.10563Y44.583
G01 X42.282Y43.75937
G01 X42.282Y43.75937
M5
G01 X45.711Y41.027
M3
G01 X46.854Y41.027
G01 X46.854Y41.281
G01 X47.108Y41.281
G01 X47.108Y44.583
G01 X45.457Y44.583
G01 X45.457Y41.281
G01 X45.711Y41.281
G01 X45.711Y41.027
G01 X45.711Y41.027
M5
G01 X80.1984Y136.1984
M3
G01 X2.1016Y136.1984
G01 X2.1016Y2.1016
G01 X80.1984Y2.1016
G01 X80.1984Y136.1984
G01 X80.1984Y136.1984
M5

M5 ; Disable End-Effector Signal

; Returning the Deactivating Tool-1
C0 ; PWM Tool select demultiplexer to select tool zero which is the empty tool slot in multiplexers
#TODO X-0.0Y-0.0Z-0.0 ;  ;Remove tool offset coordinate
G00X165.0Y0.0Z10.5 ; Go to Tool-1 Home Pos
G00X92 ; Enter Female Kinematic Mount Home Pos
A0 ; Latch OFF Kinematic Mount
G4 P5 ; Wait for Kinematic Mount to fully detach
G00X188 ; Exit Female Kinematic Mount Home Pos

; Machine deinitialization Sequence... 
G00X0.0Y0.0Z0.0
B0 ; Turn Machine OFF
