; This gcode is generated by my specialised python script for my PCB manufacturer project :))

; Machine Initialization Sequence...

G21 ; to set metric units
G90 ; to set absolute mode , G91 for incremental mode
G94 ; To set the active feed rate mode to units per minute mode

M5 ; disabling spindle PWM
C0 ; Choosing the empty tool slot in the multiplexer circuits

B1 ; Turn ON Machine

$H ; Homing :)
G10 P0 L20 X0.0Y0.0Z0.0 ; Force Reset current coordinates after homing


; The following gcode is the PCB trace laser marking gcode

M5 ; Being extra sure it won't light up before activation

; Getting and Activating Tool-1, The Tool.Laser
G00X165.0Y0.0Z10.5 ; Go to Tool-1 Home Pos
G00X188 ; Enter Female Kinematic Mount Home Pos
A1 ; Latch on Kinematic Mount
G4 P5 ; Wait for Kinematic Mount to fully attach
G00X92 ; Exit Female Kinematic Mount Home Pos
#TODO X0.0Y0.0Z0.0 ;  ;Add tool offset coordinate
C1 ; Choosing tool 1 in the choose demultiplexer circuits

F400 ; setting default feedrate

G00Z16 ; Moving to correct focal length Z position

S200 ; Setting Laser Power

; Number of passes: 1

; Pass number: 1
G01 X67.015Y49.3912
M3
G01 X67.0086Y49.3941
G01 X67.0016Y49.3997
G01 X66.994Y49.4045
G01 X66.9892Y49.4096
G01 X66.9838Y49.4139
G01 X66.9783Y49.4211
G01 X66.9722Y49.4276
G01 X66.9688Y49.4338
G01 X66.9646Y49.4393
G01 X66.9575Y49.4538
G01 X66.792Y49.8533
G01 X62.2987Y54.3466
G01 X62.2927Y54.3544
G01 X62.2859Y54.3617
G01 X62.283Y54.367
G01 X62.2793Y54.3717
G01 X62.2753Y54.3808
G01 X62.2705Y54.3895
G01 X62.269Y54.3954
G01 X62.2666Y54.4009
G01 X62.2651Y54.4107
G01 X62.2626Y54.4203
G01 X62.262Y54.4303
G01 X62.2616Y54.4323
G01 X62.2618Y54.4336
G01 X62.2616Y54.4364
G01 X62.2616Y55.28301
G01 X62.2529Y55.28712
G01 X62.12664Y55.3628
G01 X62.00841Y55.45048
G01 X61.89934Y55.54934
G01 X61.80048Y55.65841
G01 X61.7128Y55.77664
G01 X61.63712Y55.9029
G01 X61.57418Y56.03597
G01 X61.52459Y56.17457
G01 X61.48882Y56.31736
G01 X61.46722Y56.46297
G01 X61.46Y56.61
G01 X61.46722Y56.75703
G01 X61.48882Y56.90264
G01 X61.52459Y57.04543
G01 X61.57418Y57.18403
G01 X61.63712Y57.3171
G01 X61.7128Y57.44336
G01 X61.80048Y57.56159
G01 X61.89934Y57.67066
G01 X62.00841Y57.76952
G01 X62.12664Y57.8572
G01 X62.2529Y57.93288
G01 X62.2616Y57.93699
G01 X62.2616Y60.6886
G01 X62.2628Y60.6985
G01 X62.2631Y60.7084
G01 X62.2648Y60.7142
G01 X62.2656Y60.7202
G01 X62.2692Y60.7294
G01 X62.272Y60.7389
G01 X62.275Y60.7441
G01 X62.2773Y60.7498
G01 X62.2831Y60.7578
G01 X62.2881Y60.7663
G01 X62.2947Y60.7738
G01 X62.2959Y60.7755
G01 X62.2969Y60.7763
G01 X62.2987Y60.7784
G01 X64.123Y62.6026
G01 X64.5695Y63.0492
G01 X64.8016Y63.6093
G01 X64.8016Y69.6132
G01 X64.5695Y70.1733
G01 X62.9999Y71.743
G01 X62.5533Y72.1895
G01 X61.9932Y72.4216
G01 X61.7523Y72.4216
G01 X61.7424Y72.4228
G01 X61.7325Y72.4231
G01 X61.7267Y72.4248
G01 X61.7207Y72.4256
G01 X61.7115Y72.4292
G01 X61.702Y72.432
G01 X61.6968Y72.435
G01 X61.6911Y72.4373
G01 X61.6831Y72.4431
G01 X61.6746Y72.4481
G01 X61.667Y72.4547
G01 X61.6654Y72.4559
G01 X61.6646Y72.4569
G01 X61.6625Y72.4587
G01 X61.4364Y72.6848
G01 X60.6616Y73.0058
G01 X59.7342Y73.0058
G01 X59.7224Y73.0073
G01 X59.7105Y73.008
G01 X59.7067Y73.0093
G01 X59.7026Y73.0098
G01 X59.6916Y73.0141
G01 X59.6803Y73.0178
G01 X59.6768Y73.02
G01 X59.6731Y73.0215
G01 X59.6635Y73.0284
G01 X59.6534Y73.0348
G01 X59.6506Y73.0378
G01 X59.6473Y73.0401
G01 X59.6397Y73.0493
G01 X59.6316Y73.058
G01 X59.6296Y73.0615
G01 X59.6271Y73.0646
G01 X59.622Y73.0754
G01 X59.6162Y73.0858
G01 X59.6152Y73.0898
G01 X59.6135Y73.0934
G01 X59.6113Y73.1051
G01 X59.6083Y73.1166
G01 X59.6079Y73.1226
G01 X59.6075Y73.1246
G01 X59.6077Y73.1267
G01 X59.6073Y73.1327
G01 X59.6073Y76.3164
G01 X59.6085Y76.3263
G01 X59.6088Y76.3362
G01 X59.6105Y76.342
G01 X59.6113Y76.348
G01 X59.6149Y76.3572
G01 X59.6177Y76.3667
G01 X59.6207Y76.3719
G01 X59.623Y76.3776
G01 X59.6288Y76.3856
G01 X59.6338Y76.3941
G01 X59.6404Y76.4016
G01 X59.6416Y76.4033
G01 X59.6426Y76.4041
G01 X59.6444Y76.4062
G01 X59.8934Y76.6551
G01 X60.2246Y77.2288
G01 X60.3961Y77.8688
G01 X60.3961Y78.5312
G01 X60.2246Y79.1712
G01 X59.8934Y79.7449
G01 X59.4249Y80.2134
G01 X58.8512Y80.5446
G01 X58.2112Y80.7161
G01 X57.5488Y80.7161
G01 X56.9088Y80.5446
G01 X56.3351Y80.2134
G01 X55.8666Y79.7449
G01 X55.5354Y79.1712
G01 X55.3639Y78.5312
G01 X55.3639Y77.8688
G01 X55.5354Y77.2288
G01 X55.8666Y76.6551
G01 X56.1156Y76.4062
G01 X56.1216Y76.3984
G01 X56.1284Y76.3911
G01 X56.1313Y76.3858
G01 X56.135Y76.3811
G01 X56.139Y76.372
G01 X56.1438Y76.3633
G01 X56.1453Y76.3574
G01 X56.1477Y76.3519
G01 X56.1492Y76.3421
G01 X56.1517Y76.3325
G01 X56.1523Y76.3225
G01 X56.1527Y76.3205
G01 X56.1525Y76.3192
G01 X56.1527Y76.3164
G01 X56.1527Y72.4342
G01 X56.1512Y72.4224
G01 X56.1505Y72.4105
G01 X56.1492Y72.4067
G01 X56.1487Y72.4026
G01 X56.1444Y72.3916
G01 X56.1407Y72.3803
G01 X56.1385Y72.3768
G01 X56.137Y72.3731
G01 X56.1301Y72.3635
G01 X56.1237Y72.3534
G01 X56.1207Y72.3506
G01 X56.1184Y72.3473
G01 X56.1092Y72.3397
G01 X56.1005Y72.3316
G01 X56.097Y72.3296
G01 X56.0939Y72.3271
G01 X56.0831Y72.322
G01 X56.0727Y72.3162
G01 X56.0687Y72.3152
G01 X56.0651Y72.3135
G01 X56.0534Y72.3113
G01 X56.0419Y72.3083
G01 X56.0359Y72.3079
G01 X56.0339Y72.3075
G01 X56.0318Y72.3077
G01 X56.0258Y72.3073
G01 X53.3864Y72.3073
G01 X53.3855Y72.3074
G01 X53.3845Y72.3073
G01 X53.3701Y72.3093
G01 X53.3672Y72.3095
G01 X53.3662Y72.3098
G01 X53.3548Y72.3113
G01 X53.354Y72.3116
G01 X53.3531Y72.3117
G01 X53.3378Y72.3169
G01 X53.12286Y72.40597
G01 X53.08082Y72.38077
G01 X53.00647Y72.3456
G01 X52.92902Y72.31789
G01 X52.84922Y72.29791
G01 X52.76786Y72.28584
G01 X52.6857Y72.2818
G01 X51.0093Y72.2818
G01 X50.92714Y72.28584
G01 X50.84578Y72.29791
G01 X50.76598Y72.31789
G01 X50.68853Y72.3456
G01 X50.61418Y72.38077
G01 X50.54362Y72.42306
G01 X50.47755Y72.47206
G01 X50.46328Y72.485
G01 X49.88803Y72.485
G01 X48.99Y71.58697
G01 X48.99Y69.57303
G01 X49.88803Y68.675
G01 X50.46328Y68.675
G01 X50.47755Y68.68794
G01 X50.54362Y68.73694
G01 X50.61418Y68.77923
G01 X50.68853Y68.8144
G01 X50.76598Y68.84211
G01 X50.84578Y68.86209
G01 X50.92714Y68.87416
G01 X51.0093Y68.8782
G01 X52.6857Y68.8782
G01 X52.76786Y68.87416
G01 X52.84922Y68.86209
G01 X52.92902Y68.84211
G01 X53.00647Y68.8144
G01 X53.08082Y68.77923
G01 X53.12286Y68.75403
G01 X53.3378Y68.8431
G01 X53.3387Y68.8433
G01 X53.3395Y68.8438
G01 X53.354Y68.8475
G01 X53.3685Y68.8515
G01 X53.3694Y68.8515
G01 X53.3703Y68.8517
G01 X53.3864Y68.8527
G01 X57.33007Y68.8527
G01 X57.36492Y68.88428
G01 X57.45101Y68.94813
G01 X57.54294Y69.00323
G01 X57.63983Y69.04906
G01 X57.74075Y69.08517
G01 X57.84472Y69.11121
G01 X57.95075Y69.12694
G01 X58.0578Y69.1322
G01 X60.2422Y69.1322
G01 X60.34925Y69.12694
G01 X60.45528Y69.11121
G01 X60.55925Y69.08517
G01 X60.66017Y69.04906
G01 X60.75706Y69.00323
G01 X60.84899Y68.94813
G01 X60.91932Y68.89597
G01 X61.2771Y69.0442
G01 X61.28Y69.045
G01 X61.2826Y69.0463
G01 X61.2953Y69.0492
G01 X61.3078Y69.0526
G01 X61.3108Y69.0526
G01 X61.3136Y69.0533
G01 X61.3266Y69.0529
G01 X61.3396Y69.0531
G01 X61.3425Y69.0524
G01 X61.3454Y69.0523
G01 X61.3579Y69.0487
G01 X61.3705Y69.0457
G01 X61.3731Y69.0443
G01 X61.376Y69.0435
G01 X61.3871Y69.0369
G01 X61.3986Y69.0308
G01 X61.4008Y69.0288
G01 X61.4034Y69.0273
G01 X61.4154Y69.0167
G01 X61.7163Y68.7159
G01 X61.7223Y68.7081
G01 X61.7291Y68.7008
G01 X61.732Y68.6955
G01 X61.7357Y68.6908
G01 X61.7397Y68.6817
G01 X61.7445Y68.673
G01 X61.746Y68.6671
G01 X61.7484Y68.6616
G01 X61.7499Y68.6518
G01 X61.7524Y68.6422
G01 X61.753Y68.6322
G01 X61.7534Y68.6302
G01 X61.7532Y68.6289
G01 X61.7534Y68.6261
G01 X61.7534Y66.9592
G01 X61.7517Y66.9454
G01 X61.7504Y66.9316
G01 X61.7497Y66.9297
G01 X61.7494Y66.9277
G01 X61.7443Y66.9148
G01 X61.7396Y66.9017
G01 X61.7385Y66.9
G01 X61.7377Y66.8981
G01 X61.7296Y66.8869
G01 X61.7218Y66.8754
G01 X61.7202Y66.874
G01 X61.7191Y66.8724
G01 X61.7083Y66.8635
G01 X61.6979Y66.8543
G01 X61.6961Y66.8534
G01 X61.6946Y66.8521
G01 X61.682Y66.8462
G01 X61.6696Y66.8399
G01 X61.6676Y66.8394
G01 X61.6658Y66.8386
G01 X61.6521Y66.8359
G01 X61.6386Y66.8329
G01 X61.6365Y66.833
G01 X61.6346Y66.8326
G01 X61.6207Y66.8334
G01 X61.6068Y66.8339
G01 X61.6048Y66.8344
G01 X61.6028Y66.8346
G01 X61.5896Y66.8388
G01 X61.5762Y66.8427
G01 X61.5745Y66.8437
G01 X61.5726Y66.8444
G01 X61.5608Y66.8518
G01 X61.5488Y66.8589
G01 X61.5467Y66.8607
G01 X61.5457Y66.8614
G01 X61.5443Y66.8629
G01 X61.5368Y66.8695
G01 X61.4364Y66.9698
G01 X60.91932Y67.18403
G01 X60.84899Y67.13187
G01 X60.75706Y67.07677
G01 X60.66017Y67.03094
G01 X60.55925Y66.99483
G01 X60.45528Y66.96879
G01 X60.34925Y66.95306
G01 X60.2422Y66.9478
G01 X58.0578Y66.9478
G01 X57.95075Y66.95306
G01 X57.84472Y66.96879
G01 X57.74075Y66.99483
G01 X57.63983Y67.03094
G01 X57.54294Y67.07677
G01 X57.45101Y67.13187
G01 X57.36492Y67.19572
G01 X57.33007Y67.2273
G01 X53.3864Y67.2273
G01 X53.3855Y67.2274
G01 X53.3845Y67.2273
G01 X53.3701Y67.2293
G01 X53.3672Y67.2295
G01 X53.3662Y67.2298
G01 X53.3548Y67.2313
G01 X53.354Y67.2316
G01 X53.3531Y67.2317
G01 X53.3378Y67.2369
G01 X53.12286Y67.32597
G01 X53.08082Y67.30077
G01 X53.00647Y67.2656
G01 X52.92902Y67.23789
G01 X52.84922Y67.21791
G01 X52.76786Y67.20584
G01 X52.6857Y67.2018
G01 X51.0093Y67.2018
G01 X50.92714Y67.20584
G01 X50.84578Y67.21791
G01 X50.76598Y67.23789
G01 X50.68853Y67.2656
G01 X50.61418Y67.30077
G01 X50.54362Y67.34306
G01 X50.47755Y67.39206
G01 X50.46328Y67.405
G01 X49.625Y67.405
G01 X49.56276Y67.40806
G01 X49.50112Y67.4172
G01 X49.44067Y67.43234
G01 X49.382Y67.45334
G01 X49.32566Y67.47998
G01 X49.27221Y67.51202
G01 X49.25868Y67.52206
G01 X49.22216Y67.54914
G01 X49.19038Y67.57794
G01 X49.17599Y67.59099
G01 X49.17599Y67.59099
G01 X47.90599Y68.86099
G01 X47.90599Y68.86099
G01 X47.86414Y68.90716
G01 X47.82702Y68.95721
G01 X47.79498Y69.01066
G01 X47.76834Y69.067
G01 X47.74734Y69.12567
G01 X47.7322Y69.18612
G01 X47.72306Y69.24776
G01 X47.72Y69.31
G01 X47.72Y71.85
G01 X47.72306Y71.91224
G01 X47.7322Y71.97388
G01 X47.74734Y72.03433
G01 X47.76834Y72.093
G01 X47.79498Y72.14934
G01 X47.82702Y72.20279
G01 X47.86414Y72.25284
G01 X47.90599Y72.29901
G01 X49.17599Y73.56901
G01 X49.22216Y73.61086
G01 X49.27221Y73.64798
G01 X49.32566Y73.68002
G01 X49.382Y73.70666
G01 X49.44067Y73.72766
G01 X49.50112Y73.7428
G01 X49.56276Y73.75194
G01 X49.625Y73.755
G01 X50.46328Y73.755
G01 X50.47755Y73.76794
G01 X50.54362Y73.81694
G01 X50.61418Y73.85923
G01 X50.68853Y73.8944
G01 X50.76598Y73.92211
G01 X50.84578Y73.94209
G01 X50.92714Y73.95416
G01 X51.0093Y73.9582
G01 X52.6857Y73.9582
G01 X52.76786Y73.95416
G01 X52.84922Y73.94209
G01 X52.92902Y73.92211
G01 X53.00647Y73.8944
G01 X53.08082Y73.85923
G01 X53.12288Y73.83402
G01 X53.7361Y74.088
G01 X54.2577Y74.6096
G01 X54.54Y75.2912
G01 X54.54Y76.0288
G01 X54.2577Y76.7104
G01 X54.1278Y76.8403
G01 X54.1205Y76.8497
G01 X54.1126Y76.8586
G01 X54.1108Y76.8622
G01 X54.1083Y76.8654
G01 X54.1036Y76.8763
G01 X54.0982Y76.8869
G01 X54.0973Y76.8908
G01 X54.0957Y76.8946
G01 X54.0938Y76.9063
G01 X54.0912Y76.9179
G01 X54.0913Y76.922
G01 X54.0907Y76.926
G01 X54.0918Y76.9378
G01 X54.0922Y76.9497
G01 X54.0933Y76.9536
G01 X54.0937Y76.9576
G01 X54.0977Y76.9688
G01 X54.101Y76.9803
G01 X54.103Y76.9838
G01 X54.1044Y76.9876
G01 X54.1111Y76.9974
G01 X54.1172Y77.0077
G01 X54.1211Y77.0122
G01 X54.1223Y77.0139
G01 X54.1238Y77.0152
G01 X54.1278Y77.0198
G01 X54.2577Y77.1496
G01 X54.54Y77.8312
G01 X54.54Y78.5688
G01 X54.2577Y79.2504
G01 X54.1278Y79.3803
G01 X54.1205Y79.3897
G01 X54.1126Y79.3986
G01 X54.1108Y79.4022
G01 X54.1083Y79.4054
G01 X54.1036Y79.4163
G01 X54.0982Y79.4269
G01 X54.0973Y79.4308
G01 X54.0957Y79.4346
G01 X54.0938Y79.4463
G01 X54.0912Y79.4579
G01 X54.0913Y79.462
G01 X54.0907Y79.466
G01 X54.0918Y79.4778
G01 X54.0922Y79.4897
G01 X54.0933Y79.4936
G01 X54.0937Y79.4976
G01 X54.0977Y79.5088
G01 X54.101Y79.5203
G01 X54.103Y79.5238
G01 X54.1044Y79.5276
G01 X54.1111Y79.5374
G01 X54.1172Y79.5477
G01 X54.1211Y79.5522
G01 X54.1223Y79.5539
G01 X54.1238Y79.5552
G01 X54.1278Y79.5598
G01 X54.2577Y79.6896
G01 X54.54Y80.3712
G01 X54.54Y81.1088
G01 X54.2577Y81.7904
G01 X53.7361Y82.312
G01 X53.12288Y82.56598
G01 X53.08082Y82.54077
G01 X53.00647Y82.5056
G01 X52.92902Y82.47789
G01 X52.84922Y82.45791
G01 X52.76786Y82.44584
G01 X52.6857Y82.4418
G01 X51.0093Y82.4418
G01 X50.92714Y82.44584
G01 X50.84578Y82.45791
G01 X50.76598Y82.47789
G01 X50.68853Y82.5056
G01 X50.61418Y82.54077
G01 X50.54362Y82.58306
G01 X50.47755Y82.63206
G01 X50.4166Y82.6873
G01 X50.36136Y82.74825
G01 X50.31236Y82.81432
G01 X50.27007Y82.88488
G01 X50.2349Y82.95923
G01 X50.20719Y83.03668
G01 X50.18721Y83.11648
G01 X50.17514Y83.19784
G01 X50.1711Y83.28
G01 X50.17514Y83.36216
G01 X50.18721Y83.44352
G01 X50.20719Y83.52332
G01 X50.2349Y83.60077
G01 X50.27007Y83.67512
G01 X50.31236Y83.74568
G01 X50.36136Y83.81175
G01 X50.4166Y83.8727
G01 X50.47755Y83.92794
G01 X50.54362Y83.97694
G01 X50.61418Y84.01923
G01 X50.68853Y84.0544
G01 X50.76598Y84.08211
G01 X50.84578Y84.10209
G01 X50.92714Y84.11416
G01 X51.0093Y84.1182
G01 X52.6857Y84.1182
G01 X52.76786Y84.11416
G01 X52.84922Y84.10209
G01 X52.92902Y84.08211
G01 X53.00647Y84.0544
G01 X53.08082Y84.01923
G01 X53.12288Y83.99402
G01 X53.7361Y84.248
G01 X54.2577Y84.7696
G01 X54.54Y85.4512
G01 X54.54Y86.1888
G01 X54.2577Y86.8704
G01 X54.1278Y87.0003
G01 X54.1205Y87.0097
G01 X54.1126Y87.0186
G01 X54.1108Y87.0222
G01 X54.1083Y87.0254
G01 X54.1036Y87.0363
G01 X54.0982Y87.0469
G01 X54.0973Y87.0508
G01 X54.0957Y87.0546
G01 X54.0938Y87.0663
G01 X54.0912Y87.0779
G01 X54.0913Y87.082
G01 X54.0907Y87.086
G01 X54.0918Y87.0978
G01 X54.0922Y87.1097
G01 X54.0933Y87.1136
G01 X54.0937Y87.1176
G01 X54.0977Y87.1288
G01 X54.101Y87.1403
G01 X54.103Y87.1438
G01 X54.1044Y87.1476
G01 X54.1111Y87.1574
G01 X54.1172Y87.1677
G01 X54.1211Y87.1722
G01 X54.1223Y87.1739
G01 X54.1238Y87.1752
G01 X54.1278Y87.1798
G01 X54.2577Y87.3096
G01 X54.54Y87.9912
G01 X54.54Y88.7288
G01 X54.2577Y89.4104
G01 X53.7361Y89.932
G01 X53.12288Y90.18598
G01 X53.08082Y90.16077
G01 X53.00647Y90.1256
G01 X52.92902Y90.09789
G01 X52.84922Y90.07791
G01 X52.76786Y90.06584
G01 X52.6857Y90.0618
G01 X51.0093Y90.0618
G01 X50.92714Y90.06584
G01 X50.84578Y90.07791
G01 X50.76598Y90.09789
G01 X50.68853Y90.1256
G01 X50.61418Y90.16077
G01 X50.54362Y90.20306
G01 X50.47755Y90.25206
G01 X50.4166Y90.3073
G01 X50.36136Y90.36825
G01 X50.31236Y90.43432
G01 X50.27007Y90.50488
G01 X50.2349Y90.57923
G01 X50.20719Y90.65668
G01 X50.18721Y90.73648
G01 X50.17514Y90.81784
G01 X50.1711Y90.9
G01 X50.17514Y90.98216
G01 X50.18721Y91.06352
G01 X50.20719Y91.14332
G01 X50.2349Y91.22077
G01 X50.27007Y91.29512
G01 X50.31236Y91.36568
G01 X50.36136Y91.43175
G01 X50.4166Y91.4927
G01 X50.47755Y91.54794
G01 X50.54362Y91.59694
G01 X50.61418Y91.63923
G01 X50.68853Y91.6744
G01 X50.76598Y91.70211
G01 X50.84578Y91.72209
G01 X50.92714Y91.73416
G01 X51.0093Y91.7382
G01 X52.6857Y91.7382
G01 X52.76786Y91.73416
G01 X52.84922Y91.72209
G01 X52.92902Y91.70211
G01 X53.00647Y91.6744
G01 X53.08082Y91.63923
G01 X53.12288Y91.61402
G01 X53.7361Y91.868
G01 X54.2577Y92.3896
G01 X54.54Y93.0712
G01 X54.54Y93.8088
G01 X54.2577Y94.4904
G01 X53.7361Y95.012
G01 X53.12288Y95.26598
G01 X53.08082Y95.24077
G01 X53.00647Y95.2056
G01 X52.92902Y95.17789
G01 X52.84922Y95.15791
G01 X52.76786Y95.14584
G01 X52.6857Y95.1418
G01 X51.0093Y95.1418
G01 X50.92714Y95.14584
G01 X50.84578Y95.15791
G01 X50.76598Y95.17789
G01 X50.68853Y95.2056
G01 X50.61418Y95.24077
G01 X50.54362Y95.28306
G01 X50.47755Y95.33206
G01 X50.4166Y95.3873
G01 X50.36136Y95.44825
G01 X50.31236Y95.51432
G01 X50.27007Y95.58488
G01 X50.2349Y95.65923
G01 X50.20719Y95.73668
G01 X50.18721Y95.81648
G01 X50.17514Y95.89784
G01 X50.1711Y95.98
G01 X50.17514Y96.06216
G01 X50.18721Y96.14352
G01 X50.20719Y96.22332
G01 X50.2349Y96.30077
G01 X50.27007Y96.37512
G01 X50.31236Y96.44568
G01 X50.36136Y96.51175
G01 X50.4166Y96.5727
G01 X50.47755Y96.62794
G01 X50.54362Y96.67694
G01 X50.61418Y96.71923
G01 X50.68853Y96.7544
G01 X50.76598Y96.78211
G01 X50.84578Y96.80209
G01 X50.92714Y96.81416
G01 X51.0093Y96.8182
G01 X52.6857Y96.8182
G01 X52.76786Y96.81416
G01 X52.84922Y96.80209
G01 X52.92902Y96.78211
G01 X53.00647Y96.7544
G01 X53.08082Y96.71923
G01 X53.12288Y96.69402
G01 X53.7361Y96.948
G01 X54.2577Y97.4696
G01 X54.54Y98.1512
G01 X54.54Y98.8888
G01 X54.2577Y99.5704
G01 X53.7361Y100.092
G01 X53.0545Y100.3743
G01 X50.6405Y100.3743
G01 X50.4798Y100.3077
G01 X50.4789Y100.3075
G01 X50.4781Y100.307
G01 X50.4637Y100.3033
G01 X50.4492Y100.2993
G01 X50.4482Y100.2993
G01 X50.4473Y100.2991
G01 X50.4313Y100.2981
G01 X40.4175Y100.2981
G01 X40.4077Y100.2993
G01 X40.3978Y100.2996
G01 X40.392Y100.3013
G01 X40.3859Y100.3021
G01 X40.3767Y100.3057
G01 X40.3672Y100.3085
G01 X40.362Y100.3115
G01 X40.3564Y100.3138
G01 X40.3484Y100.3196
G01 X40.3398Y100.3246
G01 X40.3323Y100.3312
G01 X40.3306Y100.3324
G01 X40.3299Y100.3334
G01 X40.3277Y100.3352
G01 X38.4227Y102.2402
G01 X38.4167Y102.2481
G01 X38.4099Y102.2553
G01 X38.407Y102.2606
G01 X38.4033Y102.2654
G01 X38.3993Y102.2745
G01 X38.3945Y102.2831
G01 X38.393Y102.289
G01 X38.3906Y102.2946
G01 X38.3891Y102.3044
G01 X38.3866Y102.3139
G01 X38.386Y102.3239
G01 X38.3856Y102.326
G01 X38.3858Y102.3272
G01 X38.3856Y102.33
G01 X38.3856Y123.5499
G01 X36.5177Y125.4177
G01 X36.5117Y125.4256
G01 X36.5049Y125.4328
G01 X36.502Y125.4381
G01 X36.4983Y125.4429
G01 X36.4943Y125.452
G01 X36.4895Y125.4606
G01 X36.488Y125.4665
G01 X36.4856Y125.4721
G01 X36.4841Y125.4819
G01 X36.4816Y125.4914
G01 X36.481Y125.5014
G01 X36.4806Y125.5035
G01 X36.4808Y125.5047
G01 X36.4806Y125.5075
G01 X36.4806Y131.54
G01 X36.4821Y131.5518
G01 X36.4828Y131.5637
G01 X36.4841Y131.5675
G01 X36.4846Y131.5716
G01 X36.4889Y131.5826
G01 X36.4926Y131.5939
G01 X36.4948Y131.5974
G01 X36.4963Y131.6011
G01 X36.5032Y131.6107
G01 X36.5096Y131.6208
G01 X36.5126Y131.6236
G01 X36.5149Y131.6269
G01 X36.5241Y131.6344
G01 X36.5328Y131.6426
G01 X36.5363Y131.6446
G01 X36.5394Y131.6471
G01 X36.5502Y131.6522
G01 X36.5606Y131.658
G01 X36.5646Y131.659
G01 X36.5682Y131.6607
G01 X36.5799Y131.6629
G01 X36.5914Y131.6659
G01 X36.5974Y131.6663
G01 X36.5994Y131.6667
G01 X36.6015Y131.6665
G01 X36.6075Y131.6669
G01 X42.005Y131.6669
G01 X42.0148Y131.6657
G01 X42.0247Y131.6654
G01 X42.0305Y131.6637
G01 X42.0366Y131.6629
G01 X42.0458Y131.6593
G01 X42.0553Y131.6565
G01 X42.0605Y131.6535
G01 X42.0661Y131.6512
G01 X42.0741Y131.6454
G01 X42.0827Y131.6404
G01 X42.0902Y131.6338
G01 X42.0919Y131.6326
G01 X42.0926Y131.6316
G01 X42.0947Y131.6297
G01 X43.0472Y130.6772
G01 X43.0533Y130.6694
G01 X43.0601Y130.6622
G01 X43.063Y130.6569
G01 X43.0667Y130.6521
G01 X43.0707Y130.643
G01 X43.0755Y130.6344
G01 X43.077Y130.6285
G01 X43.0794Y130.6229
G01 X43.0809Y130.6131
G01 X43.0834Y130.6036
G01 X43.084Y130.5936
G01 X43.0844Y130.5915
G01 X43.0842Y130.5903
G01 X43.0844Y130.5875
G01 X43.0844Y127.7826
G01 X47.4551Y123.4119
G01 X73.5645Y123.4119
G01 X73.5763Y123.4104
G01 X73.5882Y123.4097
G01 X73.592Y123.4084
G01 X73.5961Y123.4079
G01 X73.6071Y123.4036
G01 X73.6184Y123.3999
G01 X73.6219Y123.3977
G01 X73.6256Y123.3962
G01 X73.6352Y123.3892
G01 X73.6453Y123.3829
G01 X73.6481Y123.3799
G01 X73.6514Y123.3776
G01 X73.659Y123.3684
G01 X73.6671Y123.3597
G01 X73.6691Y123.3562
G01 X73.6716Y123.3531
G01 X73.6767Y123.3423
G01 X73.6825Y123.3319
G01 X73.6835Y123.3279
G01 X73.6852Y123.3243
G01 X73.6874Y123.3126
G01 X73.6904Y123.3011
G01 X73.6908Y123.295
G01 X73.6912Y123.293
G01 X73.691Y123.291
G01 X73.6914Y123.285
G01 X73.6914Y113.3723
G01 X73.6908Y113.3673
G01 X73.691Y113.3624
G01 X73.6888Y113.3516
G01 X73.6874Y113.3407
G01 X73.6856Y113.3361
G01 X73.6846Y113.3312
G01 X73.6798Y113.3213
G01 X73.6757Y113.3111
G01 X73.6728Y113.3071
G01 X73.6706Y113.3026
G01 X73.6635Y113.2943
G01 X73.6571Y113.2854
G01 X73.6532Y113.2822
G01 X73.65Y113.2784
G01 X73.641Y113.2721
G01 X73.6326Y113.2651
G01 X73.6281Y113.263
G01 X73.624Y113.2601
G01 X73.6137Y113.2562
G01 X73.6038Y113.2516
G01 X73.5989Y113.2506
G01 X73.5943Y113.2489
G01 X73.5833Y113.2476
G01 X73.5726Y113.2456
G01 X73.5676Y113.2459
G01 X73.5627Y113.2453
G01 X73.5518Y113.2469
G01 X73.5408Y113.2476
G01 X73.5361Y113.2491
G01 X73.5312Y113.2498
G01 X73.5159Y113.255
G01 X72.8791Y113.5188
G01 X72.0909Y113.5188
G01 X71.3593Y113.2157
G01 X71.3563Y113.2129
G01 X71.351Y113.21
G01 X71.3462Y113.2063
G01 X71.3371Y113.2023
G01 X71.3284Y113.1975
G01 X71.3226Y113.196
G01 X71.317Y113.1936
G01 X71.3072Y113.1921
G01 X71.2976Y113.1896
G01 X71.2876Y113.189
G01 X71.2856Y113.1886
G01 X71.2844Y113.1888
G01 X71.2816Y113.1886
G01 X65.8066Y113.1886
G01 X65.1997Y112.9372
G01 X63.1478Y110.8853
G01 X62.8964Y110.2784
G01 X62.8964Y109.48834
G01 X62.90353Y109.47644
G01 X62.94616Y109.38631
G01 X62.97975Y109.29243
G01 X63.00398Y109.19571
G01 X63.01861Y109.09709
G01 X63.0235Y108.9975
G01 X63.01861Y108.89791
G01 X63.00398Y108.79929
G01 X62.97975Y108.70257
G01 X62.94616Y108.60869
G01 X62.90353Y108.51856
G01 X62.8964Y108.50666
G01 X62.8964Y104.9715
G01 X62.8952Y104.9617
G01 X62.8949Y104.9517
G01 X62.8932Y104.9459
G01 X62.8924Y104.9399
G01 X62.8888Y104.9307
G01 X62.886Y104.9212
G01 X62.883Y104.916
G01 X62.8807Y104.9103
G01 X62.8749Y104.9023
G01 X62.8699Y104.8938
G01 X62.8633Y104.8863
G01 X62.8621Y104.8846
G01 X62.8611Y104.8838
G01 X62.8593Y104.8817
G01 X61.2391Y103.2616
G01 X61.2368Y103.2598
G01 X61.2349Y103.2575
G01 X61.2243Y103.2501
G01 X61.214Y103.2421
G01 X61.2113Y103.2409
G01 X61.2089Y103.2392
G01 X61.1967Y103.2346
G01 X61.1848Y103.2295
G01 X61.1819Y103.229
G01 X61.1791Y103.2279
G01 X61.1662Y103.2265
G01 X61.1534Y103.2245
G01 X61.1505Y103.2247
G01 X61.1475Y103.2244
G01 X61.1347Y103.2262
G01 X61.1217Y103.2275
G01 X61.119Y103.2285
G01 X61.116Y103.2289
G01 X61.1075Y103.2318
G01 X60.3687Y103.2318
G01 X59.6871Y102.9495
G01 X59.1655Y102.4279
G01 X58.8832Y101.7463
G01 X58.8832Y101.0087
G01 X59.1655Y100.3271
G01 X59.2954Y100.1972
G01 X59.3027Y100.1878
G01 X59.3106Y100.1789
G01 X59.3124Y100.1753
G01 X59.3149Y100.1721
G01 X59.3196Y100.1612
G01 X59.325Y100.1506
G01 X59.3259Y100.1467
G01 X59.3275Y100.1429
G01 X59.3294Y100.1312
G01 X59.332Y100.1196
G01 X59.3319Y100.1155
G01 X59.3325Y100.1115
G01 X59.3314Y100.0997
G01 X59.331Y100.0878
G01 X59.3299Y100.0839
G01 X59.3295Y100.0799
G01 X59.3255Y100.0687
G01 X59.3222Y100.0572
G01 X59.3202Y100.0537
G01 X59.3188Y100.0499
G01 X59.3121Y100.0401
G01 X59.306Y100.0298
G01 X59.3021Y100.0253
G01 X59.3009Y100.0236
G01 X59.2994Y100.0223
G01 X59.2954Y100.0177
G01 X59.1655Y99.8879
G01 X58.8832Y99.2063
G01 X58.8832Y98.4687
G01 X59.1655Y97.7871
G01 X59.2954Y97.6573
G01 X59.3027Y97.6478
G01 X59.3106Y97.6389
G01 X59.3124Y97.6353
G01 X59.3149Y97.6321
G01 X59.3196Y97.6212
G01 X59.325Y97.6106
G01 X59.3259Y97.6067
G01 X59.3275Y97.6029
G01 X59.3294Y97.5912
G01 X59.332Y97.5796
G01 X59.3319Y97.5755
G01 X59.3325Y97.5715
G01 X59.3314Y97.5597
G01 X59.331Y97.5478
G01 X59.3299Y97.5439
G01 X59.3295Y97.5399
G01 X59.3255Y97.5286
G01 X59.3222Y97.5172
G01 X59.3202Y97.5138
G01 X59.3188Y97.5099
G01 X59.3121Y97.5001
G01 X59.3061Y97.4898
G01 X59.3021Y97.4853
G01 X59.3009Y97.4836
G01 X59.2994Y97.4823
G01 X59.2954Y97.4778
G01 X59.1655Y97.3479
G01 X58.8832Y96.6663
G01 X58.8832Y95.9287
G01 X59.1655Y95.2471
G01 X59.2954Y95.1173
G01 X59.3027Y95.1078
G01 X59.3106Y95.0989
G01 X59.3124Y95.0953
G01 X59.3149Y95.0921
G01 X59.3196Y95.0812
G01 X59.325Y95.0706
G01 X59.3259Y95.0667
G01 X59.3275Y95.0629
G01 X59.3294Y95.0512
G01 X59.332Y95.0396
G01 X59.3319Y95.0355
G01 X59.3325Y95.0315
G01 X59.3314Y95.0197
G01 X59.331Y95.0078
G01 X59.3299Y95.0039
G01 X59.3295Y94.9999
G01 X59.3255Y94.9886
G01 X59.3222Y94.9772
G01 X59.3202Y94.9738
G01 X59.3188Y94.9699
G01 X59.3121Y94.9601
G01 X59.3061Y94.9498
G01 X59.3021Y94.9453
G01 X59.3009Y94.9436
G01 X59.2994Y94.9423
G01 X59.2954Y94.9378
G01 X59.1655Y94.8079
G01 X58.8832Y94.1263
G01 X58.8832Y93.3887
G01 X59.1655Y92.7071
G01 X59.3846Y92.4881
G01 X59.3876Y92.4842
G01 X59.3913Y92.4808
G01 X59.3973Y92.4716
G01 X59.4041Y92.463
G01 X59.406Y92.4584
G01 X59.4088Y92.4542
G01 X59.4123Y92.4439
G01 X59.4167Y92.4338
G01 X59.4175Y92.4289
G01 X59.4191Y92.4242
G01 X59.42Y92.4132
G01 X59.4217Y92.4024
G01 X59.4212Y92.3974
G01 X59.4216Y92.3925
G01 X59.4197Y92.3816
G01 X59.4187Y92.3707
G01 X59.417Y92.366
G01 X59.4162Y92.3611
G01 X59.4117Y92.3511
G01 X59.4079Y92.3408
G01 X59.4052Y92.3367
G01 X59.4031Y92.3321
G01 X59.3963Y92.3236
G01 X59.3901Y92.3145
G01 X59.3864Y92.3112
G01 X59.3833Y92.3073
G01 X59.3745Y92.3007
G01 X59.3662Y92.2934
G01 X59.3618Y92.2911
G01 X59.3579Y92.2882
G01 X59.3434Y92.2811
G01 X59.2977Y92.2621
G01 X58.7404Y91.7048
G01 X58.4387Y90.9766
G01 X58.4387Y90.1884
G01 X58.7418Y89.4568
G01 X58.7446Y89.4538
G01 X58.7475Y89.4485
G01 X58.7512Y89.4437
G01 X58.7552Y89.4346
G01 X58.76Y89.4259
G01 X58.7615Y89.4201
G01 X58.7639Y89.4145
G01 X58.7654Y89.4047
G01 X58.7679Y89.3951
G01 X58.7685Y89.3851
G01 X58.7689Y89.3831
G01 X58.7687Y89.3819
G01 X58.7689Y89.3791
G01 X58.7689Y89.2459
G01 X58.7677Y89.2361
G01 X58.7674Y89.2262
G01 X58.7657Y89.2204
G01 X58.7649Y89.2144
G01 X58.7613Y89.2052
G01 X58.7585Y89.1957
G01 X58.7555Y89.1905
G01 X58.7532Y89.1848
G01 X58.7474Y89.1768
G01 X58.7424Y89.1683
G01 X58.7413Y89.167
G01 X58.4387Y88.4366
G01 X58.4387Y87.6484
G01 X58.7404Y86.9202
G01 X59.2977Y86.3629
G01 X59.73466Y86.18186
G01 X59.7375Y86.185
G01 X59.80768Y86.24861
G01 X59.88376Y86.30503
G01 X59.96501Y86.35373
G01 X60.05063Y86.39423
G01 X60.13982Y86.42614
G01 X60.2317Y86.44915
G01 X60.32539Y86.46305
G01 X60.42Y86.4677
G01 X60.51461Y86.46305
G01 X60.6083Y86.44915
G01 X60.70018Y86.42614
G01 X60.78937Y86.39423
G01 X60.87499Y86.35373
G01 X60.95624Y86.30503
G01 X61.03232Y86.24861
G01 X61.1025Y86.185
G01 X61.10534Y86.18186
G01 X61.5423Y86.3629
G01 X62.0996Y86.9202
G01 X62.4013Y87.6484
G01 X62.4013Y88.4366
G01 X62.2188Y88.8771
G01 X62.2157Y88.8885
G01 X62.2118Y88.8998
G01 X62.2115Y88.9038
G01 X62.2104Y88.9077
G01 X62.2102Y88.9196
G01 X62.2093Y88.9315
G01 X62.21Y88.9355
G01 X62.2099Y88.9395
G01 X62.2127Y88.9511
G01 X62.2147Y88.9628
G01 X62.2164Y88.9665
G01 X62.2173Y88.9705
G01 X62.2229Y88.981
G01 X62.2278Y88.9918
G01 X62.2303Y88.995
G01 X62.2322Y88.9986
G01 X62.2402Y89.0074
G01 X62.2477Y89.0167
G01 X62.2509Y89.0191
G01 X62.2536Y89.0221
G01 X62.2636Y89.0286
G01 X62.2731Y89.0358
G01 X62.2785Y89.0385
G01 X62.2802Y89.0396
G01 X62.2821Y89.0402
G01 X62.2875Y89.0429
G01 X62.6253Y89.1828
G01 X64.6772Y91.2347
G01 X64.9286Y91.8416
G01 X64.9286Y99.0535
G01 X64.9298Y99.0633
G01 X64.9301Y99.0733
G01 X64.9318Y99.0791
G01 X64.9326Y99.0851
G01 X64.9362Y99.0943
G01 X64.939Y99.1038
G01 X64.942Y99.109
G01 X64.9443Y99.1147
G01 X64.9501Y99.1227
G01 X64.9551Y99.1312
G01 X64.9617Y99.1387
G01 X64.9629Y99.1404
G01 X64.9639Y99.1412
G01 X64.9657Y99.1433
G01 X65.5117Y99.6893
G01 X65.5195Y99.6953
G01 X65.5268Y99.7021
G01 X65.5321Y99.705
G01 X65.5368Y99.7087
G01 X65.5459Y99.7127
G01 X65.5546Y99.7175
G01 X65.5605Y99.719
G01 X65.566Y99.7214
G01 X65.5758Y99.7229
G01 X65.5854Y99.7254
G01 X65.5954Y99.726
G01 X65.5974Y99.7264
G01 X65.5987Y99.7262
G01 X65.6015Y99.7264
G01 X66.5287Y99.7264
G01 X66.5336Y99.7258
G01 X66.5386Y99.726
G01 X66.5493Y99.7238
G01 X66.5603Y99.7224
G01 X66.5649Y99.7206
G01 X66.5697Y99.7196
G01 X66.5796Y99.7148
G01 X66.5898Y99.7107
G01 X66.5938Y99.7078
G01 X66.5983Y99.7056
G01 X66.6067Y99.6985
G01 X66.6156Y99.6921
G01 X66.6187Y99.6882
G01 X66.6225Y99.685
G01 X66.6288Y99.676
G01 X66.6358Y99.6676
G01 X66.638Y99.6631
G01 X66.6408Y99.659
G01 X66.6447Y99.6487
G01 X66.6494Y99.6388
G01 X66.6503Y99.6339
G01 X66.6521Y99.6293
G01 X66.6533Y99.6183
G01 X66.6554Y99.6076
G01 X66.6551Y99.6026
G01 X66.6556Y99.5977
G01 X66.6541Y99.5868
G01 X66.6534Y99.5758
G01 X66.6519Y99.5711
G01 X66.6512Y99.5662
G01 X66.646Y99.5509
G01 X66.5032Y99.2063
G01 X66.5032Y98.4687
G01 X66.7855Y97.7871
G01 X66.9154Y97.6573
G01 X66.9227Y97.6478
G01 X66.9306Y97.6389
G01 X66.9324Y97.6353
G01 X66.9349Y97.6321
G01 X66.9396Y97.6212
G01 X66.945Y97.6106
G01 X66.9459Y97.6067
G01 X66.9475Y97.6029
G01 X66.9494Y97.5912
G01 X66.952Y97.5796
G01 X66.9519Y97.5755
G01 X66.9525Y97.5715
G01 X66.9514Y97.5597
G01 X66.951Y97.5478
G01 X66.9499Y97.5439
G01 X66.9495Y97.5399
G01 X66.9455Y97.5286
G01 X66.9422Y97.5172
G01 X66.9402Y97.5138
G01 X66.9388Y97.5099
G01 X66.9321Y97.5001
G01 X66.9261Y97.4898
G01 X66.9221Y97.4853
G01 X66.9209Y97.4836
G01 X66.9194Y97.4823
G01 X66.9154Y97.4778
G01 X66.7855Y97.3479
G01 X66.5032Y96.6663
G01 X66.5032Y95.9287
G01 X66.7855Y95.2471
G01 X67.3071Y94.7255
G01 X67.92032Y94.47152
G01 X67.96238Y94.49673
G01 X68.03673Y94.5319
G01 X68.11418Y94.55961
G01 X68.19398Y94.57959
G01 X68.27534Y94.59166
G01 X68.3575Y94.5957
G01 X68.43966Y94.59166
G01 X68.52102Y94.57959
G01 X68.60082Y94.55961
G01 X68.67827Y94.5319
G01 X68.75262Y94.49673
G01 X68.79468Y94.47152
G01 X69.4079Y94.7255
G01 X69.4186Y94.7363
G01 X69.4264Y94.7423
G01 X69.4336Y94.7491
G01 X69.4389Y94.752
G01 X69.4437Y94.7557
G01 X69.4528Y94.7597
G01 X69.4615Y94.7645
G01 X69.4673Y94.766
G01 X69.4729Y94.7684
G01 X69.4827Y94.7699
G01 X69.4923Y94.7724
G01 X69.5013Y94.773
G01 X69.5023Y94.7732
G01 X69.5029Y94.7731
G01 X69.5043Y94.7734
G01 X69.5055Y94.7732
G01 X69.5083Y94.7734
G01 X70.2482Y94.7734
G01 X70.8083Y95.0055
G01 X73.0791Y97.2763
G01 X73.0869Y97.2823
G01 X73.0942Y97.2891
G01 X73.0995Y97.292
G01 X73.1042Y97.2957
G01 X73.1133Y97.2997
G01 X73.122Y97.3045
G01 X73.1279Y97.306
G01 X73.1334Y97.3084
G01 X73.1432Y97.3099
G01 X73.1528Y97.3124
G01 X73.1628Y97.313
G01 X73.1648Y97.3134
G01 X73.1661Y97.3132
G01 X73.1689Y97.3134
G01 X75.0107Y97.3134
G01 X75.5708Y97.5455
G01 X77.587Y99.5617
G01 X77.7937Y100.0606
G01 X77.7942Y100.0614
G01 X77.7944Y100.0623
G01 X77.802Y100.0752
G01 X77.8095Y100.0882
G01 X77.8101Y100.0889
G01 X77.8106Y100.0897
G01 X77.8212Y100.1018
G01 X77.9746Y100.2552
G01 X78.15564Y100.69216
G01 X78.1525Y100.695
G01 X78.08889Y100.76518
G01 X78.03247Y100.84126
G01 X77.98377Y100.92251
G01 X77.94327Y101.00813
G01 X77.91136Y101.09732
G01 X77.88835Y101.1892
G01 X77.87445Y101.28289
G01 X77.8698Y101.3775
G01 X77.87445Y101.47211
G01 X77.88835Y101.5658
G01 X77.91136Y101.65768
G01 X77.94327Y101.74687
G01 X77.98377Y101.83249
G01 X78.03247Y101.91374
G01 X78.08889Y101.98982
G01 X78.1525Y102.06
G01 X78.15564Y102.06284
G01 X77.9746Y102.4998
G01 X77.4173Y103.0571
G01 X76.6891Y103.3588
G01 X76.6106Y103.3588
G01 X76.5968Y103.3605
G01 X76.5829Y103.3618
G01 X76.581Y103.3625
G01 X76.579Y103.3628
G01 X76.5661Y103.3679
G01 X76.553Y103.3726
G01 X76.5513Y103.3737
G01 X76.5494Y103.3745
G01 X76.5382Y103.3826
G01 X76.5267Y103.3904
G01 X76.5253Y103.392
G01 X76.5237Y103.3931
G01 X76.5148Y103.4039
G01 X76.5056Y103.4143
G01 X76.5047Y103.4161
G01 X76.5034Y103.4176
G01 X76.4975Y103.4302
G01 X76.4912Y103.4426
G01 X76.4907Y103.4446
G01 X76.4899Y103.4464
G01 X76.4873Y103.46
G01 X76.4842Y103.4736
G01 X76.4843Y103.4757
G01 X76.4839Y103.4776
G01 X76.4848Y103.4915
G01 X76.4852Y103.5054
G01 X76.4857Y103.5074
G01 X76.4859Y103.5094
G01 X76.4901Y103.5226
G01 X76.494Y103.536
G01 X76.495Y103.5377
G01 X76.4957Y103.5396
G01 X76.5031Y103.5514
G01 X76.5102Y103.5634
G01 X76.512Y103.5655
G01 X76.5127Y103.5665
G01 X76.5142Y103.5679
G01 X76.5208Y103.5754
G01 X77.8416Y104.8963
G01 X77.8494Y104.9023
G01 X77.8567Y104.9091
G01 X77.862Y104.912
G01 X77.8667Y104.9157
G01 X77.8758Y104.9197
G01 X77.8845Y104.9245
G01 X77.8904Y104.926
G01 X77.8959Y104.9284
G01 X77.9057Y104.9299
G01 X77.9153Y104.9324
G01 X77.9253Y104.933
G01 X77.9273Y104.9334
G01 X77.9286Y104.9332
G01 X77.9314Y104.9334
G01 X78.7746Y104.9334
G01 X78.7844Y104.9322
G01 X78.7943Y104.9319
G01 X78.8001Y104.9302
G01 X78.8061Y104.9294
G01 X78.8153Y104.9258
G01 X78.8248Y104.923
G01 X78.8301Y104.92
G01 X78.8357Y104.9177
G01 X78.8437Y104.9119
G01 X78.8522Y104.9069
G01 X78.8563Y104.9033
G01 X78.8567Y104.9031
G01 X78.8572Y104.9025
G01 X78.8598Y104.9003
G01 X78.8614Y104.8991
G01 X78.8622Y104.8981
G01 X78.8643Y104.8963
G01 X78.9827Y104.7779
G01 X79.7109Y104.4762
G01 X80.4991Y104.4762
G01 X81.2273Y104.7779
G01 X81.7846Y105.3352
G01 X82.0863Y106.0634
G01 X82.0863Y106.8516
G01 X81.9014Y107.2979
G01 X81.9001Y107.3027
G01 X81.898Y107.3072
G01 X81.8959Y107.318
G01 X81.893Y107.3286
G01 X81.8929Y107.3336
G01 X81.892Y107.3385
G01 X81.8927Y107.3494
G01 X81.8925Y107.3604
G01 X81.8937Y107.3652
G01 X81.894Y107.3702
G01 X81.8973Y107.3806
G01 X81.8999Y107.3913
G01 X81.9022Y107.3957
G01 X81.9038Y107.4004
G01 X81.9096Y107.4097
G01 X81.9148Y107.4194
G01 X81.9181Y107.4231
G01 X81.9208Y107.4273
G01 X81.9288Y107.4348
G01 X81.9362Y107.443
G01 X81.9403Y107.4457
G01 X81.9439Y107.4491
G01 X81.9536Y107.4544
G01 X81.9627Y107.4604
G01 X81.9674Y107.4621
G01 X81.9718Y107.4645
G01 X81.9824Y107.4672
G01 X81.9928Y107.4708
G01 X81.9978Y107.4712
G01 X82.0026Y107.4724
G01 X82.0187Y107.4734
G01 X82.2786Y107.4734
G01 X82.2885Y107.4722
G01 X82.2984Y107.4719
G01 X82.3042Y107.4702
G01 X82.3102Y107.4694
G01 X82.3194Y107.4658
G01 X82.3289Y107.463
G01 X82.3341Y107.46
G01 X82.3398Y107.4577
G01 X82.3478Y107.4519
G01 X82.3563Y107.4469
G01 X82.3638Y107.4403
G01 X82.3655Y107.4391
G01 X82.3663Y107.4381
G01 X82.3684Y107.4363
G01 X83.3063Y106.4984
G01 X83.3123Y106.4906
G01 X83.3191Y106.4833
G01 X83.322Y106.478
G01 X83.3257Y106.4733
G01 X83.3297Y106.4642
G01 X83.3345Y106.4555
G01 X83.336Y106.4496
G01 X83.3384Y106.4441
G01 X83.3399Y106.4343
G01 X83.3424Y106.4247
G01 X83.343Y106.4147
G01 X83.3434Y106.4127
G01 X83.3432Y106.4114
G01 X83.3434Y106.4086
G01 X83.3434Y69.9939
G01 X83.3422Y69.984
G01 X83.3419Y69.9741
G01 X83.3402Y69.9683
G01 X83.3394Y69.9623
G01 X83.3358Y69.9531
G01 X83.333Y69.9436
G01 X83.33Y69.9384
G01 X83.3277Y69.9327
G01 X83.3219Y69.9247
G01 X83.3169Y69.9162
G01 X83.3103Y69.9087
G01 X83.3091Y69.907
G01 X83.3081Y69.9062
G01 X83.3063Y69.9041
G01 X80.1459Y66.7437
G01 X80.1381Y66.7377
G01 X80.1308Y66.7309
G01 X80.1255Y66.728
G01 X80.1208Y66.7243
G01 X80.1117Y66.7203
G01 X80.103Y66.7155
G01 X80.0971Y66.714
G01 X80.0916Y66.7116
G01 X80.0818Y66.7101
G01 X80.0722Y66.7076
G01 X80.0622Y66.707
G01 X80.0602Y66.7066
G01 X80.0589Y66.7068
G01 X80.0561Y66.7066
G01 X78.2604Y66.7066
G01 X78.2506Y66.7078
G01 X78.2407Y66.7081
G01 X78.2349Y66.7098
G01 X78.2289Y66.7106
G01 X78.2197Y66.7142
G01 X78.2102Y66.717
G01 X78.2049Y66.72
G01 X78.1993Y66.7223
G01 X78.1913Y66.7281
G01 X78.1828Y66.7331
G01 X78.1752Y66.7397
G01 X78.1736Y66.7409
G01 X78.1728Y66.7419
G01 X78.1707Y66.7437
G01 X78.0523Y66.8621
G01 X77.3241Y67.1638
G01 X76.5359Y67.1638
G01 X75.8077Y66.8621
G01 X75.2504Y66.3048
G01 X74.9487Y65.5766
G01 X74.9487Y64.7884
G01 X75.2518Y64.0568
G01 X75.2546Y64.0538
G01 X75.2575Y64.0485
G01 X75.2612Y64.0437
G01 X75.2652Y64.0346
G01 X75.27Y64.0259
G01 X75.2715Y64.0201
G01 X75.2739Y64.0145
G01 X75.2754Y64.0047
G01 X75.2779Y63.9951
G01 X75.2785Y63.9851
G01 X75.2789Y63.9831
G01 X75.2787Y63.9819
G01 X75.2789Y63.9791
G01 X75.2789Y62.7555
G01 X75.2777Y62.7457
G01 X75.2774Y62.7358
G01 X75.2757Y62.73
G01 X75.2749Y62.724
G01 X75.2713Y62.7148
G01 X75.2685Y62.7053
G01 X75.2655Y62.7001
G01 X75.2632Y62.6944
G01 X75.2574Y62.6864
G01 X75.2524Y62.6779
G01 X75.2458Y62.6703
G01 X75.2446Y62.6687
G01 X75.2436Y62.6679
G01 X75.2418Y62.6658
G01 X74.8217Y62.2458
G01 X74.8217Y60.4992
G01 X75.2418Y60.0792
G01 X75.2478Y60.0714
G01 X75.2546Y60.0642
G01 X75.2575Y60.0589
G01 X75.2612Y60.0541
G01 X75.2652Y60.045
G01 X75.27Y60.0363
G01 X75.2715Y60.0305
G01 X75.2739Y60.0249
G01 X75.2754Y60.0151
G01 X75.2779Y60.0055
G01 X75.2785Y59.9955
G01 X75.2789Y59.9935
G01 X75.2787Y59.9923
G01 X75.2789Y59.9895
G01 X75.2789Y55.5305
G01 X75.2774Y55.5187
G01 X75.2767Y55.5068
G01 X75.2754Y55.503
G01 X75.2749Y55.4989
G01 X75.2706Y55.4879
G01 X75.2669Y55.4766
G01 X75.2647Y55.4731
G01 X75.2632Y55.4694
G01 X75.2563Y55.4598
G01 X75.2499Y55.4497
G01 X75.2469Y55.4469
G01 X75.2446Y55.4436
G01 X75.2354Y55.436
G01 X75.2267Y55.4279
G01 X75.2232Y55.4259
G01 X75.2201Y55.4234
G01 X75.2093Y55.4183
G01 X75.1989Y55.4125
G01 X75.1949Y55.4115
G01 X75.1913Y55.4098
G01 X75.1796Y55.4076
G01 X75.1681Y55.4046
G01 X75.1621Y55.4042
G01 X75.1601Y55.4038
G01 X75.158Y55.404
G01 X75.152Y55.4036
G01 X70.693Y55.4036
G01 X70.6832Y55.4048
G01 X70.6733Y55.4051
G01 X70.6675Y55.4068
G01 X70.6615Y55.4076
G01 X70.6523Y55.4112
G01 X70.6428Y55.414
G01 X70.6376Y55.417
G01 X70.6319Y55.4193
G01 X70.6239Y55.4251
G01 X70.6154Y55.4301
G01 X70.6078Y55.4367
G01 X70.6062Y55.4379
G01 X70.6054Y55.4389
G01 X70.6033Y55.4407
G01 X70.1833Y55.8608
G01 X68.4367Y55.8608
G01 X67.2017Y54.6258
G01 X67.2017Y52.8792
G01 X68.4367Y51.6442
G01 X70.1833Y51.6442
G01 X70.6033Y52.0643
G01 X70.6111Y52.0703
G01 X70.6183Y52.0771
G01 X70.6236Y52.08
G01 X70.6284Y52.0837
G01 X70.6375Y52.0877
G01 X70.6462Y52.0925
G01 X70.652Y52.094
G01 X70.6576Y52.0964
G01 X70.6674Y52.0979
G01 X70.677Y52.1004
G01 X70.687Y52.101
G01 X70.689Y52.1014
G01 X70.6902Y52.1012
G01 X70.693Y52.1014
G01 X75.547Y52.1014
G01 X75.5568Y52.1002
G01 X75.5667Y52.0999
G01 X75.5725Y52.0982
G01 X75.5785Y52.0974
G01 X75.5877Y52.0938
G01 X75.5972Y52.091
G01 X75.6024Y52.088
G01 X75.6081Y52.0857
G01 X75.6161Y52.0799
G01 X75.6246Y52.0749
G01 X75.6322Y52.0683
G01 X75.6338Y52.0671
G01 X75.6346Y52.0661
G01 X75.6367Y52.0643
G01 X76.0567Y51.6442
G01 X77.8033Y51.6442
G01 X78.9993Y52.8402
G01 X79.0102Y52.8487
G01 X79.0209Y52.8576
G01 X79.0228Y52.8585
G01 X79.0244Y52.8597
G01 X79.0372Y52.8652
G01 X79.0497Y52.8711
G01 X79.0517Y52.8715
G01 X79.0536Y52.8723
G01 X79.0674Y52.8745
G01 X79.081Y52.8771
G01 X79.083Y52.877
G01 X79.085Y52.8773
G01 X79.0989Y52.876
G01 X79.1127Y52.8752
G01 X79.1146Y52.8745
G01 X79.1166Y52.8743
G01 X79.1298Y52.8696
G01 X79.1429Y52.8653
G01 X79.1447Y52.8643
G01 X79.1466Y52.8636
G01 X79.1581Y52.8558
G01 X79.1698Y52.8483
G01 X79.1712Y52.8469
G01 X79.1729Y52.8457
G01 X79.1821Y52.8353
G01 X79.1916Y52.8252
G01 X79.1926Y52.8234
G01 X79.1939Y52.8219
G01 X79.2003Y52.8095
G01 X79.207Y52.7973
G01 X79.2075Y52.7954
G01 X79.2084Y52.7936
G01 X79.2114Y52.78
G01 X79.2149Y52.7665
G01 X79.2151Y52.7637
G01 X79.2154Y52.7625
G01 X79.2153Y52.7605
G01 X79.2159Y52.7505
G01 X79.2159Y49.6745
G01 X79.2142Y49.6608
G01 X79.2129Y49.6469
G01 X79.2122Y49.645
G01 X79.2119Y49.643
G01 X79.2068Y49.6301
G01 X79.2021Y49.617
G01 X79.201Y49.6153
G01 X79.2002Y49.6134
G01 X79.1921Y49.6022
G01 X79.1843Y49.5907
G01 X79.1827Y49.5893
G01 X79.1816Y49.5877
G01 X79.1708Y49.5788
G01 X79.1604Y49.5696
G01 X79.1586Y49.5687
G01 X79.1571Y49.5674
G01 X79.1445Y49.5615
G01 X79.1321Y49.5552
G01 X79.1301Y49.5547
G01 X79.1283Y49.5539
G01 X79.1147Y49.5512
G01 X79.1011Y49.5482
G01 X79.099Y49.5483
G01 X79.0971Y49.5479
G01 X79.0832Y49.5487
G01 X79.0693Y49.5492
G01 X79.0673Y49.5497
G01 X79.0653Y49.5498
G01 X79.0521Y49.5541
G01 X79.0387Y49.558
G01 X79.037Y49.559
G01 X79.0351Y49.5597
G01 X79.0233Y49.5671
G01 X79.0113Y49.5742
G01 X79.0092Y49.576
G01 X79.0082Y49.5767
G01 X79.0068Y49.5782
G01 X78.9993Y49.5848
G01 X77.8033Y50.7808
G01 X76.0567Y50.7808
G01 X74.8217Y49.5458
G01 X74.8217Y47.7992
G01 X76.0567Y46.5642
G01 X77.8033Y46.5642
G01 X78.9993Y47.7602
G01 X79.0102Y47.7687
G01 X79.0209Y47.7776
G01 X79.0228Y47.7785
G01 X79.0244Y47.7797
G01 X79.0372Y47.7852
G01 X79.0497Y47.7911
G01 X79.0517Y47.7915
G01 X79.0536Y47.7923
G01 X79.0674Y47.7945
G01 X79.081Y47.7971
G01 X79.083Y47.797
G01 X79.085Y47.7973
G01 X79.0989Y47.796
G01 X79.1127Y47.7952
G01 X79.1146Y47.7945
G01 X79.1166Y47.7943
G01 X79.1298Y47.7896
G01 X79.1429Y47.7853
G01 X79.1447Y47.7843
G01 X79.1466Y47.7836
G01 X79.1581Y47.7758
G01 X79.1698Y47.7683
G01 X79.1712Y47.7669
G01 X79.1729Y47.7657
G01 X79.1821Y47.7553
G01 X79.1916Y47.7452
G01 X79.1926Y47.7434
G01 X79.1939Y47.7419
G01 X79.2003Y47.7295
G01 X79.207Y47.7173
G01 X79.2075Y47.7154
G01 X79.2084Y47.7136
G01 X79.2114Y47.7
G01 X79.2149Y47.6865
G01 X79.2151Y47.6837
G01 X79.2154Y47.6825
G01 X79.2153Y47.6805
G01 X79.2159Y47.6705
G01 X79.2159Y46.1814
G01 X79.2147Y46.1715
G01 X79.2144Y46.1616
G01 X79.2127Y46.1558
G01 X79.2119Y46.1498
G01 X79.2083Y46.1406
G01 X79.2055Y46.1311
G01 X79.2025Y46.1259
G01 X79.2002Y46.1202
G01 X79.1944Y46.1122
G01 X79.1894Y46.1037
G01 X79.1828Y46.0962
G01 X79.1816Y46.0945
G01 X79.1806Y46.0937
G01 X79.1788Y46.0916
G01 X78.3853Y45.2982
G01 X78.3759Y45.2909
G01 X78.367Y45.283
G01 X78.3634Y45.2812
G01 X78.3602Y45.2787
G01 X78.3493Y45.274
G01 X78.3387Y45.2686
G01 X78.3347Y45.2677
G01 X78.331Y45.2661
G01 X78.3192Y45.2642
G01 X78.3077Y45.2616
G01 X78.3036Y45.2617
G01 X78.2996Y45.2611
G01 X78.2878Y45.2622
G01 X78.2759Y45.2626
G01 X78.272Y45.2637
G01 X78.268Y45.2641
G01 X78.2567Y45.2681
G01 X78.2453Y45.2714
G01 X78.2418Y45.2735
G01 X78.238Y45.2748
G01 X78.2282Y45.2815
G01 X78.2179Y45.2876
G01 X78.2134Y45.2915
G01 X78.2117Y45.2927
G01 X78.2104Y45.2942
G01 X78.2058Y45.2982
G01 X77.8033Y45.7008
G01 X76.0567Y45.7008
G01 X74.8217Y44.4658
G01 X74.8217Y42.7192
G01 X76.0567Y41.4842
G01 X77.8033Y41.4842
G01 X78.3503Y42.0313
G01 X78.3581Y42.0373
G01 X78.3653Y42.0441
G01 X78.3706Y42.047
G01 X78.3754Y42.0507
G01 X78.3845Y42.0547
G01 X78.3932Y42.0595
G01 X78.399Y42.061
G01 X78.4046Y42.0634
G01 X78.4144Y42.0649
G01 X78.424Y42.0674
G01 X78.434Y42.068
G01 X78.436Y42.0684
G01 X78.4372Y42.0682
G01 X78.44Y42.0684
G01 X79.1382Y42.0684
G01 X79.6983Y42.3005
G01 X82.032Y44.6342
G01 X82.2641Y45.1943
G01 X82.2641Y61.6411
G01 X82.2653Y61.651
G01 X82.2656Y61.6609
G01 X82.2673Y61.6667
G01 X82.2681Y61.6727
G01 X82.2717Y61.6819
G01 X82.2745Y61.6914
G01 X82.2775Y61.6966
G01 X82.2798Y61.7023
G01 X82.2856Y61.7103
G01 X82.2906Y61.7188
G01 X82.2972Y61.7263
G01 X82.2984Y61.728
G01 X82.2994Y61.7288
G01 X82.3012Y61.7309
G01 X86.0477Y65.4774
G01 X86.0587Y65.4859
G01 X86.0694Y65.4948
G01 X86.0713Y65.4956
G01 X86.0729Y65.4969
G01 X86.0857Y65.5024
G01 X86.0982Y65.5083
G01 X86.1002Y65.5087
G01 X86.1021Y65.5095
G01 X86.1159Y65.5117
G01 X86.1294Y65.5143
G01 X86.1315Y65.5142
G01 X86.1335Y65.5145
G01 X86.1474Y65.5132
G01 X86.1612Y65.5123
G01 X86.1631Y65.5117
G01 X86.1651Y65.5115
G01 X86.1783Y65.5068
G01 X86.1914Y65.5025
G01 X86.1932Y65.5014
G01 X86.1951Y65.5008
G01 X86.2066Y65.4929
G01 X86.2183Y65.4855
G01 X86.2197Y65.484
G01 X86.2214Y65.4829
G01 X86.2306Y65.4725
G01 X86.2401Y65.4623
G01 X86.2411Y65.4606
G01 X86.2424Y65.4591
G01 X86.2487Y65.4467
G01 X86.2555Y65.4345
G01 X86.256Y65.4325
G01 X86.2569Y65.4307
G01 X86.2599Y65.4171
G01 X86.2634Y65.4037
G01 X86.2636Y65.4009
G01 X86.2638Y65.3997
G01 X86.2638Y65.3977
G01 X86.2644Y65.3876
G01 X86.2644Y37.2425
G01 X86.2629Y37.2307
G01 X86.2622Y37.2188
G01 X86.2609Y37.215
G01 X86.2604Y37.2109
G01 X86.2561Y37.1999
G01 X86.2524Y37.1886
G01 X86.2502Y37.1851
G01 X86.2487Y37.1814
G01 X86.2417Y37.1718
G01 X86.2354Y37.1617
G01 X86.2324Y37.1589
G01 X86.2301Y37.1556
G01 X86.2209Y37.148
G01 X86.2122Y37.1399
G01 X86.2087Y37.1379
G01 X86.2056Y37.1354
G01 X86.1948Y37.1303
G01 X86.1844Y37.1245
G01 X86.1804Y37.1235
G01 X86.1768Y37.1218
G01 X86.1651Y37.1196
G01 X86.1536Y37.1166
G01 X86.1475Y37.1162
G01 X86.1455Y37.1158
G01 X86.1435Y37.116
G01 X86.1375Y37.1156
G01 X62.5155Y37.1156
G01 X62.5155Y29.94
G01 X62.51305Y29.89021
G01 X62.50574Y29.84089
G01 X62.49363Y29.79254
G01 X62.47683Y29.7456
G01 X62.45552Y29.70053
G01 X62.42989Y29.65777
G01 X62.40019Y29.61773
G01 X62.36671Y29.58079
G01 X59.50921Y26.72329
G01 X59.47227Y26.68981
G01 X59.43223Y26.66011
G01 X59.38947Y26.63448
G01 X59.3444Y26.61317
G01 X59.29746Y26.59637
G01 X59.24911Y26.58426
G01 X59.19979Y26.57695
G01 X59.15Y26.5745
G01 X54.705Y26.5745
G01 X54.65521Y26.57695
G01 X54.60589Y26.58426
G01 X54.55754Y26.59637
G01 X54.5106Y26.61317
G01 X54.46553Y26.63448
G01 X54.42277Y26.66011
G01 X54.38273Y26.68981
G01 X54.34579Y26.72329
G01 X52.75829Y28.31079
G01 X52.72481Y28.34773
G01 X52.69511Y28.38777
G01 X52.66948Y28.43053
G01 X52.64817Y28.4756
G01 X52.63137Y28.52254
G01 X52.61926Y28.57089
G01 X52.61195Y28.62021
G01 X52.6095Y28.67
G01 X52.6095Y34.51804
G01 X52.58126Y34.53497
G01 X52.50518Y34.59139
G01 X52.435Y34.655
G01 X52.37139Y34.72518
G01 X52.31497Y34.80126
G01 X52.26627Y34.88251
G01 X52.22577Y34.96813
G01 X52.19386Y35.05732
G01 X52.17085Y35.1492
G01 X52.15695Y35.24289
G01 X52.1523Y35.3375
G01 X52.15695Y35.43211
G01 X52.17085Y35.5258
G01 X52.19386Y35.61768
G01 X52.22577Y35.70687
G01 X52.26627Y35.79249
G01 X52.31497Y35.87374
G01 X52.37139Y35.94982
G01 X52.435Y36.02
G01 X52.50518Y36.08361
G01 X52.58126Y36.14003
G01 X52.66251Y36.18873
G01 X52.74813Y36.22923
G01 X52.83732Y36.26114
G01 X52.9292Y36.28415
G01 X53.02289Y36.29805
G01 X53.1175Y36.3027
G01 X53.21211Y36.29805
G01 X53.3058Y36.28415
G01 X53.39768Y36.26114
G01 X53.48687Y36.22923
G01 X53.57249Y36.18873
G01 X53.65374Y36.14003
G01 X53.72982Y36.08361
G01 X53.8Y36.02
G01 X53.86361Y35.94982
G01 X53.92003Y35.87374
G01 X53.96873Y35.79249
G01 X54.00923Y35.70687
G01 X54.04114Y35.61768
G01 X54.06415Y35.5258
G01 X54.07805Y35.43211
G01 X54.0827Y35.3375
G01 X54.07805Y35.24289
G01 X54.06415Y35.1492
G01 X54.04114Y35.05732
G01 X54.00923Y34.96813
G01 X53.96873Y34.88251
G01 X53.92003Y34.80126
G01 X53.86361Y34.72518
G01 X53.8Y34.655
G01 X53.72982Y34.59139
G01 X53.65374Y34.53497
G01 X53.6255Y34.51804
G01 X53.6255Y28.88042
G01 X54.91542Y27.5905
G01 X58.93958Y27.5905
G01 X61.4995Y30.15042
G01 X61.4995Y37.1156
G01 X58.7055Y37.1156
G01 X58.7055Y33.32542
G01 X59.50921Y32.52171
G01 X59.54269Y32.48477
G01 X59.57239Y32.44473
G01 X59.59802Y32.40197
G01 X59.61933Y32.3569
G01 X59.63613Y32.30996
G01 X59.64824Y32.26161
G01 X59.65555Y32.21229
G01 X59.658Y32.1625
G01 X59.658Y31.71196
G01 X59.68624Y31.69503
G01 X59.76232Y31.63861
G01 X59.8325Y31.575
G01 X59.89611Y31.50482
G01 X59.95253Y31.42874
G01 X60.00123Y31.34749
G01 X60.04173Y31.26187
G01 X60.07364Y31.17268
G01 X60.09665Y31.0808
G01 X60.11055Y30.98711
G01 X60.1152Y30.8925
G01 X60.11055Y30.79789
G01 X60.09665Y30.7042
G01 X60.07364Y30.61232
G01 X60.04173Y30.52313
G01 X60.00123Y30.43751
G01 X59.95253Y30.35626
G01 X59.89611Y30.28018
G01 X59.8325Y30.21
G01 X59.76232Y30.14639
G01 X59.68624Y30.08997
G01 X59.60499Y30.04127
G01 X59.51937Y30.00077
G01 X59.43018Y29.96886
G01 X59.3383Y29.94585
G01 X59.24461Y29.93195
G01 X59.15Y29.9273
G01 X59.05539Y29.93195
G01 X58.9617Y29.94585
G01 X58.86982Y29.96886
G01 X58.78063Y30.00077
G01 X58.69501Y30.04127
G01 X58.61376Y30.08997
G01 X58.53768Y30.14639
G01 X58.4675Y30.21
G01 X58.40389Y30.28018
G01 X58.34747Y30.35626
G01 X58.29877Y30.43751
G01 X58.25827Y30.52313
G01 X58.22636Y30.61232
G01 X58.20335Y30.7042
G01 X58.18945Y30.79789
G01 X58.1848Y30.8925
G01 X58.18945Y30.98711
G01 X58.20335Y31.0808
G01 X58.22636Y31.17268
G01 X58.25827Y31.26187
G01 X58.29877Y31.34749
G01 X58.34747Y31.42874
G01 X58.40389Y31.50482
G01 X58.4675Y31.575
G01 X58.53768Y31.63861
G01 X58.61376Y31.69503
G01 X58.642Y31.71196
G01 X58.642Y31.95208
G01 X57.83829Y32.75579
G01 X57.80481Y32.79273
G01 X57.77511Y32.83277
G01 X57.74948Y32.87553
G01 X57.72817Y32.9206
G01 X57.71137Y32.96754
G01 X57.69926Y33.01589
G01 X57.69195Y33.06521
G01 X57.6895Y33.115
G01 X57.6895Y37.13303
G01 X57.6823Y37.1382
G01 X57.6722Y37.1446
G01 X57.6694Y37.1476
G01 X57.6661Y37.1499
G01 X57.6585Y37.1591
G01 X57.6504Y37.1678
G01 X57.6484Y37.1713
G01 X57.6459Y37.1744
G01 X57.6408Y37.1852
G01 X57.635Y37.1956
G01 X57.634Y37.1996
G01 X57.6323Y37.2032
G01 X57.6301Y37.2149
G01 X57.6271Y37.2264
G01 X57.6267Y37.2324
G01 X57.6263Y37.2344
G01 X57.6265Y37.2365
G01 X57.6261Y37.2425
G01 X57.6261Y39.681
G01 X57.6273Y39.6908
G01 X57.6276Y39.7008
G01 X57.6293Y39.7066
G01 X57.6301Y39.7126
G01 X57.6337Y39.7218
G01 X57.6365Y39.7313
G01 X57.6395Y39.7365
G01 X57.6418Y39.7422
G01 X57.6476Y39.7502
G01 X57.6526Y39.7587
G01 X57.6592Y39.7662
G01 X57.6604Y39.7679
G01 X57.6614Y39.7687
G01 X57.6632Y39.7708
G01 X58.1965Y40.3041
G01 X58.2043Y40.3101
G01 X58.2116Y40.3169
G01 X58.2169Y40.3198
G01 X58.2216Y40.3235
G01 X58.2307Y40.3275
G01 X58.2394Y40.3323
G01 X58.2453Y40.3338
G01 X58.2508Y40.3362
G01 X58.2606Y40.3377
G01 X58.2702Y40.3402
G01 X58.2719Y40.3403
G01 X59.0023Y40.6429
G01 X59.0602Y40.7008
G01 X59.0696Y40.7081
G01 X59.0786Y40.716
G01 X59.0822Y40.7178
G01 X59.0854Y40.7203
G01 X59.0963Y40.725
G01 X59.1069Y40.7304
G01 X59.1108Y40.7313
G01 X59.1146Y40.7329
G01 X59.1263Y40.7348
G01 X59.1379Y40.7374
G01 X59.142Y40.7373
G01 X59.146Y40.7379
G01 X59.1578Y40.7368
G01 X59.1697Y40.7364
G01 X59.1736Y40.7353
G01 X59.1776Y40.7349
G01 X59.1888Y40.7309
G01 X59.2003Y40.7276
G01 X59.2038Y40.7255
G01 X59.2076Y40.7242
G01 X59.2174Y40.7175
G01 X59.2277Y40.7114
G01 X59.2322Y40.7075
G01 X59.2339Y40.7063
G01 X59.2352Y40.7048
G01 X59.2397Y40.7008
G01 X59.2977Y40.6429
G01 X60.0259Y40.3412
G01 X60.8141Y40.3412
G01 X61.5423Y40.6429
G01 X62.0996Y41.2002
G01 X62.28064Y41.63716
G01 X62.2775Y41.64
G01 X62.21389Y41.71018
G01 X62.15747Y41.78626
G01 X62.10877Y41.86751
G01 X62.06827Y41.95313
G01 X62.03636Y42.04232
G01 X62.01335Y42.1342
G01 X61.99945Y42.22789
G01 X61.9948Y42.3225
G01 X61.99945Y42.41711
G01 X62.01335Y42.5108
G01 X62.03636Y42.60268
G01 X62.06827Y42.69187
G01 X62.10877Y42.77749
G01 X62.15747Y42.85874
G01 X62.21389Y42.93482
G01 X62.2775Y43.005
G01 X62.28064Y43.00784
G01 X62.0996Y43.4448
G01 X61.9812Y43.5632
G01 X61.9752Y43.571
G01 X61.9684Y43.5782
G01 X61.9655Y43.5835
G01 X61.9618Y43.5883
G01 X61.9578Y43.5974
G01 X61.953Y43.6061
G01 X61.9515Y43.6119
G01 X61.9491Y43.6175
G01 X61.9476Y43.6273
G01 X61.9451Y43.6369
G01 X61.9445Y43.6469
G01 X61.9441Y43.6489
G01 X61.9443Y43.6501
G01 X61.9441Y43.6529
G01 X61.9441Y45.4832
G01 X61.712Y46.0433
G01 X60.7112Y47.0441
G01 X60.7052Y47.0519
G01 X60.6984Y47.0592
G01 X60.6955Y47.0645
G01 X60.6918Y47.0692
G01 X60.6878Y47.0783
G01 X60.683Y47.087
G01 X60.6815Y47.0929
G01 X60.6791Y47.0984
G01 X60.6776Y47.1082
G01 X60.6751Y47.1178
G01 X60.6745Y47.1278
G01 X60.6741Y47.1298
G01 X60.6743Y47.1311
G01 X60.6741Y47.1339
G01 X60.6741Y47.8392
G01 X60.6753Y47.849
G01 X60.6756Y47.8589
G01 X60.6773Y47.8647
G01 X60.6781Y47.8707
G01 X60.6817Y47.8799
G01 X60.6845Y47.8894
G01 X60.6875Y47.8947
G01 X60.6898Y47.9003
G01 X60.6956Y47.9083
G01 X60.7006Y47.9168
G01 X60.7072Y47.9243
G01 X60.7084Y47.926
G01 X60.7094Y47.9268
G01 X60.7113Y47.9289
G01 X60.722Y47.9396
G01 X60.97598Y48.55282
G01 X60.95077Y48.59488
G01 X60.9156Y48.66923
G01 X60.88789Y48.74668
G01 X60.86791Y48.82648
G01 X60.85584Y48.90784
G01 X60.8518Y48.99
G01 X60.85584Y49.07216
G01 X60.86791Y49.15352
G01 X60.88789Y49.23332
G01 X60.9156Y49.31077
G01 X60.95077Y49.38512
G01 X60.97598Y49.42718
G01 X60.722Y50.0404
G01 X60.2004Y50.562
G01 X59.5188Y50.8443
G01 X58.7812Y50.8443
G01 X58.2107Y50.608
G01 X58.2079Y50.6072
G01 X58.2052Y50.6059
G01 X58.1925Y50.603
G01 X58.18Y50.5996
G01 X58.1771Y50.5995
G01 X58.1742Y50.5989
G01 X58.1612Y50.5993
G01 X58.1482Y50.5991
G01 X58.1454Y50.5998
G01 X58.1424Y50.5999
G01 X58.1299Y50.6035
G01 X58.1173Y50.6065
G01 X58.1147Y50.6079
G01 X58.1119Y50.6087
G01 X58.1007Y50.6153
G01 X58.0892Y50.6214
G01 X58.087Y50.6233
G01 X58.0845Y50.6249
G01 X58.0724Y50.6355
G01 X56.9012Y51.8066
G01 X56.8952Y51.8144
G01 X56.8884Y51.8217
G01 X56.8855Y51.827
G01 X56.8818Y51.8317
G01 X56.8778Y51.8408
G01 X56.873Y51.8495
G01 X56.8715Y51.8554
G01 X56.8691Y51.8609
G01 X56.8676Y51.8707
G01 X56.8651Y51.8803
G01 X56.8645Y51.8903
G01 X56.8641Y51.8923
G01 X56.8643Y51.8936
G01 X56.8641Y51.8964
G01 X56.8641Y54.112
G01 X56.8656Y54.1244
G01 X56.8666Y54.137
G01 X56.8676Y54.1402
G01 X56.8681Y54.1435
G01 X56.8727Y54.1552
G01 X56.8767Y54.1671
G01 X56.8785Y54.17
G01 X56.8798Y54.1731
G01 X56.8871Y54.1833
G01 X56.894Y54.1938
G01 X56.8965Y54.1961
G01 X56.8984Y54.1988
G01 X56.9081Y54.2068
G01 X56.9174Y54.2154
G01 X56.9203Y54.217
G01 X56.9229Y54.2191
G01 X56.9343Y54.2245
G01 X56.9454Y54.2304
G01 X56.9487Y54.2312
G01 X56.9517Y54.2327
G01 X56.964Y54.235
G01 X56.9763Y54.238
G01 X56.9796Y54.238
G01 X56.9829Y54.2386
G01 X56.9955Y54.2379
G01 X57.0081Y54.2377
G01 X57.0129Y54.2368
G01 X57.0147Y54.2367
G01 X57.0167Y54.236
G01 X57.0238Y54.2346
G01 X57.5488Y54.0939
G01 X58.2112Y54.0939
G01 X58.8512Y54.2654
G01 X59.023Y54.3646
G01 X59.0353Y54.3698
G01 X59.0472Y54.3754
G01 X59.0499Y54.3759
G01 X59.0524Y54.3769
G01 X59.0655Y54.3789
G01 X59.0785Y54.3814
G01 X59.0811Y54.3812
G01 X59.0838Y54.3816
G01 X59.097Y54.3802
G01 X59.1102Y54.3794
G01 X59.1128Y54.3786
G01 X59.1154Y54.3783
G01 X59.1279Y54.3737
G01 X59.1404Y54.3696
G01 X59.1427Y54.3681
G01 X59.1453Y54.3672
G01 X59.1561Y54.3597
G01 X59.1673Y54.3526
G01 X59.1692Y54.3506
G01 X59.1714Y54.3491
G01 X59.18Y54.3391
G01 X59.1891Y54.3294
G01 X59.1904Y54.3271
G01 X59.1922Y54.325
G01 X59.1981Y54.3131
G01 X59.2045Y54.3016
G01 X59.2051Y54.299
G01 X59.2063Y54.2965
G01 X59.2091Y54.2836
G01 X59.2124Y54.2708
G01 X59.2126Y54.267
G01 X59.213Y54.2654
G01 X59.2129Y54.2632
G01 X59.2134Y54.2547
G01 X59.2134Y53.4493
G01 X59.4455Y52.8892
G01 X63.9388Y48.3959
G01 X63.9448Y48.3881
G01 X63.9516Y48.3808
G01 X63.9545Y48.3755
G01 X63.9582Y48.3708
G01 X63.9622Y48.3617
G01 X63.967Y48.353
G01 X63.9685Y48.3471
G01 X63.9709Y48.3416
G01 X63.9724Y48.3318
G01 X63.9749Y48.3222
G01 X63.9755Y48.3122
G01 X63.9759Y48.3102
G01 X63.9757Y48.3089
G01 X63.9759Y48.3061
G01 X63.9759Y44.5593
G01 X64.208Y43.9992
G01 X65.9067Y42.3005
G01 X66.4668Y42.0684
G01 X67.8Y42.0684
G01 X67.8098Y42.0672
G01 X67.8197Y42.0669
G01 X67.8255Y42.0652
G01 X67.8315Y42.0644
G01 X67.8407Y42.0608
G01 X67.8502Y42.058
G01 X67.8554Y42.055
G01 X67.8611Y42.0527
G01 X67.8691Y42.0469
G01 X67.8776Y42.0419
G01 X67.8852Y42.0353
G01 X67.8868Y42.0341
G01 X67.8876Y42.0331
G01 X67.8897Y42.0313
G01 X68.4367Y41.4842
G01 X70.1833Y41.4842
G01 X71.4183Y42.7192
G01 X71.4183Y44.4658
G01 X70.1833Y45.7008
G01 X68.4367Y45.7008
G01 X67.8897Y45.1537
G01 X67.8819Y45.1477
G01 X67.8747Y45.1409
G01 X67.8694Y45.138
G01 X67.8646Y45.1343
G01 X67.8555Y45.1303
G01 X67.8468Y45.1255
G01 X67.841Y45.124
G01 X67.8354Y45.1216
G01 X67.8256Y45.1201
G01 X67.816Y45.1176
G01 X67.806Y45.117
G01 X67.804Y45.1166
G01 X67.8028Y45.1168
G01 X67.8Y45.1166
G01 X67.4539Y45.1166
G01 X67.444Y45.1178
G01 X67.4341Y45.1181
G01 X67.4283Y45.1198
G01 X67.4223Y45.1206
G01 X67.4131Y45.1242
G01 X67.4036Y45.127
G01 X67.3984Y45.13
G01 X67.3927Y45.1323
G01 X67.3847Y45.1381
G01 X67.3762Y45.1431
G01 X67.3687Y45.1497
G01 X67.367Y45.1509
G01 X67.3662Y45.1519
G01 X67.3641Y45.1537
G01 X67.0612Y45.4566
G01 X67.0552Y45.4644
G01 X67.0484Y45.4717
G01 X67.0455Y45.477
G01 X67.0418Y45.4817
G01 X67.0378Y45.4908
G01 X67.033Y45.4995
G01 X67.0315Y45.5054
G01 X67.0291Y45.5109
G01 X67.0276Y45.5207
G01 X67.0251Y45.5303
G01 X67.0245Y45.5403
G01 X67.0241Y45.5423
G01 X67.0243Y45.5436
G01 X67.0241Y45.5464
G01 X67.0241Y47.6705
G01 X67.0258Y47.6842
G01 X67.0271Y47.6981
G01 X67.0278Y47.7
G01 X67.0281Y47.702
G01 X67.0332Y47.7149
G01 X67.0379Y47.728
G01 X67.039Y47.7297
G01 X67.0398Y47.7316
G01 X67.0479Y47.7428
G01 X67.0557Y47.7543
G01 X67.0573Y47.7557
G01 X67.0584Y47.7573
G01 X67.0692Y47.7662
G01 X67.0796Y47.7754
G01 X67.0814Y47.7763
G01 X67.0829Y47.7776
G01 X67.0955Y47.7835
G01 X67.1079Y47.7898
G01 X67.1099Y47.7903
G01 X67.1117Y47.7911
G01 X67.1253Y47.7938
G01 X67.1389Y47.7968
G01 X67.141Y47.7967
G01 X67.1429Y47.7971
G01 X67.1568Y47.7963
G01 X67.1707Y47.7958
G01 X67.1727Y47.7953
G01 X67.1747Y47.7952
G01 X67.1879Y47.7909
G01 X67.2013Y47.787
G01 X67.203Y47.786
G01 X67.2049Y47.7853
G01 X67.2167Y47.7779
G01 X67.2287Y47.7708
G01 X67.2308Y47.769
G01 X67.2318Y47.7683
G01 X67.2332Y47.7668
G01 X67.2407Y47.7602
G01 X68.4367Y46.5642
G01 X70.1833Y46.5642
G01 X71.4183Y47.7992
G01 X71.4183Y49.5458
G01 X70.1833Y50.7808
G01 X68.4367Y50.7808
G01 X67.2017Y49.5458
G01 X67.2017Y49.5024
G01 X67.2009Y49.4954
G01 X67.201Y49.4885
G01 X67.1989Y49.4797
G01 X67.1977Y49.4708
G01 X67.1952Y49.4643
G01 X67.1935Y49.4575
G01 X67.1893Y49.4496
G01 X67.186Y49.4412
G01 X67.1819Y49.4356
G01 X67.1787Y49.4294
G01 X67.1726Y49.4228
G01 X67.1674Y49.4155
G01 X67.162Y49.411
G01 X67.1573Y49.4059
G01 X67.1498Y49.4009
G01 X67.1429Y49.3952
G01 X67.1365Y49.3922
G01 X67.1307Y49.3884
G01 X67.1222Y49.3855
G01 X67.1141Y49.3817
G01 X67.1072Y49.3804
G01 X67.1006Y49.3781
G01 X67.0917Y49.3774
G01 X67.0829Y49.3757
G01 X67.0759Y49.3761
G01 X67.0689Y49.3756
G01 X67.0601Y49.3771
G01 X67.0511Y49.3777
G01 X67.0445Y49.3798
G01 X67.0376Y49.381
G01 X67.0294Y49.3847
G01 X67.0209Y49.3875
G01 X67.015Y49.3912
G01 X67.015Y49.3912
M5
G01 X4.2107Y12.3521
M3
G01 X4.1988Y12.3528
G01 X4.195Y12.3541
G01 X4.1909Y12.3546
G01 X4.1799Y12.3589
G01 X4.1686Y12.3626
G01 X4.1651Y12.3648
G01 X4.1614Y12.3663
G01 X4.1518Y12.3732
G01 X4.1417Y12.3796
G01 X4.1389Y12.3826
G01 X4.1356Y12.3849
G01 X4.128Y12.3941
G01 X4.1199Y12.4028
G01 X4.1179Y12.4063
G01 X4.1154Y12.4094
G01 X4.1103Y12.4202
G01 X4.1045Y12.4306
G01 X4.1035Y12.4346
G01 X4.1018Y12.4382
G01 X4.0996Y12.4499
G01 X4.0966Y12.4614
G01 X4.0962Y12.4674
G01 X4.0958Y12.4694
G01 X4.096Y12.4715
G01 X4.0956Y12.4775
G01 X4.0956Y132.175
G01 X4.0968Y132.1848
G01 X4.0971Y132.1947
G01 X4.0988Y132.2005
G01 X4.0996Y132.2066
G01 X4.1032Y132.2158
G01 X4.106Y132.2253
G01 X4.109Y132.2305
G01 X4.1113Y132.2361
G01 X4.1171Y132.2441
G01 X4.1221Y132.2527
G01 X4.1287Y132.2602
G01 X4.1299Y132.2619
G01 X4.1309Y132.2626
G01 X4.1327Y132.2647
G01 X15.2452Y143.3773
G01 X15.2531Y143.3833
G01 X15.2603Y143.3901
G01 X15.2656Y143.393
G01 X15.2704Y143.3967
G01 X15.2795Y143.4007
G01 X15.2881Y143.4055
G01 X15.294Y143.407
G01 X15.2996Y143.4094
G01 X15.3094Y143.4109
G01 X15.3189Y143.4134
G01 X15.3289Y143.414
G01 X15.331Y143.4144
G01 X15.3322Y143.4142
G01 X15.335Y143.4144
G01 X59.4675Y143.4144
G01 X59.4793Y143.4129
G01 X59.4912Y143.4122
G01 X59.495Y143.4109
G01 X59.4991Y143.4104
G01 X59.5101Y143.4061
G01 X59.5214Y143.4024
G01 X59.5249Y143.4002
G01 X59.5286Y143.3987
G01 X59.5382Y143.3918
G01 X59.5483Y143.3854
G01 X59.5511Y143.3824
G01 X59.5544Y143.3801
G01 X59.5619Y143.3709
G01 X59.5701Y143.3622
G01 X59.5721Y143.3587
G01 X59.5746Y143.3556
G01 X59.5797Y143.3448
G01 X59.5855Y143.3344
G01 X59.5865Y143.3304
G01 X59.5882Y143.3268
G01 X59.5904Y143.3151
G01 X59.5934Y143.3036
G01 X59.5938Y143.2976
G01 X59.5942Y143.2956
G01 X59.594Y143.2935
G01 X59.5944Y143.2875
G01 X69.945Y143.2875
G01 X70.00724Y143.28444
G01 X70.06888Y143.2753
G01 X70.12933Y143.26016
G01 X70.188Y143.23916
G01 X70.24434Y143.21252
G01 X70.29779Y143.18048
G01 X70.34784Y143.14336
G01 X70.39401Y143.10151
G01 X72.61651Y140.87901
G01 X72.65836Y140.83284
G01 X72.69548Y140.78279
G01 X72.72752Y140.72934
G01 X72.75416Y140.673
G01 X72.77516Y140.61433
G01 X72.7903Y140.55388
G01 X72.79944Y140.49224
G01 X72.8025Y140.43
G01 X72.8025Y135.93053
G01 X75.79151Y132.94151
G01 X75.83336Y132.89534
G01 X75.87048Y132.84529
G01 X75.90252Y132.79184
G01 X75.92916Y132.7355
G01 X75.95016Y132.67683
G01 X75.9653Y132.61638
G01 X75.97444Y132.55474
G01 X75.9775Y132.4925
G01 X75.9775Y109.6325
G01 X79.37945Y109.6325
G01 X79.4225Y109.68
G01 X79.49268Y109.74361
G01 X79.56876Y109.80003
G01 X79.65001Y109.84873
G01 X79.73563Y109.88923
G01 X79.82482Y109.92114
G01 X79.9167Y109.94415
G01 X80.01039Y109.95805
G01 X80.105Y109.9627
G01 X80.19961Y109.95805
G01 X80.2933Y109.94415
G01 X80.38518Y109.92114
G01 X80.47437Y109.88923
G01 X80.55999Y109.84873
G01 X80.64124Y109.80003
G01 X80.71732Y109.74361
G01 X80.7875Y109.68
G01 X80.85111Y109.60982
G01 X80.90753Y109.53374
G01 X80.92446Y109.5055
G01 X82.9625Y109.5055
G01 X83.01229Y109.50305
G01 X83.06161Y109.49574
G01 X83.10996Y109.48363
G01 X83.1569Y109.46683
G01 X83.20197Y109.44552
G01 X83.24473Y109.41989
G01 X83.28477Y109.39019
G01 X83.32171Y109.35671
G01 X85.22671Y107.45171
G01 X85.26019Y107.41477
G01 X85.28989Y107.37473
G01 X85.31552Y107.33197
G01 X85.33683Y107.2869
G01 X85.35363Y107.23996
G01 X85.36574Y107.19161
G01 X85.37305Y107.14229
G01 X85.3755Y107.0925
G01 X85.3755Y69.31
G01 X85.37305Y69.26021
G01 X85.36574Y69.21089
G01 X85.35363Y69.16254
G01 X85.33683Y69.1156
G01 X85.31552Y69.07053
G01 X85.28989Y69.02777
G01 X85.26019Y68.98773
G01 X85.22671Y68.95079
G01 X81.09921Y64.82329
G01 X81.06227Y64.78981
G01 X81.02223Y64.76011
G01 X80.97947Y64.73448
G01 X80.9344Y64.71317
G01 X80.88746Y64.69637
G01 X80.83911Y64.68426
G01 X80.78979Y64.67695
G01 X80.74Y64.6745
G01 X77.74946Y64.6745
G01 X77.73253Y64.64626
G01 X77.67611Y64.57018
G01 X77.6125Y64.5
G01 X77.565Y64.45695
G01 X77.565Y62.2821
G01 X78.0222Y61.8249
G01 X78.0222Y60.9201
G01 X77.565Y60.4629
G01 X77.565Y54.6621
G01 X78.0222Y54.2049
G01 X78.0222Y53.3001
G01 X77.3824Y52.6603
G01 X76.4776Y52.6603
G01 X76.0204Y53.1175
G01 X70.2196Y53.1175
G01 X69.7624Y52.6603
G01 X68.8576Y52.6603
G01 X68.2178Y53.3001
G01 X68.2178Y54.2049
G01 X68.8576Y54.8447
G01 X69.7624Y54.8447
G01 X70.2196Y54.3875
G01 X76.0204Y54.3875
G01 X76.295Y54.6621
G01 X76.295Y60.4629
G01 X75.8378Y60.9201
G01 X75.8378Y61.8249
G01 X76.295Y62.2821
G01 X76.295Y64.45695
G01 X76.2475Y64.5
G01 X76.18389Y64.57018
G01 X76.12747Y64.64626
G01 X76.07877Y64.72751
G01 X76.03827Y64.81313
G01 X76.00636Y64.90232
G01 X75.98335Y64.9942
G01 X75.96945Y65.08789
G01 X75.9648Y65.1825
G01 X75.96945Y65.27711
G01 X75.98335Y65.3708
G01 X76.00636Y65.46268
G01 X76.03827Y65.55187
G01 X76.07877Y65.63749
G01 X76.12747Y65.71874
G01 X76.18389Y65.79482
G01 X76.2475Y65.865
G01 X76.31768Y65.92861
G01 X76.39376Y65.98503
G01 X76.47501Y66.03373
G01 X76.56063Y66.07423
G01 X76.64982Y66.10614
G01 X76.7417Y66.12915
G01 X76.83539Y66.14305
G01 X76.93Y66.1477
G01 X77.02461Y66.14305
G01 X77.1183Y66.12915
G01 X77.21018Y66.10614
G01 X77.29937Y66.07423
G01 X77.38499Y66.03373
G01 X77.46624Y65.98503
G01 X77.54232Y65.92861
G01 X77.6125Y65.865
G01 X77.67611Y65.79482
G01 X77.73253Y65.71874
G01 X77.74946Y65.6905
G01 X80.52958Y65.6905
G01 X84.3595Y69.52042
G01 X84.3595Y106.88208
G01 X82.75208Y108.4895
G01 X80.92446Y108.4895
G01 X80.90753Y108.46126
G01 X80.85111Y108.38518
G01 X80.7875Y108.315
G01 X80.71732Y108.25139
G01 X80.64124Y108.19497
G01 X80.55999Y108.14627
G01 X80.47437Y108.10577
G01 X80.38518Y108.07386
G01 X80.2933Y108.05085
G01 X80.19961Y108.03695
G01 X80.105Y108.0323
G01 X80.01039Y108.03695
G01 X79.9167Y108.05085
G01 X79.82482Y108.07386
G01 X79.73563Y108.10577
G01 X79.65001Y108.14627
G01 X79.56876Y108.19497
G01 X79.49268Y108.25139
G01 X79.4225Y108.315
G01 X79.37945Y108.3625
G01 X75.9775Y108.3625
G01 X75.9775Y107.7275
G01 X75.97444Y107.66526
G01 X75.9653Y107.60362
G01 X75.95016Y107.54317
G01 X75.92916Y107.4845
G01 X75.90252Y107.42816
G01 X75.87048Y107.37471
G01 X75.83336Y107.32466
G01 X75.79151Y107.27849
G01 X74.52151Y106.00849
G01 X74.47534Y105.96664
G01 X74.42529Y105.92952
G01 X74.37184Y105.89748
G01 X74.3155Y105.87084
G01 X74.25683Y105.84984
G01 X74.19638Y105.8347
G01 X74.13474Y105.82556
G01 X74.0725Y105.8225
G01 X73.21055Y105.8225
G01 X73.1675Y105.775
G01 X73.09732Y105.71139
G01 X73.02124Y105.65497
G01 X72.93999Y105.60627
G01 X72.85437Y105.56577
G01 X72.76518Y105.53386
G01 X72.6733Y105.51085
G01 X72.57961Y105.49695
G01 X72.485Y105.4923
G01 X72.39039Y105.49695
G01 X72.2967Y105.51085
G01 X72.20482Y105.53386
G01 X72.11563Y105.56577
G01 X72.03001Y105.60627
G01 X71.94876Y105.65497
G01 X71.87268Y105.71139
G01 X71.8025Y105.775
G01 X71.73889Y105.84518
G01 X71.68247Y105.92126
G01 X71.63377Y106.00251
G01 X71.59327Y106.08813
G01 X71.56136Y106.17732
G01 X71.53835Y106.2692
G01 X71.52445Y106.36289
G01 X71.5198Y106.4575
G01 X71.52445Y106.55211
G01 X71.53835Y106.6458
G01 X71.56136Y106.73768
G01 X71.59327Y106.82687
G01 X71.63377Y106.91249
G01 X71.68247Y106.99374
G01 X71.73889Y107.06982
G01 X71.8025Y107.14
G01 X71.87268Y107.20361
G01 X71.94876Y107.26003
G01 X72.03001Y107.30873
G01 X72.11563Y107.34923
G01 X72.20482Y107.38114
G01 X72.2967Y107.40415
G01 X72.39039Y107.41805
G01 X72.485Y107.4227
G01 X72.57961Y107.41805
G01 X72.6733Y107.40415
G01 X72.76518Y107.38114
G01 X72.85437Y107.34923
G01 X72.93999Y107.30873
G01 X73.02124Y107.26003
G01 X73.09732Y107.20361
G01 X73.1675Y107.14
G01 X73.21055Y107.0925
G01 X73.80947Y107.0925
G01 X74.7075Y107.99053
G01 X74.7075Y108.9975
G01 X74.7075Y132.22947
G01 X71.71849Y135.21849
G01 X71.67664Y135.26466
G01 X71.63952Y135.31471
G01 X71.60748Y135.36816
G01 X71.58084Y135.4245
G01 X71.55984Y135.48317
G01 X71.5447Y135.54362
G01 X71.53556Y135.60526
G01 X71.5325Y135.6675
G01 X71.5325Y140.16697
G01 X69.68197Y142.0175
G01 X59.5944Y142.0175
G01 X59.5944Y126.7775
G01 X59.5932Y126.7677
G01 X59.5929Y126.7578
G01 X59.5912Y126.752
G01 X59.5904Y126.7459
G01 X59.5868Y126.7367
G01 X59.584Y126.7272
G01 X59.581Y126.722
G01 X59.5787Y126.7164
G01 X59.5729Y126.7084
G01 X59.5679Y126.6998
G01 X59.5613Y126.6923
G01 X59.5601Y126.6906
G01 X59.5591Y126.6899
G01 X59.5572Y126.6877
G01 X57.3347Y124.4652
G01 X57.3269Y124.4592
G01 X57.3197Y124.4524
G01 X57.3144Y124.4495
G01 X57.3096Y124.4458
G01 X57.3005Y124.4418
G01 X57.2919Y124.437
G01 X57.286Y124.4355
G01 X57.2804Y124.4331
G01 X57.2706Y124.4316
G01 X57.2611Y124.4291
G01 X57.2511Y124.4285
G01 X57.249Y124.4281
G01 X57.2478Y124.4283
G01 X57.245Y124.4281
G01 X48.6725Y124.4281
G01 X48.6627Y124.4293
G01 X48.6528Y124.4296
G01 X48.647Y124.4313
G01 X48.6409Y124.4321
G01 X48.6317Y124.4357
G01 X48.6222Y124.4385
G01 X48.617Y124.4415
G01 X48.6114Y124.4438
G01 X48.6034Y124.4496
G01 X48.5948Y124.4546
G01 X48.5873Y124.4612
G01 X48.5856Y124.4624
G01 X48.5849Y124.4634
G01 X48.5827Y124.4652
G01 X44.4552Y128.5927
G01 X44.4492Y128.6006
G01 X44.4424Y128.6078
G01 X44.4395Y128.6131
G01 X44.4358Y128.6179
G01 X44.4318Y128.627
G01 X44.427Y128.6356
G01 X44.4255Y128.6415
G01 X44.4231Y128.6471
G01 X44.4216Y128.6569
G01 X44.4191Y128.6664
G01 X44.4185Y128.6764
G01 X44.4181Y128.6785
G01 X44.4183Y128.6797
G01 X44.4181Y128.6825
G01 X44.4181Y131.8049
G01 X42.5874Y133.6356
G01 X22.0551Y133.6356
G01 X10.6994Y122.2799
G01 X10.6994Y93.8101
G01 X15.3876Y89.1219
G01 X17.57741Y89.1219
G01 X17.62825Y89.12944
G01 X17.7353Y89.1347
G01 X19.9197Y89.1347
G01 X20.02675Y89.12944
G01 X20.13278Y89.11371
G01 X20.23675Y89.08767
G01 X20.33767Y89.05156
G01 X20.43456Y89.00573
G01 X20.52649Y88.95063
G01 X20.61258Y88.88678
G01 X20.692Y88.8148
G01 X20.76398Y88.73538
G01 X20.82783Y88.64929
G01 X20.88293Y88.55736
G01 X20.92876Y88.46047
G01 X20.96487Y88.35955
G01 X20.99091Y88.25558
G01 X21.00664Y88.14955
G01 X21.0119Y88.0425
G01 X21.00664Y87.93545
G01 X20.99091Y87.82942
G01 X20.96487Y87.72545
G01 X20.92876Y87.62453
G01 X20.88293Y87.52764
G01 X20.82783Y87.43571
G01 X20.76398Y87.34962
G01 X20.692Y87.2702
G01 X20.61258Y87.19822
G01 X20.52649Y87.13437
G01 X20.43456Y87.07927
G01 X20.33767Y87.03344
G01 X20.23675Y86.99733
G01 X20.13278Y86.97129
G01 X20.02675Y86.95556
G01 X19.9197Y86.9503
G01 X17.7353Y86.9503
G01 X17.62825Y86.95556
G01 X17.57741Y86.9631
G01 X16.9751Y86.9631
G01 X15.7794Y85.7674
G01 X15.7794Y74.5169
G01 X17.57741Y74.5169
G01 X17.62825Y74.52444
G01 X17.7353Y74.5297
G01 X19.9197Y74.5297
G01 X20.02675Y74.52444
G01 X20.07759Y74.5169
G01 X20.0975Y74.5169
G01 X20.1093Y74.5154
G01 X20.1212Y74.5147
G01 X20.125Y74.5134
G01 X20.1291Y74.5129
G01 X20.1401Y74.5086
G01 X20.1514Y74.5049
G01 X20.15365Y74.50349
G01 X20.23675Y74.48267
G01 X20.33767Y74.44656
G01 X20.43456Y74.40073
G01 X20.52649Y74.34563
G01 X20.61258Y74.28178
G01 X20.692Y74.2098
G01 X20.76398Y74.13038
G01 X20.82783Y74.04429
G01 X20.88293Y73.95236
G01 X20.92876Y73.85547
G01 X20.96487Y73.75455
G01 X20.99091Y73.65058
G01 X21.00664Y73.54455
G01 X21.0119Y73.4375
G01 X21.00664Y73.33045
G01 X20.99091Y73.22442
G01 X20.96487Y73.12045
G01 X20.92876Y73.01953
G01 X20.88293Y72.92264
G01 X20.82783Y72.83071
G01 X20.76398Y72.74462
G01 X20.692Y72.6652
G01 X20.61258Y72.59322
G01 X20.52649Y72.52937
G01 X20.43456Y72.47427
G01 X20.33767Y72.42844
G01 X20.23675Y72.39233
G01 X20.15155Y72.37099
G01 X20.1444Y72.367
G01 X20.1404Y72.366
G01 X20.1368Y72.3643
G01 X20.1251Y72.3621
G01 X20.1136Y72.3591
G01 X20.1075Y72.3587
G01 X20.1055Y72.3583
G01 X20.1035Y72.3585
G01 X20.0975Y72.3581
G01 X20.07759Y72.3581
G01 X20.02675Y72.35056
G01 X19.9197Y72.3453
G01 X17.7353Y72.3453
G01 X17.62825Y72.35056
G01 X17.57741Y72.3581
G01 X16.9751Y72.3581
G01 X15.7794Y71.1624
G01 X15.7794Y60.7375
G01 X15.7779Y60.7257
G01 X15.7772Y60.7138
G01 X15.7759Y60.71
G01 X15.7754Y60.7059
G01 X15.7711Y60.6949
G01 X15.7674Y60.6836
G01 X15.7652Y60.6801
G01 X15.7637Y60.6764
G01 X15.7567Y60.6668
G01 X15.7504Y60.6567
G01 X15.7474Y60.6539
G01 X15.7451Y60.6506
G01 X15.7359Y60.643
G01 X15.7272Y60.6349
G01 X15.7237Y60.6329
G01 X15.7206Y60.6304
G01 X15.7098Y60.6253
G01 X15.6994Y60.6195
G01 X15.6954Y60.6185
G01 X15.6918Y60.6168
G01 X15.6801Y60.6146
G01 X15.6686Y60.6116
G01 X15.6625Y60.6112
G01 X15.6605Y60.6108
G01 X15.6585Y60.611
G01 X15.6525Y60.6106
G01 X13.1651Y60.6106
G01 X10.6994Y58.1449
G01 X10.6994Y33.4851
G01 X15.0701Y29.1144
G01 X17.57741Y29.1144
G01 X17.62825Y29.12194
G01 X17.7353Y29.1272
G01 X19.9197Y29.1272
G01 X20.02675Y29.12194
G01 X20.13278Y29.10621
G01 X20.23675Y29.08017
G01 X20.33767Y29.04406
G01 X20.43456Y28.99823
G01 X20.52649Y28.94313
G01 X20.61258Y28.87928
G01 X20.692Y28.8073
G01 X20.76398Y28.72788
G01 X20.82783Y28.64179
G01 X20.88293Y28.54986
G01 X20.92876Y28.45297
G01 X20.96487Y28.35205
G01 X20.99091Y28.24808
G01 X21.00664Y28.14205
G01 X21.0119Y28.035
G01 X21.00664Y27.92795
G01 X20.99091Y27.82192
G01 X20.96487Y27.71795
G01 X20.92876Y27.61703
G01 X20.88293Y27.52014
G01 X20.82783Y27.42821
G01 X20.76398Y27.34212
G01 X20.692Y27.2627
G01 X20.61258Y27.19072
G01 X20.52649Y27.12687
G01 X20.43456Y27.07177
G01 X20.33767Y27.02594
G01 X20.23675Y26.98983
G01 X20.13278Y26.96379
G01 X20.02675Y26.94806
G01 X19.9197Y26.9428
G01 X17.7353Y26.9428
G01 X17.62825Y26.94806
G01 X17.57741Y26.9556
G01 X16.9751Y26.9556
G01 X15.7794Y25.7599
G01 X15.7794Y14.5094
G01 X17.57741Y14.5094
G01 X17.62825Y14.51694
G01 X17.7353Y14.5222
G01 X19.9197Y14.5222
G01 X20.02675Y14.51694
G01 X20.07759Y14.5094
G01 X20.0975Y14.5094
G01 X20.1093Y14.5079
G01 X20.1212Y14.5072
G01 X20.125Y14.5059
G01 X20.1291Y14.5054
G01 X20.1401Y14.5011
G01 X20.1514Y14.4974
G01 X20.15365Y14.49599
G01 X20.23675Y14.47517
G01 X20.33767Y14.43906
G01 X20.43456Y14.39323
G01 X20.52649Y14.33813
G01 X20.61258Y14.27428
G01 X20.692Y14.2023
G01 X20.76398Y14.12288
G01 X20.80691Y14.065
G01 X25.8125Y14.065
G01 X25.87474Y14.06194
G01 X25.93638Y14.0528
G01 X25.99683Y14.03766
G01 X26.0555Y14.01666
G01 X26.11184Y13.99002
G01 X26.16529Y13.95798
G01 X26.21534Y13.92086
G01 X26.26151Y13.87901
G01 X29.11901Y11.02151
G01 X29.16086Y10.97534
G01 X29.19798Y10.92529
G01 X29.23002Y10.87184
G01 X29.25666Y10.8155
G01 X29.27766Y10.75683
G01 X29.2928Y10.69638
G01 X29.30194Y10.63474
G01 X29.305Y10.5725
G01 X29.305Y9.24803
G01 X31.15553Y7.3975
G01 X36.34447Y7.3975
G01 X37.56Y8.61303
G01 X37.56Y27.7175
G01 X37.56306Y27.77974
G01 X37.5722Y27.84138
G01 X37.58734Y27.90183
G01 X37.60834Y27.9605
G01 X37.63498Y28.01684
G01 X37.66702Y28.07029
G01 X37.70414Y28.12034
G01 X37.74599Y28.16651
G01 X39.96849Y30.38901
G01 X40.01466Y30.43086
G01 X40.06471Y30.46798
G01 X40.11816Y30.50002
G01 X40.1745Y30.52666
G01 X40.23317Y30.54766
G01 X40.29362Y30.5628
G01 X40.35526Y30.57194
G01 X40.4175Y30.575
G01 X47.0723Y30.575
G01 X47.0723Y30.9052
G01 X47.07695Y30.99981
G01 X47.09085Y31.0935
G01 X47.11386Y31.18538
G01 X47.14577Y31.27457
G01 X47.18627Y31.36019
G01 X47.23497Y31.44144
G01 X47.29139Y31.51752
G01 X47.355Y31.5877
G01 X47.42518Y31.65131
G01 X47.50126Y31.70773
G01 X47.58251Y31.75643
G01 X47.66813Y31.79693
G01 X47.75732Y31.82884
G01 X47.8492Y31.85185
G01 X47.94289Y31.86575
G01 X48.0375Y31.8704
G01 X48.13211Y31.86575
G01 X48.2258Y31.85185
G01 X48.31768Y31.82884
G01 X48.40687Y31.79693
G01 X48.49249Y31.75643
G01 X48.57374Y31.70773
G01 X48.64982Y31.65131
G01 X48.72Y31.5877
G01 X48.78361Y31.51752
G01 X48.84003Y31.44144
G01 X48.88873Y31.36019
G01 X48.92923Y31.27457
G01 X48.96114Y31.18538
G01 X48.98415Y31.0935
G01 X48.99805Y30.99981
G01 X49.0027Y30.9052
G01 X49.0027Y28.9748
G01 X48.99805Y28.88019
G01 X48.98415Y28.7865
G01 X48.96114Y28.69462
G01 X48.92923Y28.60543
G01 X48.88873Y28.51981
G01 X48.84003Y28.43856
G01 X48.78361Y28.36248
G01 X48.72Y28.2923
G01 X48.64982Y28.22869
G01 X48.57374Y28.17227
G01 X48.49249Y28.12357
G01 X48.40687Y28.08307
G01 X48.31768Y28.05116
G01 X48.2258Y28.02815
G01 X48.13211Y28.01425
G01 X48.0375Y28.0096
G01 X47.94289Y28.01425
G01 X47.8492Y28.02815
G01 X47.75732Y28.05116
G01 X47.66813Y28.08307
G01 X47.58251Y28.12357
G01 X47.50126Y28.17227
G01 X47.42518Y28.22869
G01 X47.355Y28.2923
G01 X47.29139Y28.36248
G01 X47.23497Y28.43856
G01 X47.18627Y28.51981
G01 X47.14577Y28.60543
G01 X47.11386Y28.69462
G01 X47.09085Y28.7865
G01 X47.07695Y28.88019
G01 X47.0723Y28.9748
G01 X47.0723Y29.305
G01 X40.68053Y29.305
G01 X38.83Y27.45447
G01 X38.83Y8.35
G01 X38.83Y8.35
G01 X38.82694Y8.28776
G01 X38.8178Y8.22612
G01 X38.80266Y8.16567
G01 X38.80078Y8.16041
G01 X38.78166Y8.107
G01 X38.75502Y8.05066
G01 X38.72298Y7.99721
G01 X38.68586Y7.94716
G01 X38.64401Y7.90099
G01 X37.05651Y6.31349
G01 X37.01034Y6.27164
G01 X37.0019Y6.26538
G01 X36.96029Y6.23452
G01 X36.91797Y6.20915
G01 X36.90684Y6.20248
G01 X36.8505Y6.17584
G01 X36.79183Y6.15484
G01 X36.77171Y6.1498
G01 X36.73138Y6.1397
G01 X36.66974Y6.13056
G01 X36.6075Y6.1275
G01 X30.8925Y6.1275
G01 X30.83026Y6.13056
G01 X30.76862Y6.1397
G01 X30.70817Y6.15484
G01 X30.68403Y6.16348
G01 X30.6495Y6.17584
G01 X30.59316Y6.20248
G01 X30.53971Y6.23452
G01 X30.48966Y6.27164
G01 X30.44349Y6.31349
G01 X28.22099Y8.53599
G01 X28.17914Y8.58216
G01 X28.14202Y8.63221
G01 X28.10998Y8.68566
G01 X28.08334Y8.742
G01 X28.06234Y8.80067
G01 X28.0472Y8.86112
G01 X28.03806Y8.92276
G01 X28.035Y8.985
G01 X28.035Y10.30947
G01 X25.54947Y12.795
G01 X20.80691Y12.795
G01 X20.76398Y12.73712
G01 X20.692Y12.6577
G01 X20.61258Y12.58572
G01 X20.52649Y12.52187
G01 X20.43456Y12.46677
G01 X20.33767Y12.42094
G01 X20.23675Y12.38483
G01 X20.15155Y12.36349
G01 X20.1444Y12.3595
G01 X20.1404Y12.3585
G01 X20.1368Y12.3568
G01 X20.1251Y12.3546
G01 X20.1136Y12.3516
G01 X20.1075Y12.3512
G01 X20.1055Y12.3508
G01 X20.1035Y12.351
G01 X20.0975Y12.3506
G01 X20.07759Y12.3506
G01 X20.02675Y12.34306
G01 X19.9197Y12.3378
G01 X17.7353Y12.3378
G01 X17.62825Y12.34306
G01 X17.57741Y12.3506
G01 X4.2225Y12.3506
G01 X4.2107Y12.3521
G01 X4.2107Y12.3521
M5
G01 X16.8391Y52.5769
M3
G01 X16.8478Y52.5851
G01 X16.8513Y52.5871
G01 X16.8544Y52.5896
G01 X16.8652Y52.5947
G01 X16.8756Y52.6005
G01 X16.8796Y52.6015
G01 X16.8832Y52.6032
G01 X16.8949Y52.6054
G01 X16.9064Y52.6084
G01 X16.9124Y52.6088
G01 X16.9144Y52.6092
G01 X16.9165Y52.609
G01 X16.9225Y52.6094
G01 X25.3681Y52.6094
G01 X25.3681Y59.6581
G01 X20.07759Y59.6581
G01 X20.02675Y59.65056
G01 X19.9197Y59.6453
G01 X17.7353Y59.6453
G01 X17.62825Y59.65056
G01 X17.57741Y59.6581
G01 X16.9225Y59.6581
G01 X16.9107Y59.6596
G01 X16.8988Y59.6603
G01 X16.895Y59.6616
G01 X16.8909Y59.6621
G01 X16.8799Y59.6664
G01 X16.8686Y59.6701
G01 X16.8651Y59.6723
G01 X16.8614Y59.6738
G01 X16.8518Y59.6807
G01 X16.8417Y59.6871
G01 X16.8389Y59.6901
G01 X16.8356Y59.6924
G01 X16.828Y59.7016
G01 X16.8199Y59.7103
G01 X16.8179Y59.7138
G01 X16.8154Y59.7169
G01 X16.8103Y59.7277
G01 X16.8045Y59.7381
G01 X16.8035Y59.7421
G01 X16.8018Y59.7457
G01 X16.7996Y59.7574
G01 X16.7966Y59.7689
G01 X16.7962Y59.7749
G01 X16.7958Y59.7769
G01 X16.796Y59.779
G01 X16.7956Y59.785
G01 X16.7956Y60.18338
G01 X16.77207Y60.22264
G01 X16.72624Y60.31953
G01 X16.69013Y60.42045
G01 X16.66409Y60.52442
G01 X16.64836Y60.63045
G01 X16.6431Y60.7375
G01 X16.64836Y60.84455
G01 X16.66409Y60.95058
G01 X16.69013Y61.05455
G01 X16.72624Y61.15547
G01 X16.77207Y61.25236
G01 X16.7956Y61.29162
G01 X16.7956Y68.04
G01 X16.7971Y68.0518
G01 X16.7978Y68.0637
G01 X16.7991Y68.0675
G01 X16.7996Y68.0716
G01 X16.8039Y68.0826
G01 X16.8076Y68.0939
G01 X16.8098Y68.0974
G01 X16.8113Y68.1011
G01 X16.8182Y68.1107
G01 X16.8246Y68.1208
G01 X16.8276Y68.1236
G01 X16.8299Y68.1269
G01 X16.8391Y68.1344
G01 X16.8478Y68.1426
G01 X16.8513Y68.1446
G01 X16.8544Y68.1471
G01 X16.8652Y68.1522
G01 X16.8756Y68.158
G01 X16.8796Y68.159
G01 X16.8832Y68.1607
G01 X16.8949Y68.1629
G01 X16.9064Y68.1659
G01 X16.9124Y68.1663
G01 X16.9144Y68.1667
G01 X16.9165Y68.1665
G01 X16.9225Y68.1669
G01 X24.8074Y68.1669
G01 X26.3206Y69.6801
G01 X26.3206Y73.755
G01 X26.3218Y73.7648
G01 X26.3221Y73.7747
G01 X26.3238Y73.7805
G01 X26.3246Y73.7866
G01 X26.3282Y73.7958
G01 X26.331Y73.8053
G01 X26.334Y73.8105
G01 X26.3363Y73.8161
G01 X26.3421Y73.8241
G01 X26.3471Y73.8327
G01 X26.3537Y73.8402
G01 X26.3549Y73.8419
G01 X26.3559Y73.8426
G01 X26.3577Y73.8447
G01 X28.8606Y76.3476
G01 X28.8606Y99.1024
G01 X22.5849Y105.3781
G01 X20.07759Y105.3781
G01 X20.02675Y105.37056
G01 X19.9197Y105.3653
G01 X17.7353Y105.3653
G01 X17.62825Y105.37056
G01 X17.57741Y105.3781
G01 X16.9225Y105.3781
G01 X16.9107Y105.3796
G01 X16.8988Y105.3803
G01 X16.895Y105.3816
G01 X16.8909Y105.3821
G01 X16.8799Y105.3864
G01 X16.8686Y105.3901
G01 X16.8651Y105.3923
G01 X16.8614Y105.3938
G01 X16.8518Y105.4007
G01 X16.8417Y105.4071
G01 X16.8389Y105.4101
G01 X16.8356Y105.4124
G01 X16.828Y105.4216
G01 X16.8199Y105.4303
G01 X16.8179Y105.4338
G01 X16.8154Y105.4369
G01 X16.8103Y105.4477
G01 X16.8045Y105.4581
G01 X16.8035Y105.4621
G01 X16.8018Y105.4657
G01 X16.7996Y105.4774
G01 X16.7966Y105.4889
G01 X16.7962Y105.4949
G01 X16.7958Y105.4969
G01 X16.796Y105.499
G01 X16.7956Y105.505
G01 X16.7956Y105.90338
G01 X16.77207Y105.94264
G01 X16.72624Y106.03953
G01 X16.69013Y106.14045
G01 X16.66409Y106.24442
G01 X16.64836Y106.35045
G01 X16.6431Y106.4575
G01 X16.64836Y106.56455
G01 X16.66409Y106.67058
G01 X16.69013Y106.77455
G01 X16.72624Y106.87547
G01 X16.77207Y106.97236
G01 X16.7956Y107.01162
G01 X16.7956Y112.8075
G01 X16.7971Y112.8193
G01 X16.7978Y112.8312
G01 X16.7991Y112.835
G01 X16.7996Y112.8391
G01 X16.8039Y112.8501
G01 X16.8076Y112.8614
G01 X16.8098Y112.8649
G01 X16.8113Y112.8686
G01 X16.8182Y112.8782
G01 X16.8246Y112.8883
G01 X16.8276Y112.8911
G01 X16.8299Y112.8944
G01 X16.8391Y112.9019
G01 X16.8478Y112.9101
G01 X16.8513Y112.9121
G01 X16.8544Y112.9146
G01 X16.8652Y112.9197
G01 X16.8756Y112.9255
G01 X16.8796Y112.9265
G01 X16.8832Y112.9282
G01 X16.8949Y112.9304
G01 X16.9064Y112.9334
G01 X16.9124Y112.9338
G01 X16.9144Y112.9342
G01 X16.9165Y112.934
G01 X16.9225Y112.9344
G01 X25.3681Y112.9344
G01 X25.3681Y119.9831
G01 X20.07759Y119.9831
G01 X20.02675Y119.97556
G01 X19.9197Y119.9703
G01 X17.7353Y119.9703
G01 X17.62825Y119.97556
G01 X17.57741Y119.9831
G01 X16.9225Y119.9831
G01 X16.9107Y119.9846
G01 X16.8988Y119.9853
G01 X16.895Y119.9866
G01 X16.8909Y119.9871
G01 X16.8799Y119.9914
G01 X16.8686Y119.9951
G01 X16.8651Y119.9973
G01 X16.8614Y119.9988
G01 X16.8518Y120.0057
G01 X16.8417Y120.0121
G01 X16.8389Y120.0151
G01 X16.8356Y120.0174
G01 X16.828Y120.0266
G01 X16.8199Y120.0353
G01 X16.8179Y120.0388
G01 X16.8154Y120.0419
G01 X16.8103Y120.0527
G01 X16.8045Y120.0631
G01 X16.8035Y120.0671
G01 X16.8018Y120.0707
G01 X16.7996Y120.0824
G01 X16.7966Y120.0939
G01 X16.7962Y120.0999
G01 X16.7958Y120.1019
G01 X16.796Y120.104
G01 X16.7956Y120.11
G01 X16.7956Y120.50838
G01 X16.77207Y120.54764
G01 X16.72624Y120.64453
G01 X16.69013Y120.74545
G01 X16.66409Y120.84942
G01 X16.64836Y120.95545
G01 X16.6431Y121.0625
G01 X16.64836Y121.16955
G01 X16.66409Y121.27558
G01 X16.69013Y121.37955
G01 X16.72624Y121.48047
G01 X16.77207Y121.57736
G01 X16.7956Y121.61662
G01 X16.7956Y125.825
G01 X16.7968Y125.8348
G01 X16.7971Y125.8447
G01 X16.7988Y125.8505
G01 X16.7996Y125.8566
G01 X16.8032Y125.8658
G01 X16.806Y125.8753
G01 X16.809Y125.8805
G01 X16.8113Y125.8861
G01 X16.8171Y125.8941
G01 X16.8221Y125.9027
G01 X16.8287Y125.9102
G01 X16.8299Y125.9119
G01 X16.8309Y125.9126
G01 X16.8327Y125.9147
G01 X22.5477Y131.6297
G01 X22.5556Y131.6358
G01 X22.5628Y131.6426
G01 X22.5681Y131.6455
G01 X22.5729Y131.6492
G01 X22.582Y131.6532
G01 X22.5906Y131.658
G01 X22.5965Y131.6595
G01 X22.6021Y131.6619
G01 X22.6119Y131.6634
G01 X22.6214Y131.6659
G01 X22.6314Y131.6665
G01 X22.6335Y131.6669
G01 X22.6347Y131.6667
G01 X22.6375Y131.6669
G01 X32.1625Y131.6669
G01 X32.1743Y131.6654
G01 X32.1862Y131.6647
G01 X32.19Y131.6634
G01 X32.1941Y131.6629
G01 X32.2051Y131.6586
G01 X32.2164Y131.6549
G01 X32.2199Y131.6527
G01 X32.2236Y131.6512
G01 X32.2332Y131.6442
G01 X32.2433Y131.6379
G01 X32.2461Y131.6349
G01 X32.2494Y131.6326
G01 X32.2569Y131.6234
G01 X32.2651Y131.6147
G01 X32.2671Y131.6112
G01 X32.2696Y131.6081
G01 X32.2747Y131.5973
G01 X32.2805Y131.5869
G01 X32.2815Y131.5829
G01 X32.2832Y131.5793
G01 X32.2854Y131.5676
G01 X32.2884Y131.5561
G01 X32.2888Y131.55
G01 X32.2892Y131.548
G01 X32.289Y131.546
G01 X32.2894Y131.54
G01 X32.2894Y125.063
G01 X34.7025Y125.063
G01 X34.75229Y125.06055
G01 X34.80161Y125.05324
G01 X34.84996Y125.04113
G01 X34.8969Y125.02433
G01 X34.94197Y125.00302
G01 X34.98473Y124.97739
G01 X35.02477Y124.94769
G01 X35.06171Y124.91421
G01 X36.64921Y123.32671
G01 X36.68269Y123.28977
G01 X36.71239Y123.24973
G01 X36.73802Y123.20697
G01 X36.75933Y123.1619
G01 X36.77613Y123.11496
G01 X36.78824Y123.06661
G01 X36.79555Y123.01729
G01 X36.798Y122.9675
G01 X36.798Y101.58792
G01 X39.35792Y99.028
G01 X50.34375Y99.028
G01 X50.36136Y99.05175
G01 X50.4166Y99.1127
G01 X50.47755Y99.16794
G01 X50.54362Y99.21694
G01 X50.61418Y99.25923
G01 X50.68853Y99.2944
G01 X50.76598Y99.32211
G01 X50.84578Y99.34209
G01 X50.92714Y99.35416
G01 X51.0093Y99.3582
G01 X52.6857Y99.3582
G01 X52.76786Y99.35416
G01 X52.84922Y99.34209
G01 X52.92902Y99.32211
G01 X53.00647Y99.2944
G01 X53.08082Y99.25923
G01 X53.15138Y99.21694
G01 X53.21745Y99.16794
G01 X53.2784Y99.1127
G01 X53.33364Y99.05175
G01 X53.38264Y98.98568
G01 X53.42493Y98.91512
G01 X53.4601Y98.84077
G01 X53.48781Y98.76332
G01 X53.50779Y98.68352
G01 X53.51986Y98.60216
G01 X53.5239Y98.52
G01 X53.51986Y98.43784
G01 X53.50779Y98.35648
G01 X53.48781Y98.27668
G01 X53.4601Y98.19923
G01 X53.42493Y98.12488
G01 X53.38264Y98.05432
G01 X53.33364Y97.98825
G01 X53.2784Y97.9273
G01 X53.21745Y97.87206
G01 X53.15138Y97.82306
G01 X53.08082Y97.78077
G01 X53.00647Y97.7456
G01 X52.92902Y97.71789
G01 X52.84922Y97.69791
G01 X52.76786Y97.68584
G01 X52.6857Y97.6818
G01 X51.0093Y97.6818
G01 X50.92714Y97.68584
G01 X50.84578Y97.69791
G01 X50.76598Y97.71789
G01 X50.68853Y97.7456
G01 X50.61418Y97.78077
G01 X50.54362Y97.82306
G01 X50.47755Y97.87206
G01 X50.4166Y97.9273
G01 X50.36136Y97.98825
G01 X50.34375Y98.012
G01 X39.1475Y98.012
G01 X39.09771Y98.01445
G01 X39.04839Y98.02176
G01 X39.00004Y98.03387
G01 X38.9531Y98.05067
G01 X38.90803Y98.07198
G01 X38.86527Y98.09761
G01 X38.82523Y98.12731
G01 X38.78829Y98.16079
G01 X35.93079Y101.01829
G01 X35.89731Y101.05523
G01 X35.86761Y101.09527
G01 X35.84198Y101.13803
G01 X35.82067Y101.1831
G01 X35.80387Y101.23004
G01 X35.79176Y101.27839
G01 X35.78445Y101.32771
G01 X35.782Y101.3775
G01 X35.782Y122.75708
G01 X34.49208Y124.047
G01 X32.2894Y124.047
G01 X32.2894Y45.18
G01 X32.2879Y45.1682
G01 X32.2872Y45.1563
G01 X32.2859Y45.1525
G01 X32.2854Y45.1484
G01 X32.2811Y45.1374
G01 X32.2774Y45.1261
G01 X32.2752Y45.1226
G01 X32.2737Y45.1189
G01 X32.2667Y45.1093
G01 X32.2604Y45.0992
G01 X32.2574Y45.0964
G01 X32.2551Y45.0931
G01 X32.2459Y45.0855
G01 X32.2372Y45.0774
G01 X32.2337Y45.0754
G01 X32.2306Y45.0729
G01 X32.2198Y45.0678
G01 X32.2094Y45.062
G01 X32.2054Y45.061
G01 X32.2018Y45.0593
G01 X32.1901Y45.0571
G01 X32.1786Y45.0541
G01 X32.1725Y45.0537
G01 X32.1705Y45.0533
G01 X32.1685Y45.0535
G01 X32.1625Y45.0531
G01 X20.07759Y45.0531
G01 X20.02675Y45.04556
G01 X19.9197Y45.0403
G01 X17.7353Y45.0403
G01 X17.62825Y45.04556
G01 X17.57741Y45.0531
G01 X16.9225Y45.0531
G01 X16.9107Y45.0546
G01 X16.8988Y45.0553
G01 X16.895Y45.0566
G01 X16.8909Y45.0571
G01 X16.8799Y45.0614
G01 X16.8686Y45.0651
G01 X16.8651Y45.0673
G01 X16.8614Y45.0688
G01 X16.8518Y45.0757
G01 X16.8417Y45.0821
G01 X16.8389Y45.0851
G01 X16.8356Y45.0874
G01 X16.828Y45.0966
G01 X16.8199Y45.1053
G01 X16.8179Y45.1088
G01 X16.8154Y45.1119
G01 X16.8103Y45.1227
G01 X16.8045Y45.1331
G01 X16.8035Y45.1371
G01 X16.8018Y45.1407
G01 X16.7996Y45.1524
G01 X16.7966Y45.1639
G01 X16.7962Y45.1699
G01 X16.7958Y45.1719
G01 X16.796Y45.174
G01 X16.7956Y45.18
G01 X16.7956Y45.57838
G01 X16.77207Y45.61764
G01 X16.72624Y45.71453
G01 X16.69013Y45.81545
G01 X16.66409Y45.91942
G01 X16.64836Y46.02545
G01 X16.6431Y46.1325
G01 X16.64836Y46.23955
G01 X16.66409Y46.34558
G01 X16.69013Y46.44955
G01 X16.72624Y46.55047
G01 X16.77207Y46.64736
G01 X16.7956Y46.68662
G01 X16.7956Y52.4825
G01 X16.7971Y52.4943
G01 X16.7978Y52.5062
G01 X16.7991Y52.51
G01 X16.7996Y52.5141
G01 X16.8039Y52.5251
G01 X16.8076Y52.5364
G01 X16.8098Y52.5399
G01 X16.8113Y52.5436
G01 X16.8182Y52.5532
G01 X16.8246Y52.5633
G01 X16.8276Y52.5661
G01 X16.8299Y52.5694
G01 X16.8391Y52.5769
G01 X16.8391Y52.5769
M5
G01 X16.5734Y15.2121
M3
G01 X16.5624Y15.2164
G01 X16.5511Y15.2201
G01 X16.5476Y15.2223
G01 X16.5439Y15.2238
G01 X16.5343Y15.2307
G01 X16.5242Y15.2371
G01 X16.5214Y15.2401
G01 X16.5181Y15.2424
G01 X16.5105Y15.2516
G01 X16.5024Y15.2603
G01 X16.5004Y15.2638
G01 X16.4979Y15.2669
G01 X16.4928Y15.2777
G01 X16.487Y15.2881
G01 X16.486Y15.2921
G01 X16.4843Y15.2957
G01 X16.4821Y15.3074
G01 X16.4791Y15.3189
G01 X16.4787Y15.3249
G01 X16.4783Y15.3269
G01 X16.4785Y15.329
G01 X16.4781Y15.335
G01 X16.4781Y21.685
G01 X16.4796Y21.6968
G01 X16.4803Y21.7087
G01 X16.4816Y21.7125
G01 X16.4821Y21.7166
G01 X16.4864Y21.7276
G01 X16.4901Y21.7389
G01 X16.4923Y21.7424
G01 X16.4938Y21.7461
G01 X16.5007Y21.7557
G01 X16.5071Y21.7658
G01 X16.5101Y21.7686
G01 X16.5124Y21.7719
G01 X16.5216Y21.7794
G01 X16.5303Y21.7876
G01 X16.5338Y21.7896
G01 X16.5369Y21.7921
G01 X16.5477Y21.7972
G01 X16.5581Y21.803
G01 X16.5621Y21.804
G01 X16.5657Y21.8057
G01 X16.5774Y21.8079
G01 X16.5889Y21.8109
G01 X16.5949Y21.8113
G01 X16.5969Y21.8117
G01 X16.599Y21.8115
G01 X16.605Y21.8119
G01 X23.5374Y21.8119
G01 X25.0506Y23.3251
G01 X25.0506Y28.2999
G01 X23.5374Y29.8131
G01 X20.07759Y29.8131
G01 X20.02675Y29.80556
G01 X19.9197Y29.8003
G01 X17.7353Y29.8003
G01 X17.62825Y29.80556
G01 X17.57741Y29.8131
G01 X17.5575Y29.8131
G01 X17.5457Y29.8146
G01 X17.5338Y29.8153
G01 X17.53Y29.8166
G01 X17.5259Y29.8171
G01 X17.5149Y29.8214
G01 X17.5036Y29.8251
G01 X17.50135Y29.82651
G01 X17.41825Y29.84733
G01 X17.31733Y29.88344
G01 X17.22044Y29.92927
G01 X17.12851Y29.98437
G01 X17.04242Y30.04822
G01 X16.963Y30.1202
G01 X16.95357Y30.1306
G01 X15.335Y30.1306
G01 X15.3252Y30.1318
G01 X15.3153Y30.1321
G01 X15.3095Y30.1338
G01 X15.3034Y30.1346
G01 X15.2942Y30.1382
G01 X15.2847Y30.141
G01 X15.2795Y30.144
G01 X15.2739Y30.1463
G01 X15.2659Y30.1521
G01 X15.2573Y30.1571
G01 X15.2498Y30.1637
G01 X15.2481Y30.1649
G01 X15.2474Y30.1659
G01 X15.2452Y30.1677
G01 X11.7527Y33.6602
G01 X11.7467Y33.6681
G01 X11.7399Y33.6753
G01 X11.737Y33.6806
G01 X11.7333Y33.6854
G01 X11.7293Y33.6945
G01 X11.7245Y33.7031
G01 X11.723Y33.709
G01 X11.7206Y33.7146
G01 X11.7191Y33.7244
G01 X11.7166Y33.7339
G01 X11.716Y33.7439
G01 X11.7156Y33.746
G01 X11.7158Y33.7472
G01 X11.7156Y33.75
G01 X11.7156Y57.5625
G01 X11.7168Y57.5723
G01 X11.7171Y57.5822
G01 X11.7188Y57.588
G01 X11.7196Y57.5941
G01 X11.7232Y57.6033
G01 X11.726Y57.6128
G01 X11.729Y57.618
G01 X11.7313Y57.6236
G01 X11.7371Y57.6316
G01 X11.7421Y57.6402
G01 X11.7487Y57.6477
G01 X11.7499Y57.6494
G01 X11.7509Y57.6501
G01 X11.7527Y57.6522
G01 X13.0227Y58.9222
G01 X13.0306Y58.9283
G01 X13.0378Y58.9351
G01 X13.0431Y58.938
G01 X13.0479Y58.9417
G01 X13.057Y58.9457
G01 X13.0656Y58.9505
G01 X13.0715Y58.952
G01 X13.0771Y58.9544
G01 X13.0869Y58.9559
G01 X13.0964Y58.9584
G01 X13.1064Y58.959
G01 X13.1085Y58.9594
G01 X13.1097Y58.9592
G01 X13.1125Y58.9594
G01 X17.57741Y58.9594
G01 X17.62825Y58.96694
G01 X17.7353Y58.9722
G01 X19.9197Y58.9722
G01 X20.02675Y58.96694
G01 X20.13278Y58.95121
G01 X20.23675Y58.92517
G01 X20.33767Y58.88906
G01 X20.43456Y58.84323
G01 X20.52649Y58.78813
G01 X20.61258Y58.72428
G01 X20.692Y58.6523
G01 X20.76398Y58.57288
G01 X20.82783Y58.48679
G01 X20.88293Y58.39486
G01 X20.92876Y58.29797
G01 X20.96487Y58.19705
G01 X20.99091Y58.09308
G01 X21.00664Y57.98705
G01 X21.0119Y57.88
G01 X21.00664Y57.77295
G01 X20.99091Y57.66692
G01 X20.96487Y57.56295
G01 X20.92876Y57.46203
G01 X20.88293Y57.36514
G01 X20.82783Y57.27321
G01 X20.76398Y57.18712
G01 X20.692Y57.1077
G01 X20.61258Y57.03572
G01 X20.52649Y56.97187
G01 X20.43456Y56.91677
G01 X20.33767Y56.87094
G01 X20.23675Y56.83483
G01 X20.13278Y56.80879
G01 X20.02675Y56.79306
G01 X19.9197Y56.7878
G01 X17.7353Y56.7878
G01 X17.62825Y56.79306
G01 X17.57741Y56.8006
G01 X16.9751Y56.8006
G01 X15.7794Y55.6049
G01 X15.7794Y45.5501
G01 X16.9751Y44.3544
G01 X17.57741Y44.3544
G01 X17.62825Y44.36194
G01 X17.7353Y44.3672
G01 X19.9197Y44.3672
G01 X20.02675Y44.36194
G01 X20.13278Y44.34621
G01 X20.23675Y44.32017
G01 X20.33767Y44.28406
G01 X20.43456Y44.23823
G01 X20.52649Y44.18313
G01 X20.61258Y44.11928
G01 X20.692Y44.0473
G01 X20.76398Y43.96788
G01 X20.82783Y43.88179
G01 X20.88293Y43.78986
G01 X20.92876Y43.69297
G01 X20.96487Y43.59205
G01 X20.99091Y43.48808
G01 X21.00664Y43.38205
G01 X21.0119Y43.275
G01 X21.00664Y43.16795
G01 X20.99091Y43.06192
G01 X20.96487Y42.95795
G01 X20.92876Y42.85703
G01 X20.88293Y42.76014
G01 X20.82783Y42.66821
G01 X20.76398Y42.58212
G01 X20.692Y42.5027
G01 X20.61258Y42.43072
G01 X20.52649Y42.36687
G01 X20.43456Y42.31177
G01 X20.33767Y42.26594
G01 X20.23675Y42.22983
G01 X20.13278Y42.20379
G01 X20.02675Y42.18806
G01 X19.9197Y42.1828
G01 X17.7353Y42.1828
G01 X17.62825Y42.18806
G01 X17.57741Y42.1956
G01 X16.9751Y42.1956
G01 X15.7794Y40.9999
G01 X15.7794Y39.2001
G01 X16.9751Y38.0044
G01 X32.1625Y38.0044
G01 X32.1743Y38.0029
G01 X32.1862Y38.0022
G01 X32.19Y38.0009
G01 X32.1941Y38.0004
G01 X32.2051Y37.9961
G01 X32.2164Y37.9924
G01 X32.2199Y37.9902
G01 X32.2236Y37.9887
G01 X32.2332Y37.9817
G01 X32.2433Y37.9754
G01 X32.2461Y37.9724
G01 X32.2494Y37.9701
G01 X32.2569Y37.9609
G01 X32.2651Y37.9522
G01 X32.2671Y37.9487
G01 X32.2696Y37.9456
G01 X32.2747Y37.9348
G01 X32.2805Y37.9244
G01 X32.2815Y37.9204
G01 X32.2832Y37.9168
G01 X32.2854Y37.9051
G01 X32.2884Y37.8936
G01 X32.2888Y37.8875
G01 X32.2892Y37.8855
G01 X32.289Y37.8835
G01 X32.2894Y37.8775
G01 X32.2894Y37.7505
G01 X33.85708Y37.7505
G01 X35.782Y39.67542
G01 X35.782Y63.595
G01 X35.78445Y63.64479
G01 X35.79176Y63.69411
G01 X35.80387Y63.74246
G01 X35.82067Y63.7894
G01 X35.84198Y63.83447
G01 X35.86761Y63.87723
G01 X35.89731Y63.91727
G01 X35.93079Y63.95421
G01 X38.0045Y66.02792
G01 X38.0045Y76.6125
G01 X38.00695Y76.66229
G01 X38.01426Y76.71161
G01 X38.02637Y76.75996
G01 X38.04317Y76.8069
G01 X38.06448Y76.85197
G01 X38.09011Y76.89473
G01 X38.11981Y76.93477
G01 X38.15329Y76.97171
G01 X39.74079Y78.55921
G01 X39.77773Y78.59269
G01 X39.81777Y78.62239
G01 X39.86053Y78.64802
G01 X39.9056Y78.66933
G01 X39.95254Y78.68613
G01 X40.00089Y78.69824
G01 X40.05021Y78.70555
G01 X40.1Y78.708
G01 X50.34375Y78.708
G01 X50.36136Y78.73175
G01 X50.4166Y78.7927
G01 X50.47755Y78.84794
G01 X50.54362Y78.89694
G01 X50.61418Y78.93923
G01 X50.68853Y78.9744
G01 X50.76598Y79.00211
G01 X50.84578Y79.02209
G01 X50.92714Y79.03416
G01 X51.0093Y79.0382
G01 X52.6857Y79.0382
G01 X52.76786Y79.03416
G01 X52.84922Y79.02209
G01 X52.92902Y79.00211
G01 X53.00647Y78.9744
G01 X53.08082Y78.93923
G01 X53.15138Y78.89694
G01 X53.21745Y78.84794
G01 X53.2784Y78.7927
G01 X53.33364Y78.73175
G01 X53.38264Y78.66568
G01 X53.42493Y78.59512
G01 X53.4601Y78.52077
G01 X53.48781Y78.44332
G01 X53.50779Y78.36352
G01 X53.51986Y78.28216
G01 X53.5239Y78.2
G01 X53.51986Y78.11784
G01 X53.50779Y78.03648
G01 X53.48781Y77.95668
G01 X53.4601Y77.87923
G01 X53.42493Y77.80488
G01 X53.38264Y77.73432
G01 X53.33364Y77.66825
G01 X53.2784Y77.6073
G01 X53.21745Y77.55206
G01 X53.15138Y77.50306
G01 X53.08082Y77.46077
G01 X53.00647Y77.4256
G01 X52.92902Y77.39789
G01 X52.84922Y77.37791
G01 X52.76786Y77.36584
G01 X52.6857Y77.3618
G01 X51.0093Y77.3618
G01 X50.92714Y77.36584
G01 X50.84578Y77.37791
G01 X50.76598Y77.39789
G01 X50.68853Y77.4256
G01 X50.61418Y77.46077
G01 X50.54362Y77.50306
G01 X50.47755Y77.55206
G01 X50.4166Y77.6073
G01 X50.36136Y77.66825
G01 X50.34375Y77.692
G01 X40.31042Y77.692
G01 X39.0205Y76.40208
G01 X39.0205Y65.8175
G01 X39.01805Y65.76771
G01 X39.01074Y65.71839
G01 X38.99863Y65.67004
G01 X38.98183Y65.6231
G01 X38.96052Y65.57803
G01 X38.93489Y65.53527
G01 X38.90519Y65.49523
G01 X38.87171Y65.45829
G01 X36.798Y63.38458
G01 X36.798Y39.465
G01 X36.79555Y39.41521
G01 X36.78824Y39.36589
G01 X36.77613Y39.31754
G01 X36.75933Y39.2706
G01 X36.73802Y39.22553
G01 X36.71239Y39.18277
G01 X36.68269Y39.14273
G01 X36.64921Y39.10579
G01 X34.42671Y36.88329
G01 X34.38977Y36.84981
G01 X34.34973Y36.82011
G01 X34.30697Y36.79448
G01 X34.2619Y36.77317
G01 X34.21496Y36.75637
G01 X34.16661Y36.74426
G01 X34.11729Y36.73695
G01 X34.0675Y36.7345
G01 X32.2894Y36.7345
G01 X32.2894Y16.9225
G01 X32.2882Y16.9127
G01 X32.2879Y16.9028
G01 X32.2862Y16.897
G01 X32.2854Y16.8909
G01 X32.2818Y16.8817
G01 X32.279Y16.8722
G01 X32.276Y16.867
G01 X32.2737Y16.8614
G01 X32.2679Y16.8534
G01 X32.2629Y16.8448
G01 X32.2563Y16.8373
G01 X32.2551Y16.8356
G01 X32.2541Y16.8349
G01 X32.2522Y16.8327
G01 X30.6647Y15.2452
G01 X30.6569Y15.2392
G01 X30.6497Y15.2324
G01 X30.6444Y15.2295
G01 X30.6396Y15.2258
G01 X30.6305Y15.2218
G01 X30.6219Y15.217
G01 X30.616Y15.2155
G01 X30.6104Y15.2131
G01 X30.6006Y15.2116
G01 X30.5911Y15.2091
G01 X30.5811Y15.2085
G01 X30.579Y15.2081
G01 X30.5778Y15.2083
G01 X30.575Y15.2081
G01 X20.07759Y15.2081
G01 X20.02675Y15.20056
G01 X19.9197Y15.1953
G01 X17.7353Y15.1953
G01 X17.62825Y15.20056
G01 X17.57741Y15.2081
G01 X16.605Y15.2081
G01 X16.5932Y15.2096
G01 X16.5813Y15.2103
G01 X16.5775Y15.2116
G01 X16.5734Y15.2121
G01 X16.5734Y15.2121
M5
G01 X11.7313Y117.9486
M3
G01 X11.7371Y117.9566
G01 X11.7421Y117.9652
G01 X11.7487Y117.9727
G01 X11.7499Y117.9744
G01 X11.7509Y117.9751
G01 X11.7527Y117.9772
G01 X13.0227Y119.2472
G01 X13.0306Y119.2533
G01 X13.0378Y119.2601
G01 X13.0431Y119.263
G01 X13.0479Y119.2667
G01 X13.057Y119.2707
G01 X13.0656Y119.2755
G01 X13.0715Y119.277
G01 X13.0771Y119.2794
G01 X13.0869Y119.2809
G01 X13.0964Y119.2834
G01 X13.1064Y119.284
G01 X13.1085Y119.2844
G01 X13.1097Y119.2842
G01 X13.1125Y119.2844
G01 X17.57741Y119.2844
G01 X17.62825Y119.29194
G01 X17.7353Y119.2972
G01 X19.9197Y119.2972
G01 X20.02675Y119.29194
G01 X20.13278Y119.27621
G01 X20.23675Y119.25017
G01 X20.33767Y119.21406
G01 X20.43456Y119.16823
G01 X20.52649Y119.11313
G01 X20.61258Y119.04928
G01 X20.692Y118.9773
G01 X20.76398Y118.89788
G01 X20.82783Y118.81179
G01 X20.88293Y118.71986
G01 X20.92876Y118.62297
G01 X20.96487Y118.52205
G01 X20.99091Y118.41808
G01 X21.00664Y118.31205
G01 X21.0119Y118.205
G01 X21.00664Y118.09795
G01 X20.99091Y117.99192
G01 X20.96487Y117.88795
G01 X20.92876Y117.78703
G01 X20.88293Y117.69014
G01 X20.82783Y117.59821
G01 X20.76398Y117.51212
G01 X20.692Y117.4327
G01 X20.61258Y117.36072
G01 X20.52649Y117.29687
G01 X20.43456Y117.24177
G01 X20.33767Y117.19594
G01 X20.23675Y117.15983
G01 X20.13278Y117.13379
G01 X20.02675Y117.11806
G01 X19.9197Y117.1128
G01 X17.7353Y117.1128
G01 X17.62825Y117.11806
G01 X17.57741Y117.1256
G01 X16.9751Y117.1256
G01 X15.7794Y115.9299
G01 X15.7794Y105.8751
G01 X16.9751Y104.6794
G01 X17.57741Y104.6794
G01 X17.62825Y104.68694
G01 X17.7353Y104.6922
G01 X19.9197Y104.6922
G01 X20.02675Y104.68694
G01 X20.13278Y104.67121
G01 X20.23675Y104.64517
G01 X20.33767Y104.60906
G01 X20.43456Y104.56323
G01 X20.52649Y104.50813
G01 X20.61258Y104.44428
G01 X20.692Y104.3723
G01 X20.76398Y104.29288
G01 X20.82783Y104.20679
G01 X20.88293Y104.11486
G01 X20.92876Y104.01797
G01 X20.96487Y103.91705
G01 X20.99091Y103.81308
G01 X21.00664Y103.70705
G01 X21.0119Y103.6
G01 X21.00664Y103.49295
G01 X20.99091Y103.38692
G01 X20.96487Y103.28295
G01 X20.92876Y103.18203
G01 X20.88293Y103.08514
G01 X20.82783Y102.99321
G01 X20.76398Y102.90712
G01 X20.692Y102.8277
G01 X20.61258Y102.75572
G01 X20.52649Y102.69187
G01 X20.43456Y102.63677
G01 X20.33767Y102.59094
G01 X20.23675Y102.55483
G01 X20.13278Y102.52879
G01 X20.02675Y102.51306
G01 X19.9197Y102.5078
G01 X17.7353Y102.5078
G01 X17.62825Y102.51306
G01 X17.57741Y102.5206
G01 X16.9751Y102.5206
G01 X15.7794Y101.3249
G01 X15.7794Y99.5251
G01 X16.9751Y98.3294
G01 X26.4475Y98.3294
G01 X26.4573Y98.3282
G01 X26.4672Y98.3279
G01 X26.473Y98.3262
G01 X26.4791Y98.3254
G01 X26.4883Y98.3218
G01 X26.4978Y98.319
G01 X26.503Y98.316
G01 X26.5086Y98.3137
G01 X26.5166Y98.3079
G01 X26.5252Y98.3029
G01 X26.5327Y98.2963
G01 X26.5344Y98.2951
G01 X26.5351Y98.2941
G01 X26.5372Y98.2922
G01 X28.1247Y96.7047
G01 X28.1308Y96.6969
G01 X28.1376Y96.6897
G01 X28.1405Y96.6844
G01 X28.1442Y96.6796
G01 X28.1482Y96.6705
G01 X28.153Y96.6619
G01 X28.1545Y96.656
G01 X28.1569Y96.6504
G01 X28.1584Y96.6406
G01 X28.1609Y96.6311
G01 X28.1615Y96.6211
G01 X28.1619Y96.619
G01 X28.1617Y96.6178
G01 X28.1619Y96.615
G01 X28.1619Y76.93
G01 X28.1607Y76.9202
G01 X28.1604Y76.9103
G01 X28.1587Y76.9045
G01 X28.1579Y76.8984
G01 X28.1543Y76.8892
G01 X28.1515Y76.8797
G01 X28.1485Y76.8745
G01 X28.1462Y76.8689
G01 X28.1404Y76.8609
G01 X28.1354Y76.8523
G01 X28.1288Y76.8448
G01 X28.1276Y76.8431
G01 X28.1266Y76.8424
G01 X28.1247Y76.8402
G01 X26.5372Y75.2527
G01 X26.5294Y75.2467
G01 X26.5222Y75.2399
G01 X26.5169Y75.237
G01 X26.5121Y75.2333
G01 X26.503Y75.2293
G01 X26.4944Y75.2245
G01 X26.4885Y75.223
G01 X26.4829Y75.2206
G01 X26.4731Y75.2191
G01 X26.4636Y75.2166
G01 X26.4536Y75.216
G01 X26.4515Y75.2156
G01 X26.4503Y75.2158
G01 X26.4475Y75.2156
G01 X20.07759Y75.2156
G01 X20.02675Y75.20806
G01 X19.9197Y75.2028
G01 X17.7353Y75.2028
G01 X17.62825Y75.20806
G01 X17.57741Y75.2156
G01 X16.605Y75.2156
G01 X16.5932Y75.2171
G01 X16.5813Y75.2178
G01 X16.5775Y75.2191
G01 X16.5734Y75.2196
G01 X16.5624Y75.2239
G01 X16.5511Y75.2276
G01 X16.5476Y75.2298
G01 X16.5439Y75.2313
G01 X16.5343Y75.2382
G01 X16.5242Y75.2446
G01 X16.5214Y75.2476
G01 X16.5181Y75.2499
G01 X16.5105Y75.2591
G01 X16.5024Y75.2678
G01 X16.5004Y75.2713
G01 X16.4979Y75.2744
G01 X16.4928Y75.2852
G01 X16.487Y75.2956
G01 X16.486Y75.2996
G01 X16.4843Y75.3032
G01 X16.4821Y75.3149
G01 X16.4791Y75.3264
G01 X16.4787Y75.3324
G01 X16.4783Y75.3344
G01 X16.4785Y75.3365
G01 X16.4781Y75.3425
G01 X16.4781Y81.6925
G01 X16.4796Y81.7043
G01 X16.4803Y81.7162
G01 X16.4816Y81.72
G01 X16.4821Y81.7241
G01 X16.4864Y81.7351
G01 X16.4901Y81.7464
G01 X16.4923Y81.7499
G01 X16.4938Y81.7536
G01 X16.5007Y81.7632
G01 X16.5071Y81.7733
G01 X16.5101Y81.7761
G01 X16.5124Y81.7794
G01 X16.5216Y81.7869
G01 X16.5303Y81.7951
G01 X16.5338Y81.7971
G01 X16.5369Y81.7996
G01 X16.5477Y81.8047
G01 X16.5581Y81.8105
G01 X16.5621Y81.8115
G01 X16.5657Y81.8132
G01 X16.5774Y81.8154
G01 X16.5889Y81.8184
G01 X16.5949Y81.8188
G01 X16.5969Y81.8192
G01 X16.599Y81.819
G01 X16.605Y81.8194
G01 X23.5374Y81.8194
G01 X25.0506Y83.3326
G01 X25.0506Y88.3074
G01 X23.5374Y89.8206
G01 X20.07759Y89.8206
G01 X20.02675Y89.81306
G01 X19.9197Y89.8078
G01 X17.7353Y89.8078
G01 X17.62825Y89.81306
G01 X17.57741Y89.8206
G01 X17.5575Y89.8206
G01 X17.5457Y89.8221
G01 X17.5338Y89.8228
G01 X17.53Y89.8241
G01 X17.5259Y89.8246
G01 X17.5149Y89.8289
G01 X17.5036Y89.8326
G01 X17.50135Y89.83401
G01 X17.41825Y89.85483
G01 X17.31733Y89.89094
G01 X17.22044Y89.93677
G01 X17.12851Y89.99187
G01 X17.04242Y90.05572
G01 X16.963Y90.1277
G01 X16.95357Y90.1381
G01 X15.335Y90.1381
G01 X15.3252Y90.1393
G01 X15.3153Y90.1396
G01 X15.3095Y90.1413
G01 X15.3034Y90.1421
G01 X15.2942Y90.1457
G01 X15.2847Y90.1485
G01 X15.2795Y90.1515
G01 X15.2739Y90.1538
G01 X15.2659Y90.1596
G01 X15.2573Y90.1646
G01 X15.2498Y90.1712
G01 X15.2481Y90.1724
G01 X15.2474Y90.1734
G01 X15.2452Y90.1752
G01 X11.7527Y93.6677
G01 X11.7467Y93.6756
G01 X11.7399Y93.6828
G01 X11.737Y93.6881
G01 X11.7333Y93.6929
G01 X11.7293Y93.702
G01 X11.7245Y93.7106
G01 X11.723Y93.7165
G01 X11.7206Y93.7221
G01 X11.7191Y93.7319
G01 X11.7166Y93.7414
G01 X11.716Y93.7514
G01 X11.7156Y93.7535
G01 X11.7158Y93.7547
G01 X11.7156Y93.7575
G01 X11.7156Y117.8875
G01 X11.7168Y117.8973
G01 X11.7171Y117.9072
G01 X11.7188Y117.913
G01 X11.7196Y117.9191
G01 X11.7232Y117.9283
G01 X11.726Y117.9378
G01 X11.729Y117.943
G01 X11.7313Y117.9486
G01 X11.7313Y117.9486
M5
G01 X70.0005Y124.4418
M3
G01 X69.9919Y124.437
G01 X69.986Y124.4355
G01 X69.9804Y124.4331
G01 X69.9706Y124.4316
G01 X69.9611Y124.4291
G01 X69.9511Y124.4285
G01 X69.949Y124.4281
G01 X69.9478Y124.4283
G01 X69.945Y124.4281
G01 X64.23Y124.4281
G01 X64.2202Y124.4293
G01 X64.2103Y124.4296
G01 X64.2045Y124.4313
G01 X64.1984Y124.4321
G01 X64.1892Y124.4357
G01 X64.1797Y124.4385
G01 X64.1745Y124.4415
G01 X64.1689Y124.4438
G01 X64.1609Y124.4496
G01 X64.1523Y124.4546
G01 X64.1448Y124.4612
G01 X64.1431Y124.4624
G01 X64.1424Y124.4634
G01 X64.1402Y124.4652
G01 X61.9177Y126.6877
G01 X61.9117Y126.6956
G01 X61.9049Y126.7028
G01 X61.902Y126.7081
G01 X61.8983Y126.7129
G01 X61.8943Y126.722
G01 X61.8895Y126.7306
G01 X61.888Y126.7365
G01 X61.8856Y126.7421
G01 X61.8841Y126.7519
G01 X61.8816Y126.7614
G01 X61.881Y126.7714
G01 X61.8806Y126.7735
G01 X61.8808Y126.7747
G01 X61.8806Y126.7775
G01 X61.8806Y138.525
G01 X61.8818Y138.5348
G01 X61.8821Y138.5447
G01 X61.8838Y138.5505
G01 X61.8846Y138.5566
G01 X61.8882Y138.5658
G01 X61.891Y138.5753
G01 X61.894Y138.5805
G01 X61.8963Y138.5861
G01 X61.9021Y138.5941
G01 X61.9071Y138.6027
G01 X61.9137Y138.6102
G01 X61.9149Y138.6119
G01 X61.9159Y138.6126
G01 X61.9177Y138.6148
G01 X63.5052Y140.2023
G01 X63.5131Y140.2083
G01 X63.5203Y140.2151
G01 X63.5256Y140.218
G01 X63.5304Y140.2217
G01 X63.5395Y140.2257
G01 X63.5481Y140.2305
G01 X63.554Y140.232
G01 X63.5596Y140.2344
G01 X63.5694Y140.2359
G01 X63.5789Y140.2384
G01 X63.5889Y140.239
G01 X63.591Y140.2394
G01 X63.5922Y140.2392
G01 X63.595Y140.2394
G01 X68.9925Y140.2394
G01 X69.0023Y140.2382
G01 X69.0122Y140.2379
G01 X69.018Y140.2362
G01 X69.0241Y140.2354
G01 X69.0333Y140.2318
G01 X69.0428Y140.229
G01 X69.048Y140.226
G01 X69.0536Y140.2237
G01 X69.0616Y140.2179
