; This gcode is generated by my specialised python script for my PCB manufacturer project :))

; Machine Initialization Sequence...

G21 ; to set metric units
G90 ; to set absolute mode , G91 for incremental mode
G94 ; To set the active feed rate mode to units per minute mode

M5 ; disabling spindle PWM
C0 ; Choosing the empty tool slot in the multiplexer circuits

B1 ; Turn ON Machine

$H ; Homing :)
G10 P0 L20 X0.0Y0.0Z0.0 ; Force Reset current coordinates after homing


; The following gcode is the PCB trace laser marking gcode

M5 ; Being extra sure it won't light up before activation

; Getting and Activating Tool-1, The Tool.Laser
G00X165.0Y0.0Z10.5 ; Go to Tool-1 Home Pos
G00X188 ; Enter Female Kinematic Mount Home Pos
A1 ; Latch on Kinematic Mount
G4 P5 ; Wait for Kinematic Mount to fully attach
G00X92 ; Exit Female Kinematic Mount Home Pos
#TODO X0.0Y0.0Z0.0 ;  ;Add tool offset coordinate
C1 ; Choosing tool 1 in the choose demultiplexer circuits

F400 ; setting default feedrate

G00Z16 ; Moving to correct focal length Z position

S200 ; Setting Laser Power

; Number of passes: 1

; Pass number: 1
G01 X49.3912Y23.98
M3
G01 X49.3941Y23.9864
G01 X49.3997Y23.9934
G01 X49.4045Y24.001
G01 X49.4096Y24.0058
G01 X49.4139Y24.0112
G01 X49.4211Y24.0167
G01 X49.4276Y24.0228
G01 X49.4338Y24.0262
G01 X49.4393Y24.0304
G01 X49.4538Y24.0375
G01 X49.8533Y24.203
G01 X54.3466Y28.6963
G01 X54.3544Y28.7023
G01 X54.3617Y28.7091
G01 X54.367Y28.712
G01 X54.3717Y28.7157
G01 X54.3808Y28.7197
G01 X54.3895Y28.7245
G01 X54.3954Y28.726
G01 X54.4009Y28.7284
G01 X54.4107Y28.7299
G01 X54.4203Y28.7324
G01 X54.4303Y28.733
G01 X54.4323Y28.7334
G01 X54.4336Y28.7332
G01 X54.4364Y28.7334
G01 X55.28301Y28.7334
G01 X55.28712Y28.7421
G01 X55.3628Y28.86836
G01 X55.45048Y28.98659
G01 X55.54934Y29.09566
G01 X55.65841Y29.19452
G01 X55.77664Y29.2822
G01 X55.9029Y29.35788
G01 X56.03597Y29.42082
G01 X56.17457Y29.47041
G01 X56.31736Y29.50618
G01 X56.46297Y29.52778
G01 X56.61Y29.535
G01 X56.75703Y29.52778
G01 X56.90264Y29.50618
G01 X57.04543Y29.47041
G01 X57.18403Y29.42082
G01 X57.3171Y29.35788
G01 X57.44336Y29.2822
G01 X57.56159Y29.19452
G01 X57.67066Y29.09566
G01 X57.76952Y28.98659
G01 X57.8572Y28.86836
G01 X57.93288Y28.7421
G01 X57.93699Y28.7334
G01 X60.6886Y28.7334
G01 X60.6985Y28.7322
G01 X60.7084Y28.7319
G01 X60.7142Y28.7302
G01 X60.7202Y28.7294
G01 X60.7294Y28.7258
G01 X60.7389Y28.723
G01 X60.7441Y28.72
G01 X60.7498Y28.7177
G01 X60.7578Y28.7119
G01 X60.7663Y28.7069
G01 X60.7738Y28.7003
G01 X60.7755Y28.6991
G01 X60.7763Y28.6981
G01 X60.7784Y28.6963
G01 X62.6026Y26.872
G01 X63.0492Y26.4255
G01 X63.6093Y26.1934
G01 X69.6132Y26.1934
G01 X70.1733Y26.4255
G01 X71.743Y27.9951
G01 X72.1895Y28.4417
G01 X72.4216Y29.0018
G01 X72.4216Y29.2427
G01 X72.4228Y29.2526
G01 X72.4231Y29.2625
G01 X72.4248Y29.2683
G01 X72.4256Y29.2743
G01 X72.4292Y29.2835
G01 X72.432Y29.293
G01 X72.435Y29.2982
G01 X72.4373Y29.3039
G01 X72.4431Y29.3119
G01 X72.4481Y29.3204
G01 X72.4547Y29.328
G01 X72.4559Y29.3296
G01 X72.4569Y29.3304
G01 X72.4587Y29.3325
G01 X72.6848Y29.5586
G01 X73.0058Y30.3334
G01 X73.0058Y31.2608
G01 X73.0073Y31.2726
G01 X73.008Y31.2845
G01 X73.0093Y31.2883
G01 X73.0098Y31.2924
G01 X73.0141Y31.3034
G01 X73.0178Y31.3147
G01 X73.02Y31.3182
G01 X73.0215Y31.3219
G01 X73.0284Y31.3315
G01 X73.0348Y31.3416
G01 X73.0378Y31.3444
G01 X73.0401Y31.3477
G01 X73.0493Y31.3553
G01 X73.058Y31.3634
G01 X73.0615Y31.3654
G01 X73.0646Y31.3679
G01 X73.0754Y31.373
G01 X73.0858Y31.3788
G01 X73.0898Y31.3798
G01 X73.0934Y31.3815
G01 X73.1051Y31.3837
G01 X73.1166Y31.3867
G01 X73.1226Y31.3871
G01 X73.1246Y31.3875
G01 X73.1267Y31.3873
G01 X73.1327Y31.3877
G01 X76.3164Y31.3877
G01 X76.3263Y31.3865
G01 X76.3362Y31.3862
G01 X76.342Y31.3845
G01 X76.348Y31.3837
G01 X76.3572Y31.3801
G01 X76.3667Y31.3773
G01 X76.3719Y31.3743
G01 X76.3776Y31.372
G01 X76.3856Y31.3662
G01 X76.3941Y31.3612
G01 X76.4016Y31.3546
G01 X76.4033Y31.3534
G01 X76.4041Y31.3524
G01 X76.4062Y31.3506
G01 X76.6551Y31.1016
G01 X77.2288Y30.7704
G01 X77.8688Y30.5989
G01 X78.5312Y30.5989
G01 X79.1712Y30.7704
G01 X79.7449Y31.1016
G01 X80.2134Y31.5701
G01 X80.5446Y32.1438
G01 X80.7161Y32.7838
G01 X80.7161Y33.4462
G01 X80.5446Y34.0862
G01 X80.2134Y34.6599
G01 X79.7449Y35.1284
G01 X79.1712Y35.4596
G01 X78.5312Y35.6311
G01 X77.8688Y35.6311
G01 X77.2288Y35.4596
G01 X76.6551Y35.1284
G01 X76.4062Y34.8794
G01 X76.3984Y34.8734
G01 X76.3911Y34.8666
G01 X76.3858Y34.8637
G01 X76.3811Y34.86
G01 X76.372Y34.856
G01 X76.3633Y34.8512
G01 X76.3574Y34.8497
G01 X76.3519Y34.8473
G01 X76.3421Y34.8458
G01 X76.3325Y34.8433
G01 X76.3225Y34.8427
G01 X76.3205Y34.8423
G01 X76.3192Y34.8425
G01 X76.3164Y34.8423
G01 X72.4342Y34.8423
G01 X72.4224Y34.8438
G01 X72.4105Y34.8445
G01 X72.4067Y34.8458
G01 X72.4026Y34.8463
G01 X72.3916Y34.8506
G01 X72.3803Y34.8543
G01 X72.3768Y34.8565
G01 X72.3731Y34.858
G01 X72.3635Y34.8649
G01 X72.3534Y34.8713
G01 X72.3506Y34.8743
G01 X72.3473Y34.8766
G01 X72.3397Y34.8858
G01 X72.3316Y34.8945
G01 X72.3296Y34.898
G01 X72.3271Y34.9011
G01 X72.322Y34.9119
G01 X72.3162Y34.9223
G01 X72.3152Y34.9263
G01 X72.3135Y34.9299
G01 X72.3113Y34.9416
G01 X72.3083Y34.9531
G01 X72.3079Y34.9591
G01 X72.3075Y34.9611
G01 X72.3077Y34.9632
G01 X72.3073Y34.9692
G01 X72.3073Y37.6086
G01 X72.3074Y37.6095
G01 X72.3073Y37.6105
G01 X72.3093Y37.6249
G01 X72.3095Y37.6278
G01 X72.3098Y37.6288
G01 X72.3113Y37.6402
G01 X72.3116Y37.641
G01 X72.3117Y37.6419
G01 X72.3169Y37.6572
G01 X72.40597Y37.87214
G01 X72.38077Y37.91418
G01 X72.3456Y37.98853
G01 X72.31789Y38.06598
G01 X72.29791Y38.14578
G01 X72.28584Y38.22714
G01 X72.2818Y38.3093
G01 X72.2818Y39.9857
G01 X72.28584Y40.06786
G01 X72.29791Y40.14922
G01 X72.31789Y40.22902
G01 X72.3456Y40.30647
G01 X72.38077Y40.38082
G01 X72.42306Y40.45138
G01 X72.47206Y40.51745
G01 X72.485Y40.53172
G01 X72.485Y41.10697
G01 X71.58697Y42.005
G01 X69.57303Y42.005
G01 X68.675Y41.10697
G01 X68.675Y40.53172
G01 X68.68794Y40.51745
G01 X68.73694Y40.45138
G01 X68.77923Y40.38082
G01 X68.8144Y40.30647
G01 X68.84211Y40.22902
G01 X68.86209Y40.14922
G01 X68.87416Y40.06786
G01 X68.8782Y39.9857
G01 X68.8782Y38.3093
G01 X68.87416Y38.22714
G01 X68.86209Y38.14578
G01 X68.84211Y38.06598
G01 X68.8144Y37.98853
G01 X68.77923Y37.91418
G01 X68.75403Y37.87214
G01 X68.8431Y37.6572
G01 X68.8433Y37.6563
G01 X68.8438Y37.6555
G01 X68.8475Y37.641
G01 X68.8515Y37.6265
G01 X68.8515Y37.6256
G01 X68.8517Y37.6247
G01 X68.8527Y37.6086
G01 X68.8527Y33.66493
G01 X68.88428Y33.63008
G01 X68.94813Y33.54399
G01 X69.00323Y33.45206
G01 X69.04906Y33.35517
G01 X69.08517Y33.25425
G01 X69.11121Y33.15028
G01 X69.12694Y33.04425
G01 X69.1322Y32.9372
G01 X69.1322Y30.7528
G01 X69.12694Y30.64575
G01 X69.11121Y30.53972
G01 X69.08517Y30.43575
G01 X69.04906Y30.33483
G01 X69.00323Y30.23794
G01 X68.94813Y30.14601
G01 X68.89597Y30.07568
G01 X69.0442Y29.7179
G01 X69.045Y29.715
G01 X69.0463Y29.7124
G01 X69.0492Y29.6997
G01 X69.0526Y29.6872
G01 X69.0526Y29.6842
G01 X69.0533Y29.6814
G01 X69.0529Y29.6684
G01 X69.0531Y29.6554
G01 X69.0524Y29.6525
G01 X69.0523Y29.6496
G01 X69.0487Y29.6371
G01 X69.0457Y29.6245
G01 X69.0443Y29.6219
G01 X69.0435Y29.619
G01 X69.0369Y29.6079
G01 X69.0308Y29.5964
G01 X69.0288Y29.5942
G01 X69.0273Y29.5916
G01 X69.0167Y29.5796
G01 X68.7159Y29.2787
G01 X68.7081Y29.2727
G01 X68.7008Y29.2659
G01 X68.6955Y29.263
G01 X68.6908Y29.2593
G01 X68.6817Y29.2553
G01 X68.673Y29.2505
G01 X68.6671Y29.249
G01 X68.6616Y29.2466
G01 X68.6518Y29.2451
G01 X68.6422Y29.2426
G01 X68.6322Y29.242
G01 X68.6302Y29.2416
G01 X68.6289Y29.2418
G01 X68.6261Y29.2416
G01 X66.9592Y29.2416
G01 X66.9454Y29.2433
G01 X66.9316Y29.2446
G01 X66.9297Y29.2453
G01 X66.9277Y29.2456
G01 X66.9148Y29.2507
G01 X66.9017Y29.2554
G01 X66.9Y29.2565
G01 X66.8981Y29.2573
G01 X66.8869Y29.2654
G01 X66.8754Y29.2732
G01 X66.874Y29.2748
G01 X66.8724Y29.2759
G01 X66.8635Y29.2867
G01 X66.8543Y29.2971
G01 X66.8534Y29.2989
G01 X66.8521Y29.3004
G01 X66.8462Y29.313
G01 X66.8399Y29.3254
G01 X66.8394Y29.3274
G01 X66.8386Y29.3292
G01 X66.8359Y29.3429
G01 X66.8329Y29.3564
G01 X66.833Y29.3585
G01 X66.8326Y29.3604
G01 X66.8334Y29.3743
G01 X66.8339Y29.3882
G01 X66.8344Y29.3902
G01 X66.8346Y29.3922
G01 X66.8388Y29.4054
G01 X66.8427Y29.4188
G01 X66.8437Y29.4205
G01 X66.8444Y29.4224
G01 X66.8518Y29.4342
G01 X66.8589Y29.4462
G01 X66.8607Y29.4483
G01 X66.8614Y29.4493
G01 X66.8629Y29.4507
G01 X66.8695Y29.4582
G01 X66.9698Y29.5586
G01 X67.18403Y30.07568
G01 X67.13187Y30.14601
G01 X67.07677Y30.23794
G01 X67.03094Y30.33483
G01 X66.99483Y30.43575
G01 X66.96879Y30.53972
G01 X66.95306Y30.64575
G01 X66.9478Y30.7528
G01 X66.9478Y32.9372
G01 X66.95306Y33.04425
G01 X66.96879Y33.15028
G01 X66.99483Y33.25425
G01 X67.03094Y33.35517
G01 X67.07677Y33.45206
G01 X67.13187Y33.54399
G01 X67.19572Y33.63008
G01 X67.2273Y33.66493
G01 X67.2273Y37.6086
G01 X67.2274Y37.6095
G01 X67.2273Y37.6105
G01 X67.2293Y37.6249
G01 X67.2295Y37.6278
G01 X67.2298Y37.6288
G01 X67.2313Y37.6402
G01 X67.2316Y37.641
G01 X67.2317Y37.6419
G01 X67.2369Y37.6572
G01 X67.32597Y37.87214
G01 X67.30077Y37.91418
G01 X67.2656Y37.98853
G01 X67.23789Y38.06598
G01 X67.21791Y38.14578
G01 X67.20584Y38.22714
G01 X67.2018Y38.3093
G01 X67.2018Y39.9857
G01 X67.20584Y40.06786
G01 X67.21791Y40.14922
G01 X67.23789Y40.22902
G01 X67.2656Y40.30647
G01 X67.30077Y40.38082
G01 X67.34306Y40.45138
G01 X67.39206Y40.51745
G01 X67.405Y40.53172
G01 X67.405Y41.37
G01 X67.40806Y41.43224
G01 X67.4172Y41.49388
G01 X67.43234Y41.55433
G01 X67.45334Y41.613
G01 X67.47998Y41.66934
G01 X67.51202Y41.72279
G01 X67.54914Y41.77284
G01 X67.59099Y41.81901
G01 X68.86099Y43.08901
G01 X68.90716Y43.13086
G01 X68.95721Y43.16798
G01 X69.01066Y43.20002
G01 X69.067Y43.22666
G01 X69.12567Y43.24766
G01 X69.18612Y43.2628
G01 X69.24776Y43.27194
G01 X69.31Y43.275
G01 X71.85Y43.275
G01 X71.91224Y43.27194
G01 X71.97388Y43.2628
G01 X72.03433Y43.24766
G01 X72.093Y43.22666
G01 X72.14934Y43.20002
G01 X72.20279Y43.16798
G01 X72.25284Y43.13086
G01 X72.29901Y43.08901
G01 X73.56901Y41.81901
G01 X73.61086Y41.77284
G01 X73.64798Y41.72279
G01 X73.68002Y41.66934
G01 X73.70666Y41.613
G01 X73.72766Y41.55433
G01 X73.7428Y41.49388
G01 X73.75194Y41.43224
G01 X73.755Y41.37
G01 X73.755Y40.53172
G01 X73.76794Y40.51745
G01 X73.81694Y40.45138
G01 X73.85923Y40.38082
G01 X73.8944Y40.30647
G01 X73.92211Y40.22902
G01 X73.94209Y40.14922
G01 X73.95416Y40.06786
G01 X73.9582Y39.9857
G01 X73.9582Y38.3093
G01 X73.95416Y38.22714
G01 X73.94209Y38.14578
G01 X73.92211Y38.06598
G01 X73.8944Y37.98853
G01 X73.85923Y37.91418
G01 X73.83402Y37.87212
G01 X74.088Y37.2589
G01 X74.6096Y36.7373
G01 X75.2912Y36.455
G01 X76.0288Y36.455
G01 X76.7104Y36.7373
G01 X76.8403Y36.8672
G01 X76.8497Y36.8745
G01 X76.8586Y36.8824
G01 X76.8622Y36.8842
G01 X76.8654Y36.8867
G01 X76.8763Y36.8914
G01 X76.8869Y36.8968
G01 X76.8908Y36.8977
G01 X76.8946Y36.8993
G01 X76.9063Y36.9012
G01 X76.9179Y36.9038
G01 X76.922Y36.9037
G01 X76.926Y36.9043
G01 X76.9378Y36.9032
G01 X76.9497Y36.9028
G01 X76.9536Y36.9017
G01 X76.9576Y36.9013
G01 X76.9688Y36.8973
G01 X76.9803Y36.894
G01 X76.9838Y36.892
G01 X76.9876Y36.8906
G01 X76.9974Y36.8839
G01 X77.0077Y36.8778
G01 X77.0122Y36.8739
G01 X77.0139Y36.8727
G01 X77.0152Y36.8712
G01 X77.0198Y36.8672
G01 X77.1496Y36.7373
G01 X77.8312Y36.455
G01 X78.5688Y36.455
G01 X79.2504Y36.7373
G01 X79.3803Y36.8672
G01 X79.3897Y36.8745
G01 X79.3986Y36.8824
G01 X79.4022Y36.8842
G01 X79.4054Y36.8867
G01 X79.4163Y36.8914
G01 X79.4269Y36.8968
G01 X79.4308Y36.8977
G01 X79.4346Y36.8993
G01 X79.4463Y36.9012
G01 X79.4579Y36.9038
G01 X79.462Y36.9037
G01 X79.466Y36.9043
G01 X79.4778Y36.9032
G01 X79.4897Y36.9028
G01 X79.4936Y36.9017
G01 X79.4976Y36.9013
G01 X79.5088Y36.8973
G01 X79.5203Y36.894
G01 X79.5238Y36.892
G01 X79.5276Y36.8906
G01 X79.5374Y36.8839
G01 X79.5477Y36.8778
G01 X79.5522Y36.8739
G01 X79.5539Y36.8727
G01 X79.5552Y36.8712
G01 X79.5598Y36.8672
G01 X79.6896Y36.7373
G01 X80.3712Y36.455
G01 X81.1088Y36.455
G01 X81.7904Y36.7373
G01 X82.312Y37.2589
G01 X82.56598Y37.87212
G01 X82.54077Y37.91418
G01 X82.5056Y37.98853
G01 X82.47789Y38.06598
G01 X82.45791Y38.14578
G01 X82.44584Y38.22714
G01 X82.4418Y38.3093
G01 X82.4418Y39.9857
G01 X82.44584Y40.06786
G01 X82.45791Y40.14922
G01 X82.47789Y40.22902
G01 X82.5056Y40.30647
G01 X82.54077Y40.38082
G01 X82.58306Y40.45138
G01 X82.63206Y40.51745
G01 X82.6873Y40.5784
G01 X82.74825Y40.63364
G01 X82.81432Y40.68264
G01 X82.88488Y40.72493
G01 X82.95923Y40.7601
G01 X83.03668Y40.78781
G01 X83.11648Y40.80779
G01 X83.19784Y40.81986
G01 X83.28Y40.8239
G01 X83.36216Y40.81986
G01 X83.44352Y40.80779
G01 X83.52332Y40.78781
G01 X83.60077Y40.7601
G01 X83.67512Y40.72493
G01 X83.74568Y40.68264
G01 X83.81175Y40.63364
G01 X83.8727Y40.5784
G01 X83.92794Y40.51745
G01 X83.97694Y40.45138
G01 X84.01923Y40.38082
G01 X84.0544Y40.30647
G01 X84.08211Y40.22902
G01 X84.10209Y40.14922
G01 X84.11416Y40.06786
G01 X84.1182Y39.9857
G01 X84.1182Y38.3093
G01 X84.11416Y38.22714
G01 X84.10209Y38.14578
G01 X84.08211Y38.06598
G01 X84.0544Y37.98853
G01 X84.01923Y37.91418
G01 X83.99402Y37.87212
G01 X84.248Y37.2589
G01 X84.7696Y36.7373
G01 X85.4512Y36.455
G01 X86.1888Y36.455
G01 X86.8704Y36.7373
G01 X87.0003Y36.8672
G01 X87.0097Y36.8745
G01 X87.0186Y36.8824
G01 X87.0222Y36.8842
G01 X87.0254Y36.8867
G01 X87.0363Y36.8914
G01 X87.0469Y36.8968
G01 X87.0508Y36.8977
G01 X87.0546Y36.8993
G01 X87.0663Y36.9012
G01 X87.0779Y36.9038
G01 X87.082Y36.9037
G01 X87.086Y36.9043
G01 X87.0978Y36.9032
G01 X87.1097Y36.9028
G01 X87.1136Y36.9017
G01 X87.1176Y36.9013
G01 X87.1288Y36.8973
G01 X87.1403Y36.894
G01 X87.1438Y36.892
G01 X87.1476Y36.8906
G01 X87.1574Y36.8839
G01 X87.1677Y36.8778
G01 X87.1722Y36.8739
G01 X87.1739Y36.8727
G01 X87.1752Y36.8712
G01 X87.1798Y36.8672
G01 X87.3096Y36.7373
G01 X87.9912Y36.455
G01 X88.7288Y36.455
G01 X89.4104Y36.7373
G01 X89.932Y37.2589
G01 X90.18598Y37.87212
G01 X90.16077Y37.91418
G01 X90.1256Y37.98853
G01 X90.09789Y38.06598
G01 X90.07791Y38.14578
G01 X90.06584Y38.22714
G01 X90.0618Y38.3093
G01 X90.0618Y39.9857
G01 X90.06584Y40.06786
G01 X90.07791Y40.14922
G01 X90.09789Y40.22902
G01 X90.1256Y40.30647
G01 X90.16077Y40.38082
G01 X90.20306Y40.45138
G01 X90.25206Y40.51745
G01 X90.3073Y40.5784
G01 X90.36825Y40.63364
G01 X90.43432Y40.68264
G01 X90.50488Y40.72493
G01 X90.57923Y40.7601
G01 X90.65668Y40.78781
G01 X90.73648Y40.80779
G01 X90.81784Y40.81986
G01 X90.9Y40.8239
G01 X90.98216Y40.81986
G01 X91.06352Y40.80779
G01 X91.14332Y40.78781
G01 X91.22077Y40.7601
G01 X91.29512Y40.72493
G01 X91.36568Y40.68264
G01 X91.43175Y40.63364
G01 X91.4927Y40.5784
G01 X91.54794Y40.51745
G01 X91.59694Y40.45138
G01 X91.63923Y40.38082
G01 X91.6744Y40.30647
G01 X91.70211Y40.22902
G01 X91.72209Y40.14922
G01 X91.73416Y40.06786
G01 X91.7382Y39.9857
G01 X91.7382Y38.3093
G01 X91.73416Y38.22714
G01 X91.72209Y38.14578
G01 X91.70211Y38.06598
G01 X91.6744Y37.98853
G01 X91.63923Y37.91418
G01 X91.61402Y37.87212
G01 X91.868Y37.2589
G01 X92.3896Y36.7373
G01 X93.0712Y36.455
G01 X93.8088Y36.455
G01 X94.4904Y36.7373
G01 X95.012Y37.2589
G01 X95.26598Y37.87212
G01 X95.24077Y37.91418
G01 X95.2056Y37.98853
G01 X95.17789Y38.06598
G01 X95.15791Y38.14578
G01 X95.14584Y38.22714
G01 X95.1418Y38.3093
G01 X95.1418Y39.9857
G01 X95.14584Y40.06786
G01 X95.15791Y40.14922
G01 X95.17789Y40.22902
G01 X95.2056Y40.30647
G01 X95.24077Y40.38082
G01 X95.28306Y40.45138
G01 X95.33206Y40.51745
G01 X95.3873Y40.5784
G01 X95.44825Y40.63364
G01 X95.51432Y40.68264
G01 X95.58488Y40.72493
G01 X95.65923Y40.7601
G01 X95.73668Y40.78781
G01 X95.81648Y40.80779
G01 X95.89784Y40.81986
G01 X95.98Y40.8239
G01 X96.06216Y40.81986
G01 X96.14352Y40.80779
G01 X96.22332Y40.78781
G01 X96.30077Y40.7601
G01 X96.37512Y40.72493
G01 X96.44568Y40.68264
G01 X96.51175Y40.63364
G01 X96.5727Y40.5784
G01 X96.62794Y40.51745
G01 X96.67694Y40.45138
G01 X96.71923Y40.38082
G01 X96.7544Y40.30647
G01 X96.78211Y40.22902
G01 X96.80209Y40.14922
G01 X96.81416Y40.06786
G01 X96.8182Y39.9857
G01 X96.8182Y38.3093
G01 X96.81416Y38.22714
G01 X96.80209Y38.14578
G01 X96.78211Y38.06598
G01 X96.7544Y37.98853
G01 X96.71923Y37.91418
G01 X96.69402Y37.87212
G01 X96.948Y37.2589
G01 X97.4696Y36.7373
G01 X98.1512Y36.455
G01 X98.8888Y36.455
G01 X99.5704Y36.7373
G01 X100.092Y37.2589
G01 X100.3743Y37.9405
G01 X100.3743Y40.3545
G01 X100.3077Y40.5152
G01 X100.3075Y40.5161
G01 X100.307Y40.5169
G01 X100.3033Y40.5313
G01 X100.2993Y40.5458
G01 X100.2993Y40.5468
G01 X100.2991Y40.5477
G01 X100.2981Y40.5637
G01 X100.2981Y50.5775
G01 X100.2993Y50.5873
G01 X100.2996Y50.5972
G01 X100.3013Y50.603
G01 X100.3021Y50.6091
G01 X100.3057Y50.6183
G01 X100.3085Y50.6278
G01 X100.3115Y50.633
G01 X100.3138Y50.6386
G01 X100.3196Y50.6466
G01 X100.3246Y50.6552
G01 X100.3312Y50.6627
G01 X100.3324Y50.6644
G01 X100.3334Y50.6651
G01 X100.3352Y50.6673
G01 X102.2402Y52.5723
G01 X102.2481Y52.5783
G01 X102.2553Y52.5851
G01 X102.2606Y52.588
G01 X102.2654Y52.5917
G01 X102.2745Y52.5957
G01 X102.2831Y52.6005
G01 X102.289Y52.602
G01 X102.2946Y52.6044
G01 X102.3044Y52.6059
G01 X102.3139Y52.6084
G01 X102.3239Y52.609
G01 X102.326Y52.6094
G01 X102.3272Y52.6092
G01 X102.33Y52.6094
G01 X123.5499Y52.6094
G01 X125.4177Y54.4773
G01 X125.4256Y54.4833
G01 X125.4328Y54.4901
G01 X125.4381Y54.493
G01 X125.4429Y54.4967
G01 X125.452Y54.5007
G01 X125.4606Y54.5055
G01 X125.4665Y54.507
G01 X125.4721Y54.5094
G01 X125.4819Y54.5109
G01 X125.4914Y54.5134
G01 X125.5014Y54.514
G01 X125.5035Y54.5144
G01 X125.5047Y54.5142
G01 X125.5075Y54.5144
G01 X131.54Y54.5144
G01 X131.5518Y54.5129
G01 X131.5637Y54.5122
G01 X131.5675Y54.5109
G01 X131.5716Y54.5104
G01 X131.5826Y54.5061
G01 X131.5939Y54.5024
G01 X131.5974Y54.5002
G01 X131.6011Y54.4987
G01 X131.6107Y54.4918
G01 X131.6208Y54.4854
G01 X131.6236Y54.4824
G01 X131.6269Y54.4801
G01 X131.6344Y54.4709
G01 X131.6426Y54.4622
G01 X131.6446Y54.4587
G01 X131.6471Y54.4556
G01 X131.6522Y54.4448
G01 X131.658Y54.4344
G01 X131.659Y54.4304
G01 X131.6607Y54.4268
G01 X131.6629Y54.4151
G01 X131.6659Y54.4036
G01 X131.6663Y54.3976
G01 X131.6667Y54.3956
G01 X131.6665Y54.3935
G01 X131.6669Y54.3875
G01 X131.6669Y48.99
G01 X131.6657Y48.9802
G01 X131.6654Y48.9703
G01 X131.6637Y48.9645
G01 X131.6629Y48.9584
G01 X131.6593Y48.9492
G01 X131.6565Y48.9397
G01 X131.6535Y48.9345
G01 X131.6512Y48.9289
G01 X131.6454Y48.9209
G01 X131.6404Y48.9123
G01 X131.6338Y48.9048
G01 X131.6326Y48.9031
G01 X131.6316Y48.9024
G01 X131.6297Y48.9003
G01 X130.6772Y47.9478
G01 X130.6694Y47.9417
G01 X130.6622Y47.9349
G01 X130.6569Y47.932
G01 X130.6521Y47.9283
G01 X130.643Y47.9243
G01 X130.6344Y47.9195
G01 X130.6285Y47.918
G01 X130.6229Y47.9156
G01 X130.6131Y47.9141
G01 X130.6036Y47.9116
G01 X130.5936Y47.911
G01 X130.5915Y47.9106
G01 X130.5903Y47.9108
G01 X130.5875Y47.9106
G01 X127.7826Y47.9106
G01 X123.4119Y43.5399
G01 X123.4119Y17.4305
G01 X123.4104Y17.4187
G01 X123.4097Y17.4068
G01 X123.4084Y17.403
G01 X123.4079Y17.3989
G01 X123.4036Y17.3879
G01 X123.3999Y17.3766
G01 X123.3977Y17.3731
G01 X123.3962Y17.3694
G01 X123.3892Y17.3598
G01 X123.3829Y17.3497
G01 X123.3799Y17.3469
G01 X123.3776Y17.3436
G01 X123.3684Y17.336
G01 X123.3597Y17.3279
G01 X123.3562Y17.3259
G01 X123.3531Y17.3234
G01 X123.3423Y17.3183
G01 X123.3319Y17.3125
G01 X123.3279Y17.3115
G01 X123.3243Y17.3098
G01 X123.3126Y17.3076
G01 X123.3011Y17.3046
G01 X123.295Y17.3042
G01 X123.293Y17.3038
G01 X123.291Y17.304
G01 X123.285Y17.3036
G01 X113.3723Y17.3036
G01 X113.3673Y17.3042
G01 X113.3624Y17.304
G01 X113.3516Y17.3062
G01 X113.3407Y17.3076
G01 X113.3361Y17.3094
G01 X113.3312Y17.3104
G01 X113.3213Y17.3152
G01 X113.3111Y17.3193
G01 X113.3071Y17.3222
G01 X113.3026Y17.3244
G01 X113.2943Y17.3315
G01 X113.2854Y17.3379
G01 X113.2822Y17.3418
G01 X113.2784Y17.345
G01 X113.2721Y17.354
G01 X113.2651Y17.3624
G01 X113.263Y17.3669
G01 X113.2601Y17.371
G01 X113.2562Y17.3813
G01 X113.2516Y17.3912
G01 X113.2506Y17.3961
G01 X113.2489Y17.4007
G01 X113.2476Y17.4117
G01 X113.2456Y17.4224
G01 X113.2459Y17.4274
G01 X113.2453Y17.4323
G01 X113.2469Y17.4432
G01 X113.2476Y17.4542
G01 X113.2491Y17.4589
G01 X113.2498Y17.4638
G01 X113.255Y17.4791
G01 X113.5188Y18.1159
G01 X113.5188Y18.9041
G01 X113.2157Y19.6357
G01 X113.2129Y19.6387
G01 X113.21Y19.644
G01 X113.2063Y19.6488
G01 X113.2023Y19.6579
G01 X113.1975Y19.6666
G01 X113.196Y19.6724
G01 X113.1936Y19.678
G01 X113.1921Y19.6878
G01 X113.1896Y19.6974
G01 X113.189Y19.7074
G01 X113.1886Y19.7094
G01 X113.1888Y19.7106
G01 X113.1886Y19.7134
G01 X113.1886Y25.1884
G01 X112.9372Y25.7953
G01 X110.8853Y27.8472
G01 X110.2784Y28.0986
G01 X109.48834Y28.0986
G01 X109.47644Y28.09147
G01 X109.38631Y28.04884
G01 X109.29243Y28.01525
G01 X109.19571Y27.99102
G01 X109.09709Y27.97639
G01 X108.9975Y27.9715
G01 X108.89791Y27.97639
G01 X108.79929Y27.99102
G01 X108.70257Y28.01525
G01 X108.60869Y28.04884
G01 X108.51856Y28.09147
G01 X108.50666Y28.0986
G01 X104.9715Y28.0986
G01 X104.9617Y28.0998
G01 X104.9517Y28.1001
G01 X104.9459Y28.1018
G01 X104.9399Y28.1026
G01 X104.9307Y28.1062
G01 X104.9212Y28.109
G01 X104.916Y28.112
G01 X104.9103Y28.1143
G01 X104.9023Y28.1201
G01 X104.8938Y28.1251
G01 X104.8863Y28.1317
G01 X104.8846Y28.1329
G01 X104.8838Y28.1339
G01 X104.8817Y28.1357
G01 X103.2616Y29.7559
G01 X103.2598Y29.7582
G01 X103.2575Y29.7601
G01 X103.2501Y29.7707
G01 X103.2421Y29.781
G01 X103.2409Y29.7837
G01 X103.2392Y29.7861
G01 X103.2346Y29.7983
G01 X103.2295Y29.8102
G01 X103.229Y29.8131
G01 X103.2279Y29.8159
G01 X103.2265Y29.8288
G01 X103.2245Y29.8416
G01 X103.2247Y29.8445
G01 X103.2244Y29.8475
G01 X103.2262Y29.8603
G01 X103.2275Y29.8733
G01 X103.2285Y29.876
G01 X103.2289Y29.879
G01 X103.2318Y29.8875
G01 X103.2318Y30.6263
G01 X102.9495Y31.3079
G01 X102.4279Y31.8295
G01 X101.7463Y32.1118
G01 X101.0087Y32.1118
G01 X100.3271Y31.8295
G01 X100.1972Y31.6996
G01 X100.1878Y31.6923
G01 X100.1789Y31.6844
G01 X100.1753Y31.6826
G01 X100.1721Y31.6801
G01 X100.1612Y31.6754
G01 X100.1506Y31.67
G01 X100.1467Y31.6691
G01 X100.1429Y31.6675
G01 X100.1312Y31.6656
G01 X100.1196Y31.663
G01 X100.1155Y31.6631
G01 X100.1115Y31.6625
G01 X100.0997Y31.6636
G01 X100.0878Y31.664
G01 X100.0839Y31.6651
G01 X100.0799Y31.6655
G01 X100.0687Y31.6695
G01 X100.0572Y31.6728
G01 X100.0537Y31.6748
G01 X100.0499Y31.6762
G01 X100.0401Y31.6829
G01 X100.0298Y31.689
G01 X100.0253Y31.6929
G01 X100.0236Y31.6941
G01 X100.0223Y31.6956
G01 X100.0177Y31.6996
G01 X99.8879Y31.8295
G01 X99.2063Y32.1118
G01 X98.4687Y32.1118
G01 X97.7871Y31.8295
G01 X97.6573Y31.6996
G01 X97.6478Y31.6923
G01 X97.6389Y31.6844
G01 X97.6353Y31.6826
G01 X97.6321Y31.6801
G01 X97.6212Y31.6754
G01 X97.6106Y31.67
G01 X97.6067Y31.6691
G01 X97.6029Y31.6675
G01 X97.5912Y31.6656
G01 X97.5796Y31.663
G01 X97.5755Y31.6631
G01 X97.5715Y31.6625
G01 X97.5597Y31.6636
G01 X97.5478Y31.664
G01 X97.5439Y31.6651
G01 X97.5399Y31.6655
G01 X97.5286Y31.6695
G01 X97.5172Y31.6728
G01 X97.5138Y31.6748
G01 X97.5099Y31.6762
G01 X97.5001Y31.6829
G01 X97.4898Y31.6889
G01 X97.4853Y31.6929
G01 X97.4836Y31.6941
G01 X97.4823Y31.6956
G01 X97.4778Y31.6996
G01 X97.3479Y31.8295
G01 X96.6663Y32.1118
G01 X95.9287Y32.1118
G01 X95.2471Y31.8295
G01 X95.1173Y31.6996
G01 X95.1078Y31.6923
G01 X95.0989Y31.6844
G01 X95.0953Y31.6826
G01 X95.0921Y31.6801
G01 X95.0812Y31.6754
G01 X95.0706Y31.67
G01 X95.0667Y31.6691
G01 X95.0629Y31.6675
G01 X95.0512Y31.6656
G01 X95.0396Y31.663
G01 X95.0355Y31.6631
G01 X95.0315Y31.6625
G01 X95.0197Y31.6636
G01 X95.0078Y31.664
G01 X95.0039Y31.6651
G01 X94.9999Y31.6655
G01 X94.9886Y31.6695
G01 X94.9772Y31.6728
G01 X94.9738Y31.6748
G01 X94.9699Y31.6762
G01 X94.9601Y31.6829
G01 X94.9498Y31.6889
G01 X94.9453Y31.6929
G01 X94.9436Y31.6941
G01 X94.9423Y31.6956
G01 X94.9378Y31.6996
G01 X94.8079Y31.8295
G01 X94.1263Y32.1118
G01 X93.3887Y32.1118
G01 X92.7071Y31.8295
G01 X92.4881Y31.6104
G01 X92.4842Y31.6074
G01 X92.4808Y31.6037
G01 X92.4716Y31.5977
G01 X92.463Y31.5909
G01 X92.4584Y31.589
G01 X92.4542Y31.5862
G01 X92.4439Y31.5827
G01 X92.4338Y31.5783
G01 X92.4289Y31.5775
G01 X92.4242Y31.5759
G01 X92.4132Y31.575
G01 X92.4024Y31.5733
G01 X92.3974Y31.5738
G01 X92.3925Y31.5734
G01 X92.3816Y31.5753
G01 X92.3707Y31.5763
G01 X92.366Y31.578
G01 X92.3611Y31.5788
G01 X92.3511Y31.5833
G01 X92.3408Y31.5871
G01 X92.3367Y31.5898
G01 X92.3321Y31.5919
G01 X92.3236Y31.5987
G01 X92.3145Y31.6049
G01 X92.3112Y31.6086
G01 X92.3073Y31.6117
G01 X92.3007Y31.6205
G01 X92.2934Y31.6288
G01 X92.2911Y31.6332
G01 X92.2882Y31.6371
G01 X92.2811Y31.6516
G01 X92.2621Y31.6973
G01 X91.7048Y32.2546
G01 X90.9766Y32.5563
G01 X90.1884Y32.5563
G01 X89.4568Y32.2532
G01 X89.4538Y32.2504
G01 X89.4485Y32.2475
G01 X89.4437Y32.2438
G01 X89.4346Y32.2398
G01 X89.4259Y32.235
G01 X89.4201Y32.2335
G01 X89.4145Y32.2311
G01 X89.4047Y32.2296
G01 X89.3951Y32.2271
G01 X89.3851Y32.2265
G01 X89.3831Y32.2261
G01 X89.3819Y32.2263
G01 X89.3791Y32.2261
G01 X89.2459Y32.2261
G01 X89.2361Y32.2273
G01 X89.2262Y32.2276
G01 X89.2204Y32.2293
G01 X89.2144Y32.2301
G01 X89.2052Y32.2337
G01 X89.1957Y32.2365
G01 X89.1905Y32.2395
G01 X89.1848Y32.2418
G01 X89.1768Y32.2476
G01 X89.1683Y32.2526
G01 X89.167Y32.2537
G01 X88.4366Y32.5563
G01 X87.6484Y32.5563
G01 X86.9202Y32.2546
G01 X86.3629Y31.6973
G01 X86.18186Y31.26034
G01 X86.185Y31.2575
G01 X86.24861Y31.18732
G01 X86.30503Y31.11124
G01 X86.35373Y31.02999
G01 X86.39423Y30.94437
G01 X86.42614Y30.85518
G01 X86.44915Y30.7633
G01 X86.46305Y30.66961
G01 X86.4677Y30.575
G01 X86.46305Y30.48039
G01 X86.44915Y30.3867
G01 X86.42614Y30.29482
G01 X86.39423Y30.20563
G01 X86.35373Y30.12001
G01 X86.30503Y30.03876
G01 X86.24861Y29.96268
G01 X86.185Y29.8925
G01 X86.18186Y29.88966
G01 X86.3629Y29.4527
G01 X86.9202Y28.8954
G01 X87.6484Y28.5937
G01 X88.4366Y28.5937
G01 X88.8771Y28.7762
G01 X88.8885Y28.7793
G01 X88.8998Y28.7832
G01 X88.9038Y28.7835
G01 X88.9077Y28.7846
G01 X88.9196Y28.7848
G01 X88.9315Y28.7857
G01 X88.9355Y28.785
G01 X88.9395Y28.7851
G01 X88.9511Y28.7823
G01 X88.9628Y28.7803
G01 X88.9665Y28.7786
G01 X88.9705Y28.7777
G01 X88.981Y28.7721
G01 X88.9918Y28.7672
G01 X88.995Y28.7647
G01 X88.9986Y28.7628
G01 X89.0074Y28.7548
G01 X89.0167Y28.7473
G01 X89.0191Y28.7441
G01 X89.0221Y28.7414
G01 X89.0286Y28.7314
G01 X89.0358Y28.7219
G01 X89.0385Y28.7165
G01 X89.0396Y28.7148
G01 X89.0402Y28.7129
G01 X89.0429Y28.7075
G01 X89.1828Y28.3697
G01 X91.2347Y26.3178
G01 X91.8416Y26.0664
G01 X99.0535Y26.0664
G01 X99.0633Y26.0652
G01 X99.0733Y26.0649
G01 X99.0791Y26.0632
G01 X99.0851Y26.0624
G01 X99.0943Y26.0588
G01 X99.1038Y26.056
G01 X99.109Y26.053
G01 X99.1147Y26.0507
G01 X99.1227Y26.0449
G01 X99.1312Y26.0399
G01 X99.1387Y26.0333
G01 X99.1404Y26.0321
G01 X99.1412Y26.0311
G01 X99.1433Y26.0293
G01 X99.6893Y25.4833
G01 X99.6953Y25.4755
G01 X99.7021Y25.4682
G01 X99.705Y25.4629
G01 X99.7087Y25.4582
G01 X99.7127Y25.4491
G01 X99.7175Y25.4404
G01 X99.719Y25.4345
G01 X99.7214Y25.429
G01 X99.7229Y25.4192
G01 X99.7254Y25.4096
G01 X99.726Y25.3996
G01 X99.7264Y25.3976
G01 X99.7262Y25.3963
G01 X99.7264Y25.3935
G01 X99.7264Y24.4663
G01 X99.7258Y24.4614
G01 X99.726Y24.4564
G01 X99.7238Y24.4457
G01 X99.7224Y24.4347
G01 X99.7206Y24.4301
G01 X99.7196Y24.4253
G01 X99.7148Y24.4154
G01 X99.7107Y24.4052
G01 X99.7078Y24.4012
G01 X99.7056Y24.3967
G01 X99.6985Y24.3883
G01 X99.6921Y24.3794
G01 X99.6882Y24.3763
G01 X99.685Y24.3725
G01 X99.676Y24.3662
G01 X99.6676Y24.3592
G01 X99.6631Y24.357
G01 X99.659Y24.3542
G01 X99.6487Y24.3503
G01 X99.6388Y24.3456
G01 X99.6339Y24.3447
G01 X99.6293Y24.3429
G01 X99.6183Y24.3417
G01 X99.6076Y24.3396
G01 X99.6026Y24.3399
G01 X99.5977Y24.3394
G01 X99.5868Y24.3409
G01 X99.5758Y24.3416
G01 X99.5711Y24.3431
G01 X99.5662Y24.3438
G01 X99.5509Y24.349
G01 X99.2063Y24.4918
G01 X98.4687Y24.4918
G01 X97.7871Y24.2095
G01 X97.6573Y24.0796
G01 X97.6478Y24.0723
G01 X97.6389Y24.0644
G01 X97.6353Y24.0626
G01 X97.6321Y24.0601
G01 X97.6212Y24.0554
G01 X97.6106Y24.05
G01 X97.6067Y24.0491
G01 X97.6029Y24.0475
G01 X97.5912Y24.0456
G01 X97.5796Y24.043
G01 X97.5755Y24.0431
G01 X97.5715Y24.0425
G01 X97.5597Y24.0436
G01 X97.5478Y24.044
G01 X97.5439Y24.0451
G01 X97.5399Y24.0455
G01 X97.5286Y24.0495
G01 X97.5172Y24.0528
G01 X97.5138Y24.0548
G01 X97.5099Y24.0562
G01 X97.5001Y24.0629
G01 X97.4898Y24.0689
G01 X97.4853Y24.0729
G01 X97.4836Y24.0741
G01 X97.4823Y24.0756
G01 X97.4778Y24.0796
G01 X97.3479Y24.2095
G01 X96.6663Y24.4918
G01 X95.9287Y24.4918
G01 X95.2471Y24.2095
G01 X94.7255Y23.6879
G01 X94.47152Y23.07468
G01 X94.49673Y23.03262
G01 X94.5319Y22.95827
G01 X94.55961Y22.88082
G01 X94.57959Y22.80102
G01 X94.59166Y22.71966
G01 X94.5957Y22.6375
G01 X94.59166Y22.55534
G01 X94.57959Y22.47398
G01 X94.55961Y22.39418
G01 X94.5319Y22.31673
G01 X94.49673Y22.24238
G01 X94.47152Y22.20032
G01 X94.7255Y21.5871
G01 X94.7363Y21.5764
G01 X94.7423Y21.5686
G01 X94.7491Y21.5614
G01 X94.752Y21.5561
G01 X94.7557Y21.5513
G01 X94.7597Y21.5422
G01 X94.7645Y21.5335
G01 X94.766Y21.5277
G01 X94.7684Y21.5221
G01 X94.7699Y21.5123
G01 X94.7724Y21.5027
G01 X94.773Y21.4937
G01 X94.7732Y21.4927
G01 X94.7731Y21.4921
G01 X94.7734Y21.4907
G01 X94.7732Y21.4895
G01 X94.7734Y21.4867
G01 X94.7734Y20.7468
G01 X95.0055Y20.1867
G01 X97.2763Y17.9159
G01 X97.2823Y17.9081
G01 X97.2891Y17.9008
G01 X97.292Y17.8955
G01 X97.2957Y17.8908
G01 X97.2997Y17.8817
G01 X97.3045Y17.873
G01 X97.306Y17.8671
G01 X97.3084Y17.8616
G01 X97.3099Y17.8518
G01 X97.3124Y17.8422
G01 X97.313Y17.8322
G01 X97.3134Y17.8302
G01 X97.3132Y17.8289
G01 X97.3134Y17.8261
G01 X97.3134Y15.9843
G01 X97.5455Y15.4242
G01 X99.5617Y13.408
G01 X100.0606Y13.2013
G01 X100.0614Y13.2008
G01 X100.0623Y13.2006
G01 X100.0752Y13.193
G01 X100.0882Y13.1855
G01 X100.0889Y13.1849
G01 X100.0897Y13.1844
G01 X100.1018Y13.1738
G01 X100.2552Y13.0204
G01 X100.69216Y12.83936
G01 X100.695Y12.8425
G01 X100.76518Y12.90611
G01 X100.84126Y12.96253
G01 X100.92251Y13.01123
G01 X101.00813Y13.05173
G01 X101.09732Y13.08364
G01 X101.1892Y13.10665
G01 X101.28289Y13.12055
G01 X101.3775Y13.1252
G01 X101.47211Y13.12055
G01 X101.5658Y13.10665
G01 X101.65768Y13.08364
G01 X101.74687Y13.05173
G01 X101.83249Y13.01123
G01 X101.91374Y12.96253
G01 X101.98982Y12.90611
G01 X102.06Y12.8425
G01 X102.06284Y12.83936
G01 X102.4998Y13.0204
G01 X103.0571Y13.5777
G01 X103.3588Y14.3059
G01 X103.3588Y14.3844
G01 X103.3605Y14.3982
G01 X103.3618Y14.4121
G01 X103.3625Y14.414
G01 X103.3628Y14.416
G01 X103.3679Y14.4289
G01 X103.3726Y14.442
G01 X103.3737Y14.4437
G01 X103.3745Y14.4456
G01 X103.3826Y14.4568
G01 X103.3904Y14.4683
G01 X103.392Y14.4697
G01 X103.3931Y14.4713
G01 X103.4039Y14.4802
G01 X103.4143Y14.4894
G01 X103.4161Y14.4903
G01 X103.4176Y14.4916
G01 X103.4302Y14.4975
G01 X103.4426Y14.5038
G01 X103.4446Y14.5043
G01 X103.4464Y14.5051
G01 X103.46Y14.5077
G01 X103.4736Y14.5108
G01 X103.4757Y14.5107
G01 X103.4776Y14.5111
G01 X103.4915Y14.5102
G01 X103.5054Y14.5098
G01 X103.5074Y14.5093
G01 X103.5094Y14.5091
G01 X103.5226Y14.5049
G01 X103.536Y14.501
G01 X103.5377Y14.5
G01 X103.5396Y14.4993
G01 X103.5514Y14.4919
G01 X103.5634Y14.4848
G01 X103.5655Y14.483
G01 X103.5665Y14.4823
G01 X103.5679Y14.4808
G01 X103.5754Y14.4742
G01 X104.8963Y13.1534
G01 X104.9023Y13.1456
G01 X104.9091Y13.1383
G01 X104.912Y13.133
G01 X104.9157Y13.1283
G01 X104.9197Y13.1192
G01 X104.9245Y13.1105
G01 X104.926Y13.1046
G01 X104.9284Y13.0991
G01 X104.9299Y13.0893
G01 X104.9324Y13.0797
G01 X104.933Y13.0697
G01 X104.9334Y13.0677
G01 X104.9332Y13.0664
G01 X104.9334Y13.0636
G01 X104.9334Y12.2204
G01 X104.9322Y12.2106
G01 X104.9319Y12.2007
G01 X104.9302Y12.1949
G01 X104.9294Y12.1889
G01 X104.9258Y12.1797
G01 X104.923Y12.1702
G01 X104.92Y12.1649
G01 X104.9177Y12.1593
G01 X104.9119Y12.1513
G01 X104.9069Y12.1428
G01 X104.9033Y12.1387
G01 X104.9031Y12.1383
G01 X104.9025Y12.1378
G01 X104.9003Y12.1352
G01 X104.8991Y12.1336
G01 X104.8981Y12.1328
G01 X104.8963Y12.1307
G01 X104.7779Y12.0123
G01 X104.4762Y11.2841
G01 X104.4762Y10.4959
G01 X104.7779Y9.7677
G01 X105.3352Y9.2104
G01 X106.0634Y8.9087
G01 X106.8516Y8.9087
G01 X107.2979Y9.0936
G01 X107.3027Y9.0949
G01 X107.3072Y9.097
G01 X107.318Y9.0991
G01 X107.3286Y9.102
G01 X107.3336Y9.1021
G01 X107.3385Y9.103
G01 X107.3494Y9.1023
G01 X107.3604Y9.1025
G01 X107.3652Y9.1013
G01 X107.3702Y9.101
G01 X107.3806Y9.0977
G01 X107.3913Y9.0951
G01 X107.3957Y9.0928
G01 X107.4004Y9.0912
G01 X107.4097Y9.0854
G01 X107.4194Y9.0802
G01 X107.4231Y9.0769
G01 X107.4273Y9.0742
G01 X107.4348Y9.0662
G01 X107.443Y9.0588
G01 X107.4457Y9.0547
G01 X107.4491Y9.0511
G01 X107.4544Y9.0414
G01 X107.4604Y9.0323
G01 X107.4621Y9.0276
G01 X107.4645Y9.0232
G01 X107.4672Y9.0126
G01 X107.4708Y9.0022
G01 X107.4712Y8.9972
G01 X107.4724Y8.9924
G01 X107.4734Y8.9763
G01 X107.4734Y8.7164
G01 X107.4722Y8.7065
G01 X107.4719Y8.6966
G01 X107.4702Y8.6908
G01 X107.4694Y8.6848
G01 X107.4658Y8.6756
G01 X107.463Y8.6661
G01 X107.46Y8.6609
G01 X107.4577Y8.6552
G01 X107.4519Y8.6472
G01 X107.4469Y8.6387
G01 X107.4403Y8.6312
G01 X107.4391Y8.6295
G01 X107.4381Y8.6287
G01 X107.4363Y8.6266
G01 X106.4984Y7.6887
G01 X106.4906Y7.6827
G01 X106.4833Y7.6759
G01 X106.478Y7.673
G01 X106.4733Y7.6693
G01 X106.4642Y7.6653
G01 X106.4555Y7.6605
G01 X106.4496Y7.659
G01 X106.4441Y7.6566
G01 X106.4343Y7.6551
G01 X106.4247Y7.6526
G01 X106.4147Y7.652
G01 X106.4127Y7.6516
G01 X106.4114Y7.6518
G01 X106.4086Y7.6516
G01 X69.9939Y7.6516
G01 X69.984Y7.6528
G01 X69.9741Y7.6531
G01 X69.9683Y7.6548
G01 X69.9623Y7.6556
G01 X69.9531Y7.6592
G01 X69.9436Y7.662
G01 X69.9384Y7.665
G01 X69.9327Y7.6673
G01 X69.9247Y7.6731
G01 X69.9162Y7.6781
G01 X69.9087Y7.6847
G01 X69.907Y7.6859
G01 X69.9062Y7.6869
G01 X69.9041Y7.6887
G01 X66.7437Y10.8491
G01 X66.7377Y10.8569
G01 X66.7309Y10.8642
G01 X66.728Y10.8695
G01 X66.7243Y10.8742
G01 X66.7203Y10.8833
G01 X66.7155Y10.892
G01 X66.714Y10.8979
G01 X66.7116Y10.9034
G01 X66.7101Y10.9132
G01 X66.7076Y10.9228
G01 X66.707Y10.9328
G01 X66.7066Y10.9348
G01 X66.7068Y10.9361
G01 X66.7066Y10.9389
G01 X66.7066Y12.7346
G01 X66.7078Y12.7444
G01 X66.7081Y12.7543
G01 X66.7098Y12.7601
G01 X66.7106Y12.7661
G01 X66.7142Y12.7753
G01 X66.717Y12.7848
G01 X66.72Y12.7901
G01 X66.7223Y12.7957
G01 X66.7281Y12.8037
G01 X66.7331Y12.8122
G01 X66.7397Y12.8198
G01 X66.7409Y12.8214
G01 X66.7419Y12.8222
G01 X66.7437Y12.8243
G01 X66.8621Y12.9427
G01 X67.1638Y13.6709
G01 X67.1638Y14.4591
G01 X66.8621Y15.1873
G01 X66.3048Y15.7446
G01 X65.5766Y16.0463
G01 X64.7884Y16.0463
G01 X64.0568Y15.7432
G01 X64.0538Y15.7404
G01 X64.0485Y15.7375
G01 X64.0437Y15.7338
G01 X64.0346Y15.7298
G01 X64.0259Y15.725
G01 X64.0201Y15.7235
G01 X64.0145Y15.7211
G01 X64.0047Y15.7196
G01 X63.9951Y15.7171
G01 X63.9851Y15.7165
G01 X63.9831Y15.7161
G01 X63.9819Y15.7163
G01 X63.9791Y15.7161
G01 X62.7555Y15.7161
G01 X62.7457Y15.7173
G01 X62.7358Y15.7176
G01 X62.73Y15.7193
G01 X62.724Y15.7201
G01 X62.7148Y15.7237
G01 X62.7053Y15.7265
G01 X62.7001Y15.7295
G01 X62.6944Y15.7318
G01 X62.6864Y15.7376
G01 X62.6779Y15.7426
G01 X62.6703Y15.7492
G01 X62.6687Y15.7504
G01 X62.6679Y15.7514
G01 X62.6658Y15.7532
G01 X62.2458Y16.1733
G01 X60.4992Y16.1733
G01 X60.0792Y15.7532
G01 X60.0714Y15.7472
G01 X60.0642Y15.7404
G01 X60.0589Y15.7375
G01 X60.0541Y15.7338
G01 X60.045Y15.7298
G01 X60.0363Y15.725
G01 X60.0305Y15.7235
G01 X60.0249Y15.7211
G01 X60.0151Y15.7196
G01 X60.0055Y15.7171
G01 X59.9955Y15.7165
G01 X59.9935Y15.7161
G01 X59.9923Y15.7163
G01 X59.9895Y15.7161
G01 X55.5305Y15.7161
G01 X55.5187Y15.7176
G01 X55.5068Y15.7183
G01 X55.503Y15.7196
G01 X55.4989Y15.7201
G01 X55.4879Y15.7244
G01 X55.4766Y15.7281
G01 X55.4731Y15.7303
G01 X55.4694Y15.7318
G01 X55.4598Y15.7387
G01 X55.4497Y15.7451
G01 X55.4469Y15.7481
G01 X55.4436Y15.7504
G01 X55.436Y15.7596
G01 X55.4279Y15.7683
G01 X55.4259Y15.7718
G01 X55.4234Y15.7749
G01 X55.4183Y15.7857
G01 X55.4125Y15.7961
G01 X55.4115Y15.8001
G01 X55.4098Y15.8037
G01 X55.4076Y15.8154
G01 X55.4046Y15.8269
G01 X55.4042Y15.8329
G01 X55.4038Y15.8349
G01 X55.404Y15.837
G01 X55.4036Y15.843
G01 X55.4036Y20.302
G01 X55.4048Y20.3118
G01 X55.4051Y20.3217
G01 X55.4068Y20.3275
G01 X55.4076Y20.3335
G01 X55.4112Y20.3427
G01 X55.414Y20.3522
G01 X55.417Y20.3574
G01 X55.4193Y20.3631
G01 X55.4251Y20.3711
G01 X55.4301Y20.3796
G01 X55.4367Y20.3872
G01 X55.4379Y20.3888
G01 X55.4389Y20.3896
G01 X55.4407Y20.3917
G01 X55.8608Y20.8117
G01 X55.8608Y22.5583
G01 X54.6258Y23.7933
G01 X52.8792Y23.7933
G01 X51.6442Y22.5583
G01 X51.6442Y20.8117
G01 X52.0643Y20.3917
G01 X52.0703Y20.3839
G01 X52.0771Y20.3767
G01 X52.08Y20.3714
G01 X52.0837Y20.3666
G01 X52.0877Y20.3575
G01 X52.0925Y20.3488
G01 X52.094Y20.343
G01 X52.0964Y20.3374
G01 X52.0979Y20.3276
G01 X52.1004Y20.318
G01 X52.101Y20.308
G01 X52.1014Y20.306
G01 X52.1012Y20.3048
G01 X52.1014Y20.302
G01 X52.1014Y15.448
G01 X52.1002Y15.4382
G01 X52.0999Y15.4283
G01 X52.0982Y15.4225
G01 X52.0974Y15.4165
G01 X52.0938Y15.4073
G01 X52.091Y15.3978
G01 X52.088Y15.3926
G01 X52.0857Y15.3869
G01 X52.0799Y15.3789
G01 X52.0749Y15.3704
G01 X52.0683Y15.3628
G01 X52.0671Y15.3612
G01 X52.0661Y15.3604
G01 X52.0643Y15.3583
G01 X51.6442Y14.9383
G01 X51.6442Y13.1917
G01 X52.8402Y11.9957
G01 X52.8487Y11.9848
G01 X52.8576Y11.9741
G01 X52.8585Y11.9722
G01 X52.8597Y11.9706
G01 X52.8652Y11.9578
G01 X52.8711Y11.9453
G01 X52.8715Y11.9433
G01 X52.8723Y11.9414
G01 X52.8745Y11.9276
G01 X52.8771Y11.914
G01 X52.877Y11.912
G01 X52.8773Y11.91
G01 X52.876Y11.8961
G01 X52.8752Y11.8823
G01 X52.8745Y11.8804
G01 X52.8743Y11.8784
G01 X52.8696Y11.8652
G01 X52.8653Y11.8521
G01 X52.8643Y11.8503
G01 X52.8636Y11.8484
G01 X52.8558Y11.8369
G01 X52.8483Y11.8252
G01 X52.8469Y11.8238
G01 X52.8457Y11.8221
G01 X52.8353Y11.8129
G01 X52.8252Y11.8034
G01 X52.8234Y11.8024
G01 X52.8219Y11.8011
G01 X52.8095Y11.7947
G01 X52.7973Y11.788
G01 X52.7954Y11.7875
G01 X52.7936Y11.7866
G01 X52.78Y11.7836
G01 X52.7665Y11.7801
G01 X52.7637Y11.7799
G01 X52.7625Y11.7796
G01 X52.7605Y11.7797
G01 X52.7505Y11.7791
G01 X49.6745Y11.7791
G01 X49.6608Y11.7808
G01 X49.6469Y11.7821
G01 X49.645Y11.7828
G01 X49.643Y11.7831
G01 X49.6301Y11.7882
G01 X49.617Y11.7929
G01 X49.6153Y11.794
G01 X49.6134Y11.7948
G01 X49.6022Y11.8029
G01 X49.5907Y11.8107
G01 X49.5893Y11.8123
G01 X49.5877Y11.8134
G01 X49.5788Y11.8242
G01 X49.5696Y11.8346
G01 X49.5687Y11.8364
G01 X49.5674Y11.8379
G01 X49.5615Y11.8505
G01 X49.5552Y11.8629
G01 X49.5547Y11.8649
G01 X49.5539Y11.8667
G01 X49.5512Y11.8803
G01 X49.5482Y11.8939
G01 X49.5483Y11.896
G01 X49.5479Y11.8979
G01 X49.5487Y11.9118
G01 X49.5492Y11.9257
G01 X49.5497Y11.9277
G01 X49.5498Y11.9297
G01 X49.5541Y11.9429
G01 X49.558Y11.9563
G01 X49.559Y11.958
G01 X49.5597Y11.9599
G01 X49.5671Y11.9717
G01 X49.5742Y11.9837
G01 X49.576Y11.9858
G01 X49.5767Y11.9868
G01 X49.5782Y11.9882
G01 X49.5848Y11.9957
G01 X50.7808Y13.1917
G01 X50.7808Y14.9383
G01 X49.5458Y16.1733
G01 X47.7992Y16.1733
G01 X46.5642Y14.9383
G01 X46.5642Y13.1917
G01 X47.7602Y11.9957
G01 X47.7687Y11.9848
G01 X47.7776Y11.9741
G01 X47.7785Y11.9722
G01 X47.7797Y11.9706
G01 X47.7852Y11.9578
G01 X47.7911Y11.9453
G01 X47.7915Y11.9433
G01 X47.7923Y11.9414
G01 X47.7945Y11.9276
G01 X47.7971Y11.914
G01 X47.797Y11.912
G01 X47.7973Y11.91
G01 X47.796Y11.8961
G01 X47.7952Y11.8823
G01 X47.7945Y11.8804
G01 X47.7943Y11.8784
G01 X47.7896Y11.8652
G01 X47.7853Y11.8521
G01 X47.7843Y11.8503
G01 X47.7836Y11.8484
G01 X47.7758Y11.8369
G01 X47.7683Y11.8252
G01 X47.7669Y11.8238
G01 X47.7657Y11.8221
G01 X47.7553Y11.8129
G01 X47.7452Y11.8034
G01 X47.7434Y11.8024
G01 X47.7419Y11.8011
G01 X47.7295Y11.7947
G01 X47.7173Y11.788
G01 X47.7154Y11.7875
G01 X47.7136Y11.7866
G01 X47.7Y11.7836
G01 X47.6865Y11.7801
G01 X47.6837Y11.7799
G01 X47.6825Y11.7796
G01 X47.6805Y11.7797
G01 X47.6705Y11.7791
G01 X46.1814Y11.7791
G01 X46.1715Y11.7803
G01 X46.1616Y11.7806
G01 X46.1558Y11.7823
G01 X46.1498Y11.7831
G01 X46.1406Y11.7867
G01 X46.1311Y11.7895
G01 X46.1259Y11.7925
G01 X46.1202Y11.7948
G01 X46.1122Y11.8006
G01 X46.1037Y11.8056
G01 X46.0962Y11.8122
G01 X46.0945Y11.8134
G01 X46.0937Y11.8144
G01 X46.0916Y11.8162
G01 X45.2982Y12.6097
G01 X45.2909Y12.6191
G01 X45.283Y12.628
G01 X45.2812Y12.6316
G01 X45.2787Y12.6348
G01 X45.274Y12.6457
G01 X45.2686Y12.6563
G01 X45.2677Y12.6603
G01 X45.2661Y12.664
G01 X45.2642Y12.6758
G01 X45.2616Y12.6873
G01 X45.2617Y12.6914
G01 X45.2611Y12.6954
G01 X45.2622Y12.7072
G01 X45.2626Y12.7191
G01 X45.2637Y12.723
G01 X45.2641Y12.727
G01 X45.2681Y12.7383
G01 X45.2714Y12.7497
G01 X45.2735Y12.7532
G01 X45.2748Y12.757
G01 X45.2815Y12.7668
G01 X45.2876Y12.7771
G01 X45.2915Y12.7816
G01 X45.2927Y12.7833
G01 X45.2942Y12.7846
G01 X45.2982Y12.7892
G01 X45.7008Y13.1917
G01 X45.7008Y14.9383
G01 X44.4658Y16.1733
G01 X42.7192Y16.1733
G01 X41.4842Y14.9383
G01 X41.4842Y13.1917
G01 X42.0313Y12.6447
G01 X42.0373Y12.6369
G01 X42.0441Y12.6297
G01 X42.047Y12.6244
G01 X42.0507Y12.6196
G01 X42.0547Y12.6105
G01 X42.0595Y12.6018
G01 X42.061Y12.596
G01 X42.0634Y12.5904
G01 X42.0649Y12.5806
G01 X42.0674Y12.571
G01 X42.068Y12.561
G01 X42.0684Y12.559
G01 X42.0682Y12.5578
G01 X42.0684Y12.555
G01 X42.0684Y11.8568
G01 X42.3005Y11.2967
G01 X44.6342Y8.963
G01 X45.1943Y8.7309
G01 X61.6411Y8.7309
G01 X61.651Y8.7297
G01 X61.6609Y8.7294
G01 X61.6667Y8.7277
G01 X61.6727Y8.7269
G01 X61.6819Y8.7233
G01 X61.6914Y8.7205
G01 X61.6966Y8.7175
G01 X61.7023Y8.7152
G01 X61.7103Y8.7094
G01 X61.7188Y8.7044
G01 X61.7263Y8.6978
G01 X61.728Y8.6966
G01 X61.7288Y8.6956
G01 X61.7309Y8.6938
G01 X65.4774Y4.9473
G01 X65.4859Y4.9363
G01 X65.4948Y4.9256
G01 X65.4956Y4.9237
G01 X65.4969Y4.9221
G01 X65.5024Y4.9093
G01 X65.5083Y4.8968
G01 X65.5087Y4.8948
G01 X65.5095Y4.8929
G01 X65.5117Y4.8791
G01 X65.5143Y4.8656
G01 X65.5142Y4.8635
G01 X65.5145Y4.8615
G01 X65.5132Y4.8476
G01 X65.5123Y4.8338
G01 X65.5117Y4.8319
G01 X65.5115Y4.8299
G01 X65.5068Y4.8167
G01 X65.5025Y4.8036
G01 X65.5014Y4.8018
G01 X65.5008Y4.7999
G01 X65.4929Y4.7884
G01 X65.4855Y4.7767
G01 X65.484Y4.7753
G01 X65.4829Y4.7736
G01 X65.4725Y4.7644
G01 X65.4623Y4.7549
G01 X65.4606Y4.7539
G01 X65.4591Y4.7526
G01 X65.4467Y4.7463
G01 X65.4345Y4.7395
G01 X65.4325Y4.739
G01 X65.4307Y4.7381
G01 X65.4171Y4.7351
G01 X65.4037Y4.7316
G01 X65.4009Y4.7314
G01 X65.3997Y4.7312
G01 X65.3977Y4.7312
G01 X65.3876Y4.7306
G01 X37.2425Y4.7306
G01 X37.2307Y4.7321
G01 X37.2188Y4.7328
G01 X37.215Y4.7341
G01 X37.2109Y4.7346
G01 X37.1999Y4.7389
G01 X37.1886Y4.7426
G01 X37.1851Y4.7448
G01 X37.1814Y4.7463
G01 X37.1718Y4.7533
G01 X37.1617Y4.7596
G01 X37.1589Y4.7626
G01 X37.1556Y4.7649
G01 X37.148Y4.7741
G01 X37.1399Y4.7828
G01 X37.1379Y4.7863
G01 X37.1354Y4.7894
G01 X37.1303Y4.8002
G01 X37.1245Y4.8106
G01 X37.1235Y4.8146
G01 X37.1218Y4.8182
G01 X37.1196Y4.8299
G01 X37.1166Y4.8414
G01 X37.1162Y4.8475
G01 X37.1158Y4.8495
G01 X37.116Y4.8515
G01 X37.1156Y4.8575
G01 X37.1156Y28.4795
G01 X29.94Y28.4795
G01 X29.89021Y28.48195
G01 X29.84089Y28.48926
G01 X29.79254Y28.50137
G01 X29.7456Y28.51817
G01 X29.70053Y28.53948
G01 X29.65777Y28.56511
G01 X29.61773Y28.59481
G01 X29.58079Y28.62829
G01 X29.58079Y28.62829
G01 X26.72329Y31.48579
G01 X26.72329Y31.48579
G01 X26.68981Y31.52273
G01 X26.66011Y31.56277
G01 X26.63448Y31.60553
G01 X26.61317Y31.6506
G01 X26.59637Y31.69754
G01 X26.58426Y31.74589
G01 X26.57695Y31.79521
G01 X26.5745Y31.845
G01 X26.5745Y36.29
G01 X26.57695Y36.33979
G01 X26.58426Y36.38911
G01 X26.59637Y36.43746
G01 X26.61317Y36.4844
G01 X26.63448Y36.52947
G01 X26.63448Y36.52947
G01 X26.63874Y36.53657
G01 X26.66011Y36.57223
G01 X26.68981Y36.61227
G01 X26.72329Y36.64921
G01 X28.31079Y38.23671
G01 X28.34773Y38.27019
G01 X28.38777Y38.29989
G01 X28.43053Y38.32552
G01 X28.4756Y38.34683
G01 X28.52254Y38.36363
G01 X28.57089Y38.37574
G01 X28.62021Y38.38305
G01 X28.67Y38.3855
G01 X34.51804Y38.3855
G01 X34.53497Y38.41374
G01 X34.59139Y38.48982
G01 X34.655Y38.56
G01 X34.72518Y38.62361
G01 X34.80126Y38.68003
G01 X34.88251Y38.72873
G01 X34.96813Y38.76923
G01 X35.05732Y38.80114
G01 X35.1492Y38.82415
G01 X35.24289Y38.83805
G01 X35.3375Y38.8427
G01 X35.43211Y38.83805
G01 X35.5258Y38.82415
G01 X35.61768Y38.80114
G01 X35.70687Y38.76923
G01 X35.79249Y38.72873
G01 X35.87374Y38.68003
G01 X35.94982Y38.62361
G01 X36.02Y38.56
G01 X36.08361Y38.48982
G01 X36.14003Y38.41374
G01 X36.18873Y38.33249
G01 X36.22923Y38.24687
G01 X36.26114Y38.15768
G01 X36.28415Y38.0658
G01 X36.29805Y37.97211
G01 X36.3027Y37.8775
G01 X36.29805Y37.78289
G01 X36.28415Y37.6892
G01 X36.26114Y37.59732
G01 X36.22923Y37.50813
G01 X36.18873Y37.42251
G01 X36.14003Y37.34126
G01 X36.08361Y37.26518
G01 X36.02Y37.195
G01 X35.94982Y37.13139
G01 X35.87374Y37.07497
G01 X35.79249Y37.02627
G01 X35.70687Y36.98577
G01 X35.61768Y36.95386
G01 X35.5258Y36.93085
G01 X35.43211Y36.91695
G01 X35.3375Y36.9123
G01 X35.24289Y36.91695
G01 X35.1492Y36.93085
G01 X35.05732Y36.95386
G01 X34.96813Y36.98577
G01 X34.88251Y37.02627
G01 X34.80126Y37.07497
G01 X34.72518Y37.13139
G01 X34.655Y37.195
G01 X34.59139Y37.26518
G01 X34.53497Y37.34126
G01 X34.51804Y37.3695
G01 X28.88042Y37.3695
G01 X27.5905Y36.07958
G01 X27.5905Y32.05542
G01 X30.15042Y29.4955
G01 X37.1156Y29.4955
G01 X37.1156Y32.2895
G01 X33.32542Y32.2895
G01 X32.52171Y31.48579
G01 X32.48477Y31.45231
G01 X32.44473Y31.42261
G01 X32.40197Y31.39698
G01 X32.3569Y31.37567
G01 X32.30996Y31.35887
G01 X32.26161Y31.34676
G01 X32.21229Y31.33945
G01 X32.1625Y31.337
G01 X31.71196Y31.337
G01 X31.69503Y31.30876
G01 X31.63861Y31.23268
G01 X31.575Y31.1625
G01 X31.50482Y31.09889
G01 X31.42874Y31.04247
G01 X31.34749Y30.99377
G01 X31.26187Y30.95327
G01 X31.17268Y30.92136
G01 X31.0808Y30.89835
G01 X30.98711Y30.88445
G01 X30.8925Y30.8798
G01 X30.79789Y30.88445
G01 X30.7042Y30.89835
G01 X30.61232Y30.92136
G01 X30.52313Y30.95327
G01 X30.43751Y30.99377
G01 X30.35626Y31.04247
G01 X30.28018Y31.09889
G01 X30.21Y31.1625
G01 X30.14639Y31.23268
G01 X30.08997Y31.30876
G01 X30.04127Y31.39001
G01 X30.00077Y31.47563
G01 X29.96886Y31.56482
G01 X29.94585Y31.6567
G01 X29.93195Y31.75039
G01 X29.9273Y31.845
G01 X29.93195Y31.93961
G01 X29.94585Y32.0333
G01 X29.96886Y32.12518
G01 X30.00077Y32.21437
G01 X30.04127Y32.29999
G01 X30.08997Y32.38124
G01 X30.14639Y32.45732
G01 X30.21Y32.5275
G01 X30.28018Y32.59111
G01 X30.35626Y32.64753
G01 X30.43751Y32.69623
G01 X30.52313Y32.73673
G01 X30.61232Y32.76864
G01 X30.7042Y32.79165
G01 X30.79789Y32.80555
G01 X30.8925Y32.8102
G01 X30.98711Y32.80555
G01 X31.0808Y32.79165
G01 X31.17268Y32.76864
G01 X31.26187Y32.73673
G01 X31.34749Y32.69623
G01 X31.42874Y32.64753
G01 X31.50482Y32.59111
G01 X31.575Y32.5275
G01 X31.63861Y32.45732
G01 X31.69503Y32.38124
G01 X31.71196Y32.353
G01 X31.95208Y32.353
G01 X32.75579Y33.15671
G01 X32.79273Y33.19019
G01 X32.83277Y33.21989
G01 X32.87553Y33.24552
G01 X32.9206Y33.26683
G01 X32.96754Y33.28363
G01 X33.01589Y33.29574
G01 X33.06521Y33.30305
G01 X33.115Y33.3055
G01 X37.13302Y33.3055
G01 X37.1382Y33.3127
G01 X37.1446Y33.3228
G01 X37.1476Y33.3256
G01 X37.1499Y33.3289
G01 X37.1591Y33.3365
G01 X37.1678Y33.3446
G01 X37.1713Y33.3466
G01 X37.1744Y33.3491
G01 X37.1852Y33.3542
G01 X37.1956Y33.36
G01 X37.1996Y33.361
G01 X37.2032Y33.3627
G01 X37.2149Y33.3649
G01 X37.2264Y33.3679
G01 X37.2324Y33.3683
G01 X37.2344Y33.3687
G01 X37.2365Y33.3685
G01 X37.2425Y33.3689
G01 X39.681Y33.3689
G01 X39.6908Y33.3677
G01 X39.7008Y33.3674
G01 X39.7066Y33.3657
G01 X39.7126Y33.3649
G01 X39.7218Y33.3613
G01 X39.7313Y33.3585
G01 X39.7365Y33.3555
G01 X39.7422Y33.3532
G01 X39.7502Y33.3474
G01 X39.7587Y33.3424
G01 X39.7662Y33.3358
G01 X39.7679Y33.3346
G01 X39.7687Y33.3336
G01 X39.7708Y33.3318
G01 X40.3041Y32.7985
G01 X40.3101Y32.7907
G01 X40.3169Y32.7834
G01 X40.3198Y32.7781
G01 X40.3235Y32.7734
G01 X40.3275Y32.7643
G01 X40.3323Y32.7556
G01 X40.3338Y32.7497
G01 X40.3362Y32.7442
G01 X40.3377Y32.7344
G01 X40.3402Y32.7248
G01 X40.3403Y32.7231
G01 X40.6429Y31.9927
G01 X40.7008Y31.9348
G01 X40.7081Y31.9254
G01 X40.716Y31.9164
G01 X40.7178Y31.9128
G01 X40.7203Y31.9096
G01 X40.725Y31.8987
G01 X40.7304Y31.8881
G01 X40.7313Y31.8842
G01 X40.7329Y31.8804
G01 X40.7348Y31.8687
G01 X40.7374Y31.8571
G01 X40.7373Y31.853
G01 X40.7379Y31.849
G01 X40.7368Y31.8372
G01 X40.7364Y31.8253
G01 X40.7353Y31.8214
G01 X40.7349Y31.8174
G01 X40.7309Y31.8062
G01 X40.7276Y31.7947
G01 X40.7255Y31.7912
G01 X40.7242Y31.7874
G01 X40.7175Y31.7776
G01 X40.7114Y31.7673
G01 X40.7075Y31.7628
G01 X40.7063Y31.7611
G01 X40.7048Y31.7598
G01 X40.7008Y31.7553
G01 X40.6429Y31.6973
G01 X40.3412Y30.9691
G01 X40.3412Y30.1809
G01 X40.6429Y29.4527
G01 X41.2002Y28.8954
G01 X41.63716Y28.71436
G01 X41.64Y28.7175
G01 X41.71018Y28.78111
G01 X41.78626Y28.83753
G01 X41.86751Y28.88623
G01 X41.95313Y28.92673
G01 X42.04232Y28.95864
G01 X42.1342Y28.98165
G01 X42.22789Y28.99555
G01 X42.3225Y29.0002
G01 X42.41711Y28.99555
G01 X42.5108Y28.98165
G01 X42.60268Y28.95864
G01 X42.69187Y28.92673
G01 X42.77749Y28.88623
G01 X42.85874Y28.83753
G01 X42.93482Y28.78111
G01 X43.005Y28.7175
G01 X43.00784Y28.71436
G01 X43.4448Y28.8954
G01 X43.5632Y29.0138
G01 X43.571Y29.0198
G01 X43.5782Y29.0266
G01 X43.5835Y29.0295
G01 X43.5883Y29.0332
G01 X43.5974Y29.0372
G01 X43.6061Y29.042
G01 X43.6119Y29.0435
G01 X43.6175Y29.0459
G01 X43.6273Y29.0474
G01 X43.6369Y29.0499
G01 X43.6469Y29.0505
G01 X43.6489Y29.0509
G01 X43.6501Y29.0507
G01 X43.6529Y29.0509
G01 X45.4832Y29.0509
G01 X46.0433Y29.283
G01 X47.0441Y30.2838
G01 X47.0519Y30.2898
G01 X47.0592Y30.2966
G01 X47.0645Y30.2995
G01 X47.0692Y30.3032
G01 X47.0783Y30.3072
G01 X47.087Y30.312
G01 X47.0929Y30.3135
G01 X47.0984Y30.3159
G01 X47.1082Y30.3174
G01 X47.1178Y30.3199
G01 X47.1278Y30.3205
G01 X47.1298Y30.3209
G01 X47.1311Y30.3207
G01 X47.1339Y30.3209
G01 X47.8392Y30.3209
G01 X47.849Y30.3197
G01 X47.8589Y30.3194
G01 X47.8647Y30.3177
G01 X47.8707Y30.3169
G01 X47.8799Y30.3133
G01 X47.8894Y30.3105
G01 X47.8947Y30.3075
G01 X47.9003Y30.3052
G01 X47.9083Y30.2994
G01 X47.9168Y30.2944
G01 X47.9243Y30.2878
G01 X47.926Y30.2866
G01 X47.9268Y30.2856
G01 X47.9289Y30.2837
G01 X47.9396Y30.273
G01 X48.55282Y30.01902
G01 X48.59488Y30.04423
G01 X48.66923Y30.0794
G01 X48.74668Y30.10711
G01 X48.82648Y30.12709
G01 X48.90784Y30.13916
G01 X48.99Y30.1432
G01 X49.07216Y30.13916
G01 X49.15352Y30.12709
G01 X49.23332Y30.10711
G01 X49.31077Y30.0794
G01 X49.38512Y30.04423
G01 X49.42718Y30.01902
G01 X50.0404Y30.273
G01 X50.562Y30.7946
G01 X50.8443Y31.4762
G01 X50.8443Y32.2138
G01 X50.608Y32.7843
G01 X50.6072Y32.7871
G01 X50.6059Y32.7898
G01 X50.603Y32.8025
G01 X50.5996Y32.815
G01 X50.5995Y32.8179
G01 X50.5989Y32.8208
G01 X50.5993Y32.8338
G01 X50.5991Y32.8468
G01 X50.5998Y32.8496
G01 X50.5999Y32.8526
G01 X50.6035Y32.8651
G01 X50.6065Y32.8777
G01 X50.6079Y32.8803
G01 X50.6087Y32.8831
G01 X50.6153Y32.8943
G01 X50.6214Y32.9058
G01 X50.6233Y32.908
G01 X50.6249Y32.9105
G01 X50.6355Y32.9226
G01 X51.8066Y34.0938
G01 X51.8144Y34.0998
G01 X51.8217Y34.1066
G01 X51.827Y34.1095
G01 X51.8317Y34.1132
G01 X51.8408Y34.1172
G01 X51.8495Y34.122
G01 X51.8554Y34.1235
G01 X51.8609Y34.1259
G01 X51.8707Y34.1274
G01 X51.8803Y34.1299
G01 X51.8903Y34.1305
G01 X51.8923Y34.1309
G01 X51.8936Y34.1307
G01 X51.8964Y34.1309
G01 X54.112Y34.1309
G01 X54.1244Y34.1294
G01 X54.137Y34.1284
G01 X54.1402Y34.1274
G01 X54.1435Y34.1269
G01 X54.1552Y34.1223
G01 X54.1671Y34.1183
G01 X54.17Y34.1165
G01 X54.1731Y34.1152
G01 X54.1833Y34.1079
G01 X54.1938Y34.101
G01 X54.1961Y34.0985
G01 X54.1988Y34.0966
G01 X54.2068Y34.0869
G01 X54.2154Y34.0776
G01 X54.217Y34.0747
G01 X54.2191Y34.0721
G01 X54.2245Y34.0607
G01 X54.2304Y34.0496
G01 X54.2312Y34.0463
G01 X54.2327Y34.0433
G01 X54.235Y34.031
G01 X54.238Y34.0187
G01 X54.238Y34.0154
G01 X54.2386Y34.0121
G01 X54.2379Y33.9995
G01 X54.2377Y33.9869
G01 X54.2368Y33.9821
G01 X54.2367Y33.9803
G01 X54.236Y33.9783
G01 X54.2346Y33.9712
G01 X54.0939Y33.4462
G01 X54.0939Y32.7838
G01 X54.2654Y32.1438
G01 X54.3646Y31.972
G01 X54.3698Y31.9597
G01 X54.3754Y31.9478
G01 X54.3759Y31.9451
G01 X54.3769Y31.9426
G01 X54.3789Y31.9295
G01 X54.3814Y31.9165
G01 X54.3812Y31.9139
G01 X54.3816Y31.9112
G01 X54.3802Y31.898
G01 X54.3794Y31.8848
G01 X54.3786Y31.8822
G01 X54.3783Y31.8796
G01 X54.3737Y31.8671
G01 X54.3696Y31.8546
G01 X54.3681Y31.8523
G01 X54.3672Y31.8497
G01 X54.3597Y31.8389
G01 X54.3526Y31.8277
G01 X54.3506Y31.8258
G01 X54.3491Y31.8236
G01 X54.3391Y31.815
G01 X54.3294Y31.8059
G01 X54.3271Y31.8046
G01 X54.325Y31.8028
G01 X54.3131Y31.7969
G01 X54.3016Y31.7905
G01 X54.299Y31.7899
G01 X54.2965Y31.7887
G01 X54.2836Y31.7859
G01 X54.2708Y31.7826
G01 X54.267Y31.7824
G01 X54.2654Y31.782
G01 X54.2632Y31.7821
G01 X54.2547Y31.7816
G01 X53.4493Y31.7816
G01 X52.8892Y31.5495
G01 X48.3959Y27.0562
G01 X48.3881Y27.0502
G01 X48.3808Y27.0434
G01 X48.3755Y27.0405
G01 X48.3708Y27.0368
G01 X48.3617Y27.0328
G01 X48.353Y27.028
G01 X48.3471Y27.0265
G01 X48.3416Y27.0241
G01 X48.3318Y27.0226
G01 X48.3222Y27.0201
G01 X48.3122Y27.0195
G01 X48.3102Y27.0191
G01 X48.3089Y27.0193
G01 X48.3061Y27.0191
G01 X44.5593Y27.0191
G01 X43.9992Y26.787
G01 X42.3005Y25.0883
G01 X42.0684Y24.5282
G01 X42.0684Y23.195
G01 X42.0672Y23.1852
G01 X42.0669Y23.1753
G01 X42.0652Y23.1695
G01 X42.0644Y23.1635
G01 X42.0608Y23.1543
G01 X42.058Y23.1448
G01 X42.055Y23.1396
G01 X42.0527Y23.1339
G01 X42.0469Y23.1259
G01 X42.0419Y23.1174
G01 X42.0353Y23.1098
G01 X42.0341Y23.1082
G01 X42.0331Y23.1074
G01 X42.0313Y23.1053
G01 X41.4842Y22.5583
G01 X41.4842Y20.8117
G01 X42.7192Y19.5767
G01 X44.4658Y19.5767
G01 X45.7008Y20.8117
G01 X45.7008Y22.5583
G01 X45.1537Y23.1053
G01 X45.1477Y23.1131
G01 X45.1409Y23.1203
G01 X45.138Y23.1256
G01 X45.1343Y23.1304
G01 X45.1303Y23.1395
G01 X45.1255Y23.1482
G01 X45.124Y23.154
G01 X45.1216Y23.1596
G01 X45.1201Y23.1694
G01 X45.1176Y23.179
G01 X45.117Y23.189
G01 X45.1166Y23.191
G01 X45.1168Y23.1922
G01 X45.1166Y23.195
G01 X45.1166Y23.5411
G01 X45.1178Y23.551
G01 X45.1181Y23.5609
G01 X45.1198Y23.5667
G01 X45.1206Y23.5727
G01 X45.1242Y23.5819
G01 X45.127Y23.5914
G01 X45.13Y23.5966
G01 X45.1323Y23.6023
G01 X45.1381Y23.6103
G01 X45.1431Y23.6188
G01 X45.1497Y23.6263
G01 X45.1509Y23.628
G01 X45.1519Y23.6288
G01 X45.1537Y23.6309
G01 X45.4566Y23.9338
G01 X45.4644Y23.9398
G01 X45.4717Y23.9466
G01 X45.477Y23.9495
G01 X45.4817Y23.9532
G01 X45.4908Y23.9572
G01 X45.4995Y23.962
G01 X45.5054Y23.9635
G01 X45.5109Y23.9659
G01 X45.5207Y23.9674
G01 X45.5303Y23.9699
G01 X45.5403Y23.9705
G01 X45.5423Y23.9709
G01 X45.5436Y23.9707
G01 X45.5464Y23.9709
G01 X47.6705Y23.9709
G01 X47.6842Y23.9692
G01 X47.6981Y23.9679
G01 X47.7Y23.9672
G01 X47.702Y23.9669
G01 X47.7149Y23.9618
G01 X47.728Y23.9571
G01 X47.7297Y23.956
G01 X47.7316Y23.9552
G01 X47.7428Y23.9471
G01 X47.7543Y23.9393
G01 X47.7557Y23.9377
G01 X47.7573Y23.9366
G01 X47.7662Y23.9258
G01 X47.7754Y23.9154
G01 X47.7763Y23.9136
G01 X47.7776Y23.9121
G01 X47.7835Y23.8995
G01 X47.7898Y23.8871
G01 X47.7903Y23.8851
G01 X47.7911Y23.8833
G01 X47.7938Y23.8697
G01 X47.7968Y23.8561
G01 X47.7967Y23.854
G01 X47.7971Y23.8521
G01 X47.7963Y23.8382
G01 X47.7958Y23.8243
G01 X47.7953Y23.8223
G01 X47.7952Y23.8203
G01 X47.7909Y23.8071
G01 X47.787Y23.7937
G01 X47.786Y23.792
G01 X47.7853Y23.7901
G01 X47.7779Y23.7783
G01 X47.7708Y23.7663
G01 X47.769Y23.7642
G01 X47.7683Y23.7632
G01 X47.7668Y23.7618
G01 X47.7602Y23.7543
G01 X46.5642Y22.5583
G01 X46.5642Y20.8117
G01 X47.7992Y19.5767
G01 X49.5458Y19.5767
G01 X50.7808Y20.8117
G01 X50.7808Y22.5583
G01 X49.5458Y23.7933
G01 X49.5024Y23.7933
G01 X49.4954Y23.7941
G01 X49.4885Y23.794
G01 X49.4797Y23.7961
G01 X49.4708Y23.7973
G01 X49.4643Y23.7998
G01 X49.4575Y23.8015
G01 X49.4496Y23.8057
G01 X49.4412Y23.809
G01 X49.4356Y23.8131
G01 X49.4294Y23.8163
G01 X49.4228Y23.8224
G01 X49.4155Y23.8276
G01 X49.411Y23.833
G01 X49.4059Y23.8377
G01 X49.4009Y23.8452
G01 X49.3952Y23.8521
G01 X49.3922Y23.8585
G01 X49.3884Y23.8643
G01 X49.3855Y23.8728
G01 X49.3817Y23.8809
G01 X49.3804Y23.8878
G01 X49.3781Y23.8944
G01 X49.3774Y23.9033
G01 X49.3757Y23.9121
G01 X49.3761Y23.9191
G01 X49.3756Y23.9261
G01 X49.3771Y23.9349
G01 X49.3777Y23.9439
G01 X49.3798Y23.9505
G01 X49.381Y23.9574
G01 X49.3847Y23.9656
G01 X49.3875Y23.9741
G01 X49.3912Y23.98
G01 X49.3912Y23.98
M5
G01 X12.3546Y70.8699
M3
G01 X12.3516Y70.8814
G01 X12.3512Y70.8875
G01 X12.3508Y70.8895
G01 X12.351Y70.8915
G01 X12.3506Y70.8975
G01 X12.3506Y70.91741
G01 X12.34306Y70.96825
G01 X12.3378Y71.0753
G01 X12.3378Y73.2597
G01 X12.34306Y73.36675
G01 X12.3506Y73.41759
G01 X12.3506Y86.7725
G01 X12.3521Y86.7843
G01 X12.3528Y86.7962
G01 X12.3541Y86.8
G01 X12.3546Y86.8041
G01 X12.3589Y86.8151
G01 X12.3626Y86.8264
G01 X12.3648Y86.8299
G01 X12.3663Y86.8336
G01 X12.3732Y86.8432
G01 X12.3796Y86.8533
G01 X12.3826Y86.8561
G01 X12.3849Y86.8594
G01 X12.3941Y86.867
G01 X12.4028Y86.8751
G01 X12.4063Y86.8771
G01 X12.4094Y86.8796
G01 X12.4202Y86.8847
G01 X12.4306Y86.8905
G01 X12.4346Y86.8915
G01 X12.4382Y86.8932
G01 X12.4499Y86.8954
G01 X12.4614Y86.8984
G01 X12.4674Y86.8988
G01 X12.4694Y86.8992
G01 X12.4715Y86.899
G01 X12.4775Y86.8994
G01 X132.175Y86.8994
G01 X132.1848Y86.8982
G01 X132.1947Y86.8979
G01 X132.2005Y86.8962
G01 X132.2066Y86.8954
G01 X132.2158Y86.8918
G01 X132.2253Y86.889
G01 X132.2305Y86.886
G01 X132.2361Y86.8837
G01 X132.2441Y86.8779
G01 X132.2527Y86.8729
G01 X132.2602Y86.8663
G01 X132.2619Y86.8651
G01 X132.2626Y86.8641
G01 X132.2647Y86.8623
G01 X143.3773Y75.7498
G01 X143.3833Y75.7419
G01 X143.3901Y75.7347
G01 X143.393Y75.7294
G01 X143.3967Y75.7246
G01 X143.4007Y75.7155
G01 X143.4055Y75.7069
G01 X143.407Y75.701
G01 X143.4094Y75.6954
G01 X143.4109Y75.6856
G01 X143.4134Y75.6761
G01 X143.414Y75.6661
G01 X143.4144Y75.664
G01 X143.4142Y75.6628
G01 X143.4144Y75.66
G01 X143.4144Y31.5275
G01 X143.4129Y31.5157
G01 X143.4122Y31.5038
G01 X143.4109Y31.5
G01 X143.4104Y31.4959
G01 X143.4061Y31.4849
G01 X143.4024Y31.4736
G01 X143.4002Y31.4701
G01 X143.3987Y31.4664
G01 X143.3918Y31.4568
G01 X143.3854Y31.4467
G01 X143.3824Y31.4439
G01 X143.3801Y31.4406
G01 X143.3709Y31.4331
G01 X143.3622Y31.4249
G01 X143.3587Y31.4229
G01 X143.3556Y31.4204
G01 X143.3448Y31.4153
G01 X143.3344Y31.4095
G01 X143.3304Y31.4085
G01 X143.3268Y31.4068
G01 X143.3151Y31.4046
G01 X143.3036Y31.4016
G01 X143.2976Y31.4012
G01 X143.2956Y31.4008
G01 X143.2935Y31.401
G01 X143.2875Y31.4006
G01 X143.2875Y21.05
G01 X143.28444Y20.98776
G01 X143.2753Y20.92612
G01 X143.26016Y20.86567
G01 X143.23916Y20.807
G01 X143.21252Y20.75066
G01 X143.18048Y20.69721
G01 X143.14336Y20.64716
G01 X143.10151Y20.60099
G01 X140.87901Y18.37849
G01 X140.83284Y18.33664
G01 X140.78279Y18.29952
G01 X140.72934Y18.26748
G01 X140.673Y18.24084
G01 X140.61433Y18.21984
G01 X140.55388Y18.2047
G01 X140.49224Y18.19556
G01 X140.43Y18.1925
G01 X135.93053Y18.1925
G01 X132.94151Y15.20349
G01 X132.94151Y15.20349
G01 X132.89534Y15.16164
G01 X132.84529Y15.12452
G01 X132.79184Y15.09248
G01 X132.7355Y15.06584
G01 X132.67683Y15.04484
G01 X132.61638Y15.0297
G01 X132.55474Y15.02056
G01 X132.55474Y15.02056
G01 X132.4925Y15.0175
G01 X109.6325Y15.0175
G01 X109.6325Y11.61555
G01 X109.68Y11.5725
G01 X109.74361Y11.50232
G01 X109.80003Y11.42624
G01 X109.84873Y11.34499
G01 X109.88923Y11.25937
G01 X109.92114Y11.17018
G01 X109.94415Y11.0783
G01 X109.95805Y10.98461
G01 X109.9627Y10.89
G01 X109.95805Y10.79539
G01 X109.94415Y10.7017
G01 X109.92114Y10.60982
G01 X109.88923Y10.52063
G01 X109.84873Y10.43501
G01 X109.80003Y10.35376
G01 X109.74361Y10.27768
G01 X109.68Y10.2075
G01 X109.60982Y10.14389
G01 X109.53374Y10.08747
G01 X109.5055Y10.07054
G01 X109.5055Y8.0325
G01 X109.50305Y7.98271
G01 X109.49574Y7.93339
G01 X109.48363Y7.88504
G01 X109.46683Y7.8381
G01 X109.44552Y7.79303
G01 X109.41989Y7.75027
G01 X109.39019Y7.71023
G01 X109.35671Y7.67329
G01 X107.45171Y5.76829
G01 X107.41477Y5.73481
G01 X107.37473Y5.70511
G01 X107.33197Y5.67948
G01 X107.2869Y5.65817
G01 X107.23996Y5.64137
G01 X107.19161Y5.62926
G01 X107.14229Y5.62195
G01 X107.0925Y5.6195
G01 X69.31Y5.6195
G01 X69.26021Y5.62195
G01 X69.21089Y5.62926
G01 X69.16254Y5.64137
G01 X69.1156Y5.65817
G01 X69.07053Y5.67948
G01 X69.02777Y5.70511
G01 X68.98773Y5.73481
G01 X68.95079Y5.76829
G01 X64.82329Y9.89579
G01 X64.78981Y9.93273
G01 X64.76011Y9.97277
G01 X64.73448Y10.01553
G01 X64.71317Y10.0606
G01 X64.69637Y10.10754
G01 X64.68426Y10.15589
G01 X64.67695Y10.20521
G01 X64.6745Y10.255
G01 X64.6745Y13.24554
G01 X64.64626Y13.26247
G01 X64.57018Y13.31889
G01 X64.5Y13.3825
G01 X64.45695Y13.43
G01 X62.2821Y13.43
G01 X61.8249Y12.9728
G01 X60.9201Y12.9728
G01 X60.4629Y13.43
G01 X54.6621Y13.43
G01 X54.2049Y12.9728
G01 X53.3001Y12.9728
G01 X52.6603Y13.6126
G01 X52.6603Y14.5174
G01 X53.1175Y14.9746
G01 X53.1175Y20.7754
G01 X52.6603Y21.2326
G01 X52.6603Y22.1374
G01 X53.3001Y22.7772
G01 X54.2049Y22.7772
G01 X54.8447Y22.1374
G01 X54.8447Y21.2326
G01 X54.3875Y20.7754
G01 X54.3875Y14.9746
G01 X54.6621Y14.7
G01 X60.4629Y14.7
G01 X60.9201Y15.1572
G01 X61.8249Y15.1572
G01 X62.2821Y14.7
G01 X64.45695Y14.7
G01 X64.5Y14.7475
G01 X64.57018Y14.81111
G01 X64.64626Y14.86753
G01 X64.72751Y14.91623
G01 X64.81313Y14.95673
G01 X64.90232Y14.98864
G01 X64.9942Y15.01165
G01 X65.08789Y15.02555
G01 X65.1825Y15.0302
G01 X65.27711Y15.02555
G01 X65.3708Y15.01165
G01 X65.46268Y14.98864
G01 X65.55187Y14.95673
G01 X65.63749Y14.91623
G01 X65.71874Y14.86753
G01 X65.79482Y14.81111
G01 X65.865Y14.7475
G01 X65.92861Y14.67732
G01 X65.98503Y14.60124
G01 X66.03373Y14.51999
G01 X66.07423Y14.43437
G01 X66.10614Y14.34518
G01 X66.12915Y14.2533
G01 X66.14305Y14.15961
G01 X66.1477Y14.065
G01 X66.14305Y13.97039
G01 X66.12915Y13.8767
G01 X66.10614Y13.78482
G01 X66.07423Y13.69563
G01 X66.03373Y13.61001
G01 X65.98503Y13.52876
G01 X65.92861Y13.45268
G01 X65.865Y13.3825
G01 X65.79482Y13.31889
G01 X65.71874Y13.26247
G01 X65.6905Y13.24554
G01 X65.6905Y10.46542
G01 X69.52042Y6.6355
G01 X106.88208Y6.6355
G01 X108.4895Y8.24292
G01 X108.4895Y10.07054
G01 X108.46126Y10.08747
G01 X108.38518Y10.14389
G01 X108.315Y10.2075
G01 X108.25139Y10.27768
G01 X108.19497Y10.35376
G01 X108.14627Y10.43501
G01 X108.10577Y10.52063
G01 X108.07386Y10.60982
G01 X108.05085Y10.7017
G01 X108.03695Y10.79539
G01 X108.0323Y10.89
G01 X108.03695Y10.98461
G01 X108.05085Y11.0783
G01 X108.07386Y11.17018
G01 X108.10577Y11.25937
G01 X108.14627Y11.34499
G01 X108.19497Y11.42624
G01 X108.25139Y11.50232
G01 X108.315Y11.5725
G01 X108.3625Y11.61555
G01 X108.3625Y15.0175
G01 X107.7275Y15.0175
G01 X107.66526Y15.02056
G01 X107.60362Y15.0297
G01 X107.54317Y15.04484
G01 X107.4845Y15.06584
G01 X107.42816Y15.09248
G01 X107.37471Y15.12452
G01 X107.32466Y15.16164
G01 X107.27849Y15.20349
G01 X107.27849Y15.20349
G01 X106.00849Y16.47349
G01 X105.96664Y16.51966
G01 X105.92952Y16.56971
G01 X105.89748Y16.62316
G01 X105.87084Y16.6795
G01 X105.84984Y16.73817
G01 X105.8347Y16.79862
G01 X105.82556Y16.86026
G01 X105.8225Y16.9225
G01 X105.8225Y17.78445
G01 X105.775Y17.8275
G01 X105.71139Y17.89768
G01 X105.65497Y17.97376
G01 X105.60627Y18.05501
G01 X105.56577Y18.14063
G01 X105.53386Y18.22982
G01 X105.51085Y18.3217
G01 X105.49695Y18.41539
G01 X105.4923Y18.51
G01 X105.49695Y18.60461
G01 X105.51085Y18.6983
G01 X105.53386Y18.79018
G01 X105.56577Y18.87937
G01 X105.60627Y18.96499
G01 X105.65497Y19.04624
G01 X105.71139Y19.12232
G01 X105.775Y19.1925
G01 X105.84518Y19.25611
G01 X105.92126Y19.31253
G01 X106.00251Y19.36123
G01 X106.08813Y19.40173
G01 X106.17732Y19.43364
G01 X106.2692Y19.45665
G01 X106.36289Y19.47055
G01 X106.4575Y19.4752
G01 X106.55211Y19.47055
G01 X106.6458Y19.45665
G01 X106.73768Y19.43364
G01 X106.82687Y19.40173
G01 X106.91249Y19.36123
G01 X106.99374Y19.31253
G01 X107.06982Y19.25611
G01 X107.14Y19.1925
G01 X107.20361Y19.12232
G01 X107.26003Y19.04624
G01 X107.30873Y18.96499
G01 X107.34923Y18.87937
G01 X107.38114Y18.79018
G01 X107.40415Y18.6983
G01 X107.41805Y18.60461
G01 X107.4227Y18.51
G01 X107.41805Y18.41539
G01 X107.40415Y18.3217
G01 X107.38114Y18.22982
G01 X107.34923Y18.14063
G01 X107.30873Y18.05501
G01 X107.26003Y17.97376
G01 X107.20361Y17.89768
G01 X107.14Y17.8275
G01 X107.0925Y17.78445
G01 X107.0925Y17.18553
G01 X107.99053Y16.2875
G01 X108.9975Y16.2875
G01 X132.22947Y16.2875
G01 X135.21849Y19.27651
G01 X135.26466Y19.31836
G01 X135.31471Y19.35548
G01 X135.36816Y19.38752
G01 X135.4245Y19.41416
G01 X135.48317Y19.43516
G01 X135.54362Y19.4503
G01 X135.60526Y19.45944
G01 X135.6675Y19.4625
G01 X140.16697Y19.4625
G01 X142.0175Y21.31303
G01 X142.0175Y31.4006
G01 X126.7775Y31.4006
G01 X126.7677Y31.4018
G01 X126.7578Y31.4021
G01 X126.752Y31.4038
G01 X126.7459Y31.4046
G01 X126.7367Y31.4082
G01 X126.7272Y31.411
G01 X126.722Y31.414
G01 X126.7164Y31.4163
G01 X126.7084Y31.4221
G01 X126.6998Y31.4271
G01 X126.6923Y31.4337
G01 X126.6906Y31.4349
G01 X126.6899Y31.4359
G01 X126.6877Y31.4378
G01 X124.4652Y33.6603
G01 X124.4592Y33.6681
G01 X124.4524Y33.6753
G01 X124.4495Y33.6806
G01 X124.4458Y33.6854
G01 X124.4418Y33.6945
G01 X124.437Y33.7031
G01 X124.4355Y33.709
G01 X124.4331Y33.7146
G01 X124.4316Y33.7244
G01 X124.4291Y33.7339
G01 X124.4285Y33.7439
G01 X124.4281Y33.746
G01 X124.4283Y33.7472
G01 X124.4281Y33.75
G01 X124.4281Y42.3225
G01 X124.4293Y42.3323
G01 X124.4296Y42.3422
G01 X124.4313Y42.348
G01 X124.4321Y42.3541
G01 X124.4357Y42.3633
G01 X124.4385Y42.3728
G01 X124.4415Y42.378
G01 X124.4438Y42.3836
G01 X124.4496Y42.3916
G01 X124.4546Y42.4002
G01 X124.4612Y42.4077
G01 X124.4624Y42.4094
G01 X124.4634Y42.4101
G01 X124.4652Y42.4123
G01 X128.5927Y46.5398
G01 X128.6006Y46.5458
G01 X128.6078Y46.5526
G01 X128.6131Y46.5555
G01 X128.6179Y46.5592
G01 X128.627Y46.5632
G01 X128.6356Y46.568
G01 X128.6415Y46.5695
G01 X128.6471Y46.5719
G01 X128.6569Y46.5734
G01 X128.6664Y46.5759
G01 X128.6764Y46.5765
G01 X128.6785Y46.5769
G01 X128.6797Y46.5767
G01 X128.6825Y46.5769
G01 X131.8049Y46.5769
G01 X133.6356Y48.4076
G01 X133.6356Y68.9399
G01 X122.2799Y80.2956
G01 X93.8101Y80.2956
G01 X89.1219Y75.6074
G01 X89.1219Y73.41759
G01 X89.12944Y73.36675
G01 X89.1347Y73.2597
G01 X89.1347Y71.0753
G01 X89.12944Y70.96825
G01 X89.11371Y70.86222
G01 X89.08767Y70.75825
G01 X89.05156Y70.65733
G01 X89.00573Y70.56044
G01 X88.95063Y70.46851
G01 X88.88678Y70.38242
G01 X88.8148Y70.303
G01 X88.73538Y70.23102
G01 X88.64929Y70.16717
G01 X88.55736Y70.11207
G01 X88.46047Y70.06624
G01 X88.35955Y70.03013
G01 X88.25558Y70.00409
G01 X88.14955Y69.98836
G01 X88.0425Y69.9831
G01 X87.93545Y69.98836
G01 X87.82942Y70.00409
G01 X87.72545Y70.03013
G01 X87.62453Y70.06624
G01 X87.52764Y70.11207
G01 X87.43571Y70.16717
G01 X87.34962Y70.23102
G01 X87.2702Y70.303
G01 X87.19822Y70.38242
G01 X87.13437Y70.46851
G01 X87.07927Y70.56044
G01 X87.03344Y70.65733
G01 X86.99733Y70.75825
G01 X86.97129Y70.86222
G01 X86.95556Y70.96825
G01 X86.9503Y71.0753
G01 X86.9503Y73.2597
G01 X86.95556Y73.36675
G01 X86.9631Y73.41759
G01 X86.9631Y74.0199
G01 X85.7674Y75.2156
G01 X74.5169Y75.2156
G01 X74.5169Y73.41759
G01 X74.52444Y73.36675
G01 X74.5297Y73.2597
G01 X74.5297Y71.0753
G01 X74.52444Y70.96825
G01 X74.5169Y70.91741
G01 X74.5169Y70.8975
G01 X74.5154Y70.8857
G01 X74.5147Y70.8738
G01 X74.5134Y70.87
G01 X74.5129Y70.8659
G01 X74.5086Y70.8549
G01 X74.5049Y70.8436
G01 X74.50349Y70.84135
G01 X74.48267Y70.75825
G01 X74.44656Y70.65733
G01 X74.40073Y70.56044
G01 X74.34563Y70.46851
G01 X74.28178Y70.38242
G01 X74.2098Y70.303
G01 X74.13038Y70.23102
G01 X74.04429Y70.16717
G01 X73.95236Y70.11207
G01 X73.85547Y70.06624
G01 X73.75455Y70.03013
G01 X73.65058Y70.00409
G01 X73.54455Y69.98836
G01 X73.4375Y69.9831
G01 X73.33045Y69.98836
G01 X73.22442Y70.00409
G01 X73.12045Y70.03013
G01 X73.01953Y70.06624
G01 X72.92264Y70.11207
G01 X72.83071Y70.16717
G01 X72.74462Y70.23102
G01 X72.6652Y70.303
G01 X72.59322Y70.38242
G01 X72.52937Y70.46851
G01 X72.47427Y70.56044
G01 X72.42844Y70.65733
G01 X72.39233Y70.75825
G01 X72.37099Y70.84345
G01 X72.367Y70.8506
G01 X72.366Y70.8546
G01 X72.3643Y70.8582
G01 X72.3621Y70.8699
G01 X72.3591Y70.8814
G01 X72.3587Y70.8875
G01 X72.3583Y70.8895
G01 X72.3585Y70.8915
G01 X72.3581Y70.8975
G01 X72.3581Y70.91741
G01 X72.35056Y70.96825
G01 X72.3453Y71.0753
G01 X72.3453Y73.2597
G01 X72.35056Y73.36675
G01 X72.3581Y73.41759
G01 X72.3581Y74.0199
G01 X71.1624Y75.2156
G01 X60.7375Y75.2156
G01 X60.7257Y75.2171
G01 X60.7138Y75.2178
G01 X60.71Y75.2191
G01 X60.7059Y75.2196
G01 X60.6949Y75.2239
G01 X60.6836Y75.2276
G01 X60.6801Y75.2298
G01 X60.6764Y75.2313
G01 X60.6668Y75.2383
G01 X60.6567Y75.2446
G01 X60.6539Y75.2476
G01 X60.6506Y75.2499
G01 X60.643Y75.2591
G01 X60.6349Y75.2678
G01 X60.6329Y75.2713
G01 X60.6304Y75.2744
G01 X60.6253Y75.2852
G01 X60.6195Y75.2956
G01 X60.6185Y75.2996
G01 X60.6168Y75.3032
G01 X60.6146Y75.3149
G01 X60.6116Y75.3264
G01 X60.6112Y75.3325
G01 X60.6108Y75.3345
G01 X60.611Y75.3365
G01 X60.6106Y75.3425
G01 X60.6106Y77.8299
G01 X58.1449Y80.2956
G01 X33.4851Y80.2956
G01 X29.1144Y75.9249
G01 X29.1144Y73.41759
G01 X29.12194Y73.36675
G01 X29.1272Y73.2597
G01 X29.1272Y71.0753
G01 X29.12194Y70.96825
G01 X29.10621Y70.86222
G01 X29.08017Y70.75825
G01 X29.04406Y70.65733
G01 X28.99823Y70.56044
G01 X28.94313Y70.46851
G01 X28.87928Y70.38242
G01 X28.8073Y70.303
G01 X28.72788Y70.23102
G01 X28.64179Y70.16717
G01 X28.54986Y70.11207
G01 X28.45297Y70.06624
G01 X28.35205Y70.03013
G01 X28.24808Y70.00409
G01 X28.14205Y69.98836
G01 X28.035Y69.9831
G01 X27.92795Y69.98836
G01 X27.82192Y70.00409
G01 X27.71795Y70.03013
G01 X27.61703Y70.06624
G01 X27.52014Y70.11207
G01 X27.42821Y70.16717
G01 X27.34212Y70.23102
G01 X27.2627Y70.303
G01 X27.19072Y70.38242
G01 X27.12687Y70.46851
G01 X27.07177Y70.56044
G01 X27.02594Y70.65733
G01 X26.98983Y70.75825
G01 X26.96379Y70.86222
G01 X26.94806Y70.96825
G01 X26.9428Y71.0753
G01 X26.9428Y73.2597
G01 X26.94806Y73.36675
G01 X26.9556Y73.41759
G01 X26.9556Y74.0199
G01 X25.7599Y75.2156
G01 X14.5094Y75.2156
G01 X14.5094Y73.41759
G01 X14.51694Y73.36675
G01 X14.5222Y73.2597
G01 X14.5222Y71.0753
G01 X14.51694Y70.96825
G01 X14.5094Y70.91741
G01 X14.5094Y70.8975
G01 X14.5079Y70.8857
G01 X14.5072Y70.8738
G01 X14.5059Y70.87
G01 X14.5054Y70.8659
G01 X14.5011Y70.8549
G01 X14.4974Y70.8436
G01 X14.49599Y70.84135
G01 X14.47517Y70.75825
G01 X14.43906Y70.65733
G01 X14.39323Y70.56044
G01 X14.33813Y70.46851
G01 X14.27428Y70.38242
G01 X14.2023Y70.303
G01 X14.12288Y70.23102
G01 X14.065Y70.18809
G01 X14.065Y65.1825
G01 X14.06194Y65.12026
G01 X14.0528Y65.05862
G01 X14.03766Y64.99817
G01 X14.01666Y64.9395
G01 X13.99002Y64.88316
G01 X13.95798Y64.82971
G01 X13.92086Y64.77966
G01 X13.87901Y64.73349
G01 X13.87901Y64.73349
G01 X11.02151Y61.87599
G01 X11.02151Y61.87599
G01 X10.97534Y61.83414
G01 X10.96751Y61.82833
G01 X10.92529Y61.79702
G01 X10.8788Y61.76916
G01 X10.87184Y61.76498
G01 X10.8155Y61.73834
G01 X10.75683Y61.71734
G01 X10.69638Y61.7022
G01 X10.63474Y61.69306
G01 X10.5725Y61.69
G01 X10.5725Y61.69
G01 X9.24803Y61.69
G01 X7.3975Y59.83947
G01 X7.3975Y54.65053
G01 X8.61303Y53.435
G01 X27.7175Y53.435
G01 X27.77974Y53.43194
G01 X27.84138Y53.4228
G01 X27.90183Y53.40766
G01 X27.9605Y53.38666
G01 X28.01684Y53.36002
G01 X28.07029Y53.32798
G01 X28.12034Y53.29086
G01 X28.16651Y53.24901
G01 X30.38901Y51.02651
G01 X30.43086Y50.98034
G01 X30.46798Y50.93029
G01 X30.50002Y50.87684
G01 X30.52666Y50.8205
G01 X30.54766Y50.76183
G01 X30.5628Y50.70138
G01 X30.57194Y50.63974
G01 X30.575Y50.5775
G01 X30.575Y43.9227
G01 X30.9052Y43.9227
G01 X30.99981Y43.91805
G01 X31.0935Y43.90415
G01 X31.18538Y43.88114
G01 X31.27457Y43.84923
G01 X31.36019Y43.80873
G01 X31.44144Y43.76003
G01 X31.51752Y43.70361
G01 X31.5877Y43.64
G01 X31.65131Y43.56982
G01 X31.70773Y43.49374
G01 X31.75643Y43.41249
G01 X31.79693Y43.32687
G01 X31.82884Y43.23768
G01 X31.85185Y43.1458
G01 X31.86575Y43.05211
G01 X31.8704Y42.9575
G01 X31.86575Y42.86289
G01 X31.85185Y42.7692
G01 X31.82884Y42.67732
G01 X31.79693Y42.58813
G01 X31.75643Y42.50251
G01 X31.70773Y42.42126
G01 X31.65131Y42.34518
G01 X31.5877Y42.275
G01 X31.51752Y42.21139
G01 X31.44144Y42.15497
G01 X31.36019Y42.10627
G01 X31.27457Y42.06577
G01 X31.18538Y42.03386
G01 X31.0935Y42.01085
G01 X30.99981Y41.99695
G01 X30.9052Y41.9923
G01 X28.9748Y41.9923
G01 X28.88019Y41.99695
G01 X28.7865Y42.01085
G01 X28.69462Y42.03386
G01 X28.60543Y42.06577
G01 X28.51981Y42.10627
G01 X28.43856Y42.15497
G01 X28.36248Y42.21139
G01 X28.2923Y42.275
G01 X28.22869Y42.34518
G01 X28.17227Y42.42126
G01 X28.12357Y42.50251
G01 X28.08307Y42.58813
G01 X28.05116Y42.67732
G01 X28.02815Y42.7692
G01 X28.01425Y42.86289
G01 X28.0096Y42.9575
G01 X28.01425Y43.05211
G01 X28.02815Y43.1458
G01 X28.05116Y43.23768
G01 X28.08307Y43.32687
G01 X28.12357Y43.41249
G01 X28.17227Y43.49374
G01 X28.22869Y43.56982
G01 X28.2923Y43.64
G01 X28.36248Y43.70361
G01 X28.43856Y43.76003
G01 X28.51981Y43.80873
G01 X28.60543Y43.84923
G01 X28.69462Y43.88114
G01 X28.7865Y43.90415
G01 X28.88019Y43.91805
G01 X28.9748Y43.9227
G01 X29.305Y43.9227
G01 X29.305Y50.31447
G01 X27.45447Y52.165
G01 X8.35Y52.165
G01 X8.35Y52.165
G01 X8.35Y52.165
G01 X8.28776Y52.16806
G01 X8.22612Y52.1772
G01 X8.16567Y52.19234
G01 X8.15121Y52.19752
G01 X8.107Y52.21334
G01 X8.05066Y52.23998
G01 X8.0102Y52.26423
G01 X7.99721Y52.27202
G01 X7.94716Y52.30914
G01 X7.92624Y52.3281
G01 X7.90099Y52.35099
G01 X7.90099Y52.35099
G01 X6.31349Y53.93849
G01 X6.31349Y53.93849
G01 X6.29173Y53.96249
G01 X6.27164Y53.98466
G01 X6.25557Y54.00632
G01 X6.23452Y54.03471
G01 X6.20248Y54.08816
G01 X6.19499Y54.104
G01 X6.17584Y54.1445
G01 X6.16496Y54.17489
G01 X6.15484Y54.20317
G01 X6.1397Y54.26362
G01 X6.13056Y54.32526
G01 X6.13056Y54.32526
G01 X6.1287Y54.36304
G01 X6.1275Y54.3875
G01 X6.1275Y54.3875
G01 X6.1275Y60.1025
G01 X6.13056Y60.16474
G01 X6.1397Y60.22638
G01 X6.15484Y60.28683
G01 X6.17584Y60.3455
G01 X6.20248Y60.40184
G01 X6.23452Y60.45529
G01 X6.27164Y60.50534
G01 X6.31349Y60.55151
G01 X8.53599Y62.77401
G01 X8.58216Y62.81586
G01 X8.63221Y62.85298
G01 X8.68566Y62.88502
G01 X8.742Y62.91166
G01 X8.80067Y62.93266
G01 X8.86112Y62.9478
G01 X8.92276Y62.95694
G01 X8.985Y62.96
G01 X10.30947Y62.96
G01 X12.795Y65.44553
G01 X12.795Y70.18809
G01 X12.73712Y70.23102
G01 X12.6577Y70.303
G01 X12.58572Y70.38242
G01 X12.52187Y70.46851
G01 X12.46677Y70.56044
G01 X12.42094Y70.65733
G01 X12.38483Y70.75825
G01 X12.36349Y70.84345
G01 X12.3595Y70.8506
G01 X12.3585Y70.8546
G01 X12.3568Y70.8582
G01 X12.3546Y70.8699
G01 X12.3546Y70.8699
M5
G01 X52.5769Y74.1559
M3
G01 X52.5851Y74.1472
G01 X52.5871Y74.1437
G01 X52.5896Y74.1406
G01 X52.5947Y74.1298
G01 X52.6005Y74.1194
G01 X52.6015Y74.1154
G01 X52.6032Y74.1118
G01 X52.6054Y74.1001
G01 X52.6084Y74.0886
G01 X52.6088Y74.0826
G01 X52.6092Y74.0806
G01 X52.609Y74.0785
G01 X52.6094Y74.0725
G01 X52.6094Y65.6269
G01 X59.6581Y65.6269
G01 X59.6581Y70.91741
G01 X59.65056Y70.96825
G01 X59.6453Y71.0753
G01 X59.6453Y73.2597
G01 X59.65056Y73.36675
G01 X59.6581Y73.41759
G01 X59.6581Y74.0725
G01 X59.6596Y74.0843
G01 X59.6603Y74.0962
G01 X59.6616Y74.1
G01 X59.6621Y74.1041
G01 X59.6664Y74.1151
G01 X59.6701Y74.1264
G01 X59.6723Y74.1299
G01 X59.6738Y74.1336
G01 X59.6807Y74.1432
G01 X59.6871Y74.1533
G01 X59.6901Y74.1561
G01 X59.6924Y74.1594
G01 X59.7016Y74.167
G01 X59.7103Y74.1751
G01 X59.7138Y74.1771
G01 X59.7169Y74.1796
G01 X59.7277Y74.1847
G01 X59.7381Y74.1905
G01 X59.7421Y74.1915
G01 X59.7457Y74.1932
G01 X59.7574Y74.1954
G01 X59.7689Y74.1984
G01 X59.7749Y74.1988
G01 X59.7769Y74.1992
G01 X59.779Y74.199
G01 X59.785Y74.1994
G01 X60.18338Y74.1994
G01 X60.22264Y74.22293
G01 X60.31953Y74.26876
G01 X60.42045Y74.30487
G01 X60.52442Y74.33091
G01 X60.63045Y74.34664
G01 X60.7375Y74.3519
G01 X60.84455Y74.34664
G01 X60.95058Y74.33091
G01 X61.05455Y74.30487
G01 X61.15547Y74.26876
G01 X61.25236Y74.22293
G01 X61.29162Y74.1994
G01 X68.04Y74.1994
G01 X68.0518Y74.1979
G01 X68.0637Y74.1972
G01 X68.0675Y74.1959
G01 X68.0716Y74.1954
G01 X68.0826Y74.1911
G01 X68.0939Y74.1874
G01 X68.0974Y74.1852
G01 X68.1011Y74.1837
G01 X68.1107Y74.1768
G01 X68.1208Y74.1704
G01 X68.1236Y74.1674
G01 X68.1269Y74.1651
G01 X68.1344Y74.1559
G01 X68.1426Y74.1472
G01 X68.1446Y74.1437
G01 X68.1471Y74.1406
G01 X68.1522Y74.1298
G01 X68.158Y74.1194
G01 X68.159Y74.1154
G01 X68.1607Y74.1118
G01 X68.1629Y74.1001
G01 X68.1659Y74.0886
G01 X68.1663Y74.0826
G01 X68.1667Y74.0806
G01 X68.1665Y74.0785
G01 X68.1669Y74.0725
G01 X68.1669Y66.1876
G01 X69.6801Y64.6744
G01 X73.755Y64.6744
G01 X73.7648Y64.6732
G01 X73.7747Y64.6729
G01 X73.7805Y64.6712
G01 X73.7866Y64.6704
G01 X73.7958Y64.6668
G01 X73.8053Y64.664
G01 X73.8105Y64.661
G01 X73.8161Y64.6587
G01 X73.8241Y64.6529
G01 X73.8327Y64.6479
G01 X73.8402Y64.6413
G01 X73.8419Y64.6401
G01 X73.8426Y64.6391
G01 X73.8447Y64.6373
G01 X76.3476Y62.1344
G01 X99.1024Y62.1344
G01 X105.3781Y68.4101
G01 X105.3781Y70.91741
G01 X105.37056Y70.96825
G01 X105.3653Y71.0753
G01 X105.3653Y73.2597
G01 X105.37056Y73.36675
G01 X105.3781Y73.41759
G01 X105.3781Y74.0725
G01 X105.3796Y74.0843
G01 X105.3803Y74.0962
G01 X105.3816Y74.1
G01 X105.3821Y74.1041
G01 X105.3864Y74.1151
G01 X105.3901Y74.1264
G01 X105.3923Y74.1299
G01 X105.3938Y74.1336
G01 X105.4007Y74.1432
G01 X105.4071Y74.1533
G01 X105.4101Y74.1561
G01 X105.4124Y74.1594
G01 X105.4216Y74.167
G01 X105.4303Y74.1751
G01 X105.4338Y74.1771
G01 X105.4369Y74.1796
G01 X105.4477Y74.1847
G01 X105.4581Y74.1905
G01 X105.4621Y74.1915
G01 X105.4657Y74.1932
G01 X105.4774Y74.1954
G01 X105.4889Y74.1984
G01 X105.4949Y74.1988
G01 X105.4969Y74.1992
G01 X105.499Y74.199
G01 X105.505Y74.1994
G01 X105.90338Y74.1994
G01 X105.94264Y74.22293
G01 X106.03953Y74.26876
G01 X106.14045Y74.30487
G01 X106.24442Y74.33091
G01 X106.35045Y74.34664
G01 X106.4575Y74.3519
G01 X106.56455Y74.34664
G01 X106.67058Y74.33091
G01 X106.77455Y74.30487
G01 X106.87547Y74.26876
G01 X106.97236Y74.22293
G01 X107.01162Y74.1994
G01 X112.8075Y74.1994
G01 X112.8193Y74.1979
G01 X112.8312Y74.1972
G01 X112.835Y74.1959
G01 X112.8391Y74.1954
G01 X112.8501Y74.1911
G01 X112.8614Y74.1874
G01 X112.8649Y74.1852
G01 X112.8686Y74.1837
G01 X112.8782Y74.1768
G01 X112.8883Y74.1704
G01 X112.8911Y74.1674
G01 X112.8944Y74.1651
G01 X112.9019Y74.1559
G01 X112.9101Y74.1472
G01 X112.9121Y74.1437
G01 X112.9146Y74.1406
G01 X112.9197Y74.1298
G01 X112.9255Y74.1194
G01 X112.9265Y74.1154
G01 X112.9282Y74.1118
G01 X112.9304Y74.1001
G01 X112.9334Y74.0886
G01 X112.9338Y74.0826
G01 X112.9342Y74.0806
G01 X112.934Y74.0785
G01 X112.9344Y74.0725
G01 X112.9344Y65.6269
G01 X119.9831Y65.6269
G01 X119.9831Y70.91741
G01 X119.97556Y70.96825
G01 X119.9703Y71.0753
G01 X119.9703Y73.2597
G01 X119.97556Y73.36675
G01 X119.9831Y73.41759
G01 X119.9831Y74.0725
G01 X119.9846Y74.0843
G01 X119.9853Y74.0962
G01 X119.9866Y74.1
G01 X119.9871Y74.1041
G01 X119.9914Y74.1151
G01 X119.9951Y74.1264
G01 X119.9973Y74.1299
G01 X119.9988Y74.1336
G01 X120.0057Y74.1432
G01 X120.0121Y74.1533
G01 X120.0151Y74.1561
G01 X120.0174Y74.1594
G01 X120.0266Y74.167
G01 X120.0353Y74.1751
G01 X120.0388Y74.1771
G01 X120.0419Y74.1796
G01 X120.0527Y74.1847
G01 X120.0631Y74.1905
G01 X120.0671Y74.1915
G01 X120.0707Y74.1932
G01 X120.0824Y74.1954
G01 X120.0939Y74.1984
G01 X120.0999Y74.1988
G01 X120.1019Y74.1992
G01 X120.104Y74.199
G01 X120.11Y74.1994
G01 X120.50838Y74.1994
G01 X120.54764Y74.22293
G01 X120.64453Y74.26876
G01 X120.74545Y74.30487
G01 X120.84942Y74.33091
G01 X120.95545Y74.34664
G01 X121.0625Y74.3519
G01 X121.16955Y74.34664
G01 X121.27558Y74.33091
G01 X121.37955Y74.30487
G01 X121.48047Y74.26876
G01 X121.57736Y74.22293
G01 X121.61662Y74.1994
G01 X125.825Y74.1994
G01 X125.8348Y74.1982
G01 X125.8447Y74.1979
G01 X125.8505Y74.1962
G01 X125.8566Y74.1954
G01 X125.8658Y74.1918
G01 X125.8753Y74.189
G01 X125.8805Y74.186
G01 X125.8861Y74.1837
G01 X125.8941Y74.1779
G01 X125.9027Y74.1729
G01 X125.9102Y74.1663
G01 X125.9119Y74.1651
G01 X125.9126Y74.1641
G01 X125.9147Y74.1623
G01 X131.6297Y68.4473
G01 X131.6358Y68.4394
G01 X131.6426Y68.4322
G01 X131.6455Y68.4269
G01 X131.6492Y68.4221
G01 X131.6532Y68.413
G01 X131.658Y68.4044
G01 X131.6595Y68.3985
G01 X131.6619Y68.3929
G01 X131.6634Y68.3831
G01 X131.6659Y68.3736
G01 X131.6665Y68.3636
G01 X131.6669Y68.3615
G01 X131.6667Y68.3603
G01 X131.6669Y68.3575
G01 X131.6669Y58.8325
G01 X131.6654Y58.8207
G01 X131.6647Y58.8088
G01 X131.6634Y58.805
G01 X131.6629Y58.8009
G01 X131.6586Y58.7899
G01 X131.6549Y58.7786
G01 X131.6527Y58.7751
G01 X131.6512Y58.7714
G01 X131.6442Y58.7618
G01 X131.6379Y58.7517
G01 X131.6349Y58.7489
G01 X131.6326Y58.7456
G01 X131.6234Y58.7381
G01 X131.6147Y58.7299
G01 X131.6112Y58.7279
G01 X131.6081Y58.7254
G01 X131.5973Y58.7203
G01 X131.5869Y58.7145
G01 X131.5829Y58.7135
G01 X131.5793Y58.7118
G01 X131.5676Y58.7096
G01 X131.5561Y58.7066
G01 X131.55Y58.7062
G01 X131.548Y58.7058
G01 X131.546Y58.706
G01 X131.54Y58.7056
G01 X125.063Y58.7056
G01 X125.063Y56.2925
G01 X125.06055Y56.24271
G01 X125.05324Y56.19339
G01 X125.04113Y56.14504
G01 X125.02433Y56.0981
G01 X125.00302Y56.05303
G01 X124.97739Y56.01027
G01 X124.94769Y55.97023
G01 X124.91421Y55.93329
G01 X123.32671Y54.34579
G01 X123.28977Y54.31231
G01 X123.24973Y54.28261
G01 X123.20697Y54.25698
G01 X123.1619Y54.23567
G01 X123.11496Y54.21887
G01 X123.08275Y54.2108
G01 X123.06661Y54.20676
G01 X123.01729Y54.19945
G01 X122.9675Y54.197
G01 X101.58792Y54.197
G01 X99.028Y51.63708
G01 X99.028Y40.65125
G01 X99.05175Y40.63364
G01 X99.1127Y40.5784
G01 X99.16794Y40.51745
G01 X99.21694Y40.45138
G01 X99.25923Y40.38082
G01 X99.2944Y40.30647
G01 X99.32211Y40.22902
G01 X99.34209Y40.14922
G01 X99.35416Y40.06786
G01 X99.3582Y39.9857
G01 X99.3582Y38.3093
G01 X99.35416Y38.22714
G01 X99.34209Y38.14578
G01 X99.32211Y38.06598
G01 X99.2944Y37.98853
G01 X99.25923Y37.91418
G01 X99.21694Y37.84362
G01 X99.16794Y37.77755
G01 X99.1127Y37.7166
G01 X99.05175Y37.66136
G01 X98.98568Y37.61236
G01 X98.91512Y37.57007
G01 X98.84077Y37.5349
G01 X98.76332Y37.50719
G01 X98.68352Y37.48721
G01 X98.60216Y37.47514
G01 X98.52Y37.4711
G01 X98.43784Y37.47514
G01 X98.35648Y37.48721
G01 X98.27668Y37.50719
G01 X98.19923Y37.5349
G01 X98.12488Y37.57007
G01 X98.05432Y37.61236
G01 X97.98825Y37.66136
G01 X97.9273Y37.7166
G01 X97.87206Y37.77755
G01 X97.82306Y37.84362
G01 X97.78077Y37.91418
G01 X97.7456Y37.98853
G01 X97.71789Y38.06598
G01 X97.69791Y38.14578
G01 X97.68584Y38.22714
G01 X97.6818Y38.3093
G01 X97.6818Y39.9857
G01 X97.68584Y40.06786
G01 X97.69791Y40.14922
G01 X97.71789Y40.22902
G01 X97.7456Y40.30647
G01 X97.78077Y40.38082
G01 X97.82306Y40.45138
G01 X97.87206Y40.51745
G01 X97.9273Y40.5784
G01 X97.98825Y40.63364
G01 X98.012Y40.65125
G01 X98.012Y51.8475
G01 X98.01445Y51.89729
G01 X98.02176Y51.94661
G01 X98.03387Y51.99496
G01 X98.05067Y52.0419
G01 X98.07198Y52.08697
G01 X98.09761Y52.12973
G01 X98.12731Y52.16977
G01 X98.16079Y52.20671
G01 X101.01829Y55.06421
G01 X101.05523Y55.09769
G01 X101.09527Y55.12739
G01 X101.13803Y55.15302
G01 X101.1831Y55.17433
G01 X101.23004Y55.19113
G01 X101.27839Y55.20324
G01 X101.32771Y55.21055
G01 X101.3775Y55.213
G01 X122.75708Y55.213
G01 X124.047Y56.50292
G01 X124.047Y58.7056
G01 X45.18Y58.7056
G01 X45.1682Y58.7071
G01 X45.1563Y58.7078
G01 X45.1525Y58.7091
G01 X45.1484Y58.7096
G01 X45.1374Y58.7139
G01 X45.1261Y58.7176
G01 X45.1226Y58.7198
G01 X45.1189Y58.7213
G01 X45.1093Y58.7283
G01 X45.0992Y58.7346
G01 X45.0964Y58.7376
G01 X45.0931Y58.7399
G01 X45.0855Y58.7491
G01 X45.0774Y58.7578
G01 X45.0754Y58.7613
G01 X45.0729Y58.7644
G01 X45.0678Y58.7752
G01 X45.062Y58.7856
G01 X45.061Y58.7896
G01 X45.0593Y58.7932
G01 X45.0571Y58.8049
G01 X45.0541Y58.8164
G01 X45.0537Y58.8225
G01 X45.0533Y58.8245
G01 X45.0535Y58.8265
G01 X45.0531Y58.8325
G01 X45.0531Y70.91741
G01 X45.04556Y70.96825
G01 X45.0403Y71.0753
G01 X45.0403Y73.2597
G01 X45.04556Y73.36675
G01 X45.0531Y73.41759
G01 X45.0531Y74.0725
G01 X45.0546Y74.0843
G01 X45.0553Y74.0962
G01 X45.0566Y74.1
G01 X45.0571Y74.1041
G01 X45.0614Y74.1151
G01 X45.0651Y74.1264
G01 X45.0673Y74.1299
G01 X45.0688Y74.1336
G01 X45.0757Y74.1432
G01 X45.0821Y74.1533
G01 X45.0851Y74.1561
G01 X45.0874Y74.1594
G01 X45.0966Y74.167
G01 X45.1053Y74.1751
G01 X45.1088Y74.1771
G01 X45.1119Y74.1796
G01 X45.1227Y74.1847
G01 X45.1331Y74.1905
G01 X45.1371Y74.1915
G01 X45.1407Y74.1932
G01 X45.1524Y74.1954
G01 X45.1639Y74.1984
G01 X45.1699Y74.1988
G01 X45.1719Y74.1992
G01 X45.174Y74.199
G01 X45.18Y74.1994
G01 X45.57838Y74.1994
G01 X45.61764Y74.22293
G01 X45.71453Y74.26876
G01 X45.81545Y74.30487
G01 X45.91942Y74.33091
G01 X46.02545Y74.34664
G01 X46.1325Y74.3519
G01 X46.23955Y74.34664
G01 X46.34558Y74.33091
G01 X46.44955Y74.30487
G01 X46.55047Y74.26876
G01 X46.64736Y74.22293
G01 X46.68662Y74.1994
G01 X52.4825Y74.1994
G01 X52.4943Y74.1979
G01 X52.5062Y74.1972
G01 X52.51Y74.1959
G01 X52.5141Y74.1954
G01 X52.5251Y74.1911
G01 X52.5364Y74.1874
G01 X52.5399Y74.1852
G01 X52.5436Y74.1837
G01 X52.5532Y74.1768
G01 X52.5633Y74.1704
G01 X52.5661Y74.1674
G01 X52.5694Y74.1651
G01 X52.5769Y74.1559
G01 X52.5769Y74.1559
M5
G01 X15.2121Y74.4216
M3
G01 X15.2164Y74.4326
G01 X15.2201Y74.4439
G01 X15.2223Y74.4474
G01 X15.2238Y74.4511
G01 X15.2307Y74.4607
G01 X15.2371Y74.4708
G01 X15.2401Y74.4736
G01 X15.2424Y74.4769
G01 X15.2516Y74.4845
G01 X15.2603Y74.4926
G01 X15.2638Y74.4946
G01 X15.2669Y74.4971
G01 X15.2777Y74.5022
G01 X15.2881Y74.508
G01 X15.2921Y74.509
G01 X15.2957Y74.5107
G01 X15.3074Y74.5129
G01 X15.3189Y74.5159
G01 X15.3249Y74.5163
G01 X15.3269Y74.5167
G01 X15.329Y74.5165
G01 X15.335Y74.5169
G01 X21.685Y74.5169
G01 X21.6968Y74.5154
G01 X21.7087Y74.5147
G01 X21.7125Y74.5134
G01 X21.7166Y74.5129
G01 X21.7276Y74.5086
G01 X21.7389Y74.5049
G01 X21.7424Y74.5027
G01 X21.7461Y74.5012
G01 X21.7557Y74.4943
G01 X21.7658Y74.4879
G01 X21.7686Y74.4849
G01 X21.7719Y74.4826
G01 X21.7794Y74.4734
G01 X21.7876Y74.4647
G01 X21.7896Y74.4612
G01 X21.7921Y74.4581
G01 X21.7972Y74.4473
G01 X21.803Y74.4369
G01 X21.804Y74.4329
G01 X21.8057Y74.4293
G01 X21.8079Y74.4176
G01 X21.8109Y74.4061
G01 X21.8113Y74.4001
G01 X21.8117Y74.3981
G01 X21.8115Y74.396
G01 X21.8119Y74.39
G01 X21.8119Y67.4576
G01 X23.3251Y65.9444
G01 X28.2999Y65.9444
G01 X29.8131Y67.4576
G01 X29.8131Y70.91741
G01 X29.80556Y70.96825
G01 X29.8003Y71.0753
G01 X29.8003Y73.2597
G01 X29.80556Y73.36675
G01 X29.8131Y73.41759
G01 X29.8131Y73.4375
G01 X29.8146Y73.4493
G01 X29.8153Y73.4612
G01 X29.8166Y73.465
G01 X29.8171Y73.4691
G01 X29.8214Y73.4801
G01 X29.8251Y73.4914
G01 X29.82651Y73.49365
G01 X29.84733Y73.57675
G01 X29.88344Y73.67767
G01 X29.92927Y73.77456
G01 X29.98437Y73.86649
G01 X30.04822Y73.95258
G01 X30.1202Y74.032
G01 X30.1306Y74.04143
G01 X30.1306Y75.66
G01 X30.1318Y75.6698
G01 X30.1321Y75.6797
G01 X30.1338Y75.6855
G01 X30.1346Y75.6916
G01 X30.1382Y75.7008
G01 X30.141Y75.7103
G01 X30.144Y75.7155
G01 X30.1463Y75.7211
G01 X30.1521Y75.7291
G01 X30.1571Y75.7377
G01 X30.1637Y75.7452
G01 X30.1649Y75.7469
G01 X30.1659Y75.7476
G01 X30.1677Y75.7498
G01 X33.6602Y79.2423
G01 X33.6681Y79.2483
G01 X33.6753Y79.2551
G01 X33.6806Y79.258
G01 X33.6854Y79.2617
G01 X33.6945Y79.2657
G01 X33.7031Y79.2705
G01 X33.709Y79.272
G01 X33.7146Y79.2744
G01 X33.7244Y79.2759
G01 X33.7339Y79.2784
G01 X33.7439Y79.279
G01 X33.746Y79.2794
G01 X33.7472Y79.2792
G01 X33.75Y79.2794
G01 X57.5625Y79.2794
G01 X57.5723Y79.2782
G01 X57.5822Y79.2779
G01 X57.588Y79.2762
G01 X57.5941Y79.2754
G01 X57.6033Y79.2718
G01 X57.6128Y79.269
G01 X57.618Y79.266
G01 X57.6236Y79.2637
G01 X57.6316Y79.2579
G01 X57.6402Y79.2529
G01 X57.6477Y79.2463
G01 X57.6494Y79.2451
G01 X57.6501Y79.2441
G01 X57.6522Y79.2423
G01 X58.9222Y77.9723
G01 X58.9283Y77.9644
G01 X58.9351Y77.9572
G01 X58.938Y77.9519
G01 X58.9417Y77.9471
G01 X58.9457Y77.938
G01 X58.9505Y77.9294
G01 X58.952Y77.9235
G01 X58.9544Y77.9179
G01 X58.9559Y77.9081
G01 X58.9584Y77.8986
G01 X58.959Y77.8886
G01 X58.9594Y77.8865
G01 X58.9592Y77.8853
G01 X58.9594Y77.8825
G01 X58.9594Y73.41759
G01 X58.96694Y73.36675
G01 X58.9722Y73.2597
G01 X58.9722Y71.0753
G01 X58.96694Y70.96825
G01 X58.95121Y70.86222
G01 X58.92517Y70.75825
G01 X58.88906Y70.65733
G01 X58.84323Y70.56044
G01 X58.78813Y70.46851
G01 X58.72428Y70.38242
G01 X58.6523Y70.303
G01 X58.57288Y70.23102
G01 X58.48679Y70.16717
G01 X58.39486Y70.11207
G01 X58.29797Y70.06624
G01 X58.19705Y70.03013
G01 X58.09308Y70.00409
G01 X57.98705Y69.98836
G01 X57.88Y69.9831
G01 X57.77295Y69.98836
G01 X57.66692Y70.00409
G01 X57.56295Y70.03013
G01 X57.46203Y70.06624
G01 X57.36514Y70.11207
G01 X57.27321Y70.16717
G01 X57.18712Y70.23102
G01 X57.1077Y70.303
G01 X57.03572Y70.38242
G01 X56.97187Y70.46851
G01 X56.91677Y70.56044
G01 X56.87094Y70.65733
G01 X56.83483Y70.75825
G01 X56.80879Y70.86222
G01 X56.79306Y70.96825
G01 X56.7878Y71.0753
G01 X56.7878Y73.2597
G01 X56.79306Y73.36675
G01 X56.8006Y73.41759
G01 X56.8006Y74.0199
G01 X55.6049Y75.2156
G01 X45.5501Y75.2156
G01 X44.3544Y74.0199
G01 X44.3544Y73.41759
G01 X44.36194Y73.36675
G01 X44.3672Y73.2597
G01 X44.3672Y71.0753
G01 X44.36194Y70.96825
G01 X44.34621Y70.86222
G01 X44.32017Y70.75825
G01 X44.28406Y70.65733
G01 X44.23823Y70.56044
G01 X44.18313Y70.46851
G01 X44.11928Y70.38242
G01 X44.0473Y70.303
G01 X43.96788Y70.23102
G01 X43.88179Y70.16717
G01 X43.78986Y70.11207
G01 X43.69297Y70.06624
G01 X43.59205Y70.03013
G01 X43.48808Y70.00409
G01 X43.38205Y69.98836
G01 X43.275Y69.9831
G01 X43.16795Y69.98836
G01 X43.06192Y70.00409
G01 X42.95795Y70.03013
G01 X42.85703Y70.06624
G01 X42.76014Y70.11207
G01 X42.66821Y70.16717
G01 X42.58212Y70.23102
G01 X42.5027Y70.303
G01 X42.43072Y70.38242
G01 X42.36687Y70.46851
G01 X42.31177Y70.56044
G01 X42.26594Y70.65733
G01 X42.22983Y70.75825
G01 X42.20379Y70.86222
G01 X42.18806Y70.96825
G01 X42.1828Y71.0753
G01 X42.1828Y73.2597
G01 X42.18806Y73.36675
G01 X42.1956Y73.41759
G01 X42.1956Y74.0199
G01 X40.9999Y75.2156
G01 X39.2001Y75.2156
G01 X38.0044Y74.0199
G01 X38.0044Y58.8325
G01 X38.0029Y58.8207
G01 X38.0022Y58.8088
G01 X38.0009Y58.805
G01 X38.0004Y58.8009
G01 X37.9961Y58.7899
G01 X37.9924Y58.7786
G01 X37.9902Y58.7751
G01 X37.9887Y58.7714
G01 X37.9817Y58.7618
G01 X37.9754Y58.7517
G01 X37.9724Y58.7489
G01 X37.9701Y58.7456
G01 X37.9609Y58.7381
G01 X37.9522Y58.7299
G01 X37.9487Y58.7279
G01 X37.9456Y58.7254
G01 X37.9348Y58.7203
G01 X37.9244Y58.7145
G01 X37.9204Y58.7135
G01 X37.9168Y58.7118
G01 X37.9051Y58.7096
G01 X37.8936Y58.7066
G01 X37.8875Y58.7062
G01 X37.8855Y58.7058
G01 X37.8835Y58.706
G01 X37.8775Y58.7056
G01 X37.7505Y58.7056
G01 X37.7505Y57.13792
G01 X39.67542Y55.213
G01 X63.595Y55.213
G01 X63.64479Y55.21055
G01 X63.69411Y55.20324
G01 X63.74246Y55.19113
G01 X63.7894Y55.17433
G01 X63.83447Y55.15302
G01 X63.87723Y55.12739
G01 X63.91727Y55.09769
G01 X63.95421Y55.06421
G01 X66.02792Y52.9905
G01 X76.6125Y52.9905
G01 X76.66229Y52.98805
G01 X76.71161Y52.98074
G01 X76.75996Y52.96863
G01 X76.8069Y52.95183
G01 X76.85197Y52.93052
G01 X76.89473Y52.90489
G01 X76.93477Y52.87519
G01 X76.97171Y52.84171
G01 X78.55921Y51.25421
G01 X78.59269Y51.21727
G01 X78.62239Y51.17723
G01 X78.64802Y51.13447
G01 X78.66933Y51.0894
G01 X78.68613Y51.04246
G01 X78.69824Y50.99411
G01 X78.70555Y50.94479
G01 X78.708Y50.895
G01 X78.708Y40.65125
G01 X78.73175Y40.63364
G01 X78.7927Y40.5784
G01 X78.84794Y40.51745
G01 X78.89694Y40.45138
G01 X78.93923Y40.38082
G01 X78.9744Y40.30647
G01 X79.00211Y40.22902
G01 X79.02209Y40.14922
G01 X79.03416Y40.06786
G01 X79.0382Y39.9857
G01 X79.0382Y38.3093
G01 X79.03416Y38.22714
G01 X79.02209Y38.14578
G01 X79.00211Y38.06598
G01 X78.9744Y37.98853
G01 X78.93923Y37.91418
G01 X78.89694Y37.84362
G01 X78.84794Y37.77755
G01 X78.7927Y37.7166
G01 X78.73175Y37.66136
G01 X78.66568Y37.61236
G01 X78.59512Y37.57007
G01 X78.52077Y37.5349
G01 X78.44332Y37.50719
G01 X78.36352Y37.48721
G01 X78.28216Y37.47514
G01 X78.2Y37.4711
G01 X78.11784Y37.47514
G01 X78.03648Y37.48721
G01 X77.95668Y37.50719
G01 X77.87923Y37.5349
G01 X77.80488Y37.57007
G01 X77.73432Y37.61236
G01 X77.66825Y37.66136
G01 X77.6073Y37.7166
G01 X77.55206Y37.77755
G01 X77.50306Y37.84362
G01 X77.46077Y37.91418
G01 X77.4256Y37.98853
G01 X77.39789Y38.06598
G01 X77.37791Y38.14578
G01 X77.36584Y38.22714
G01 X77.3618Y38.3093
G01 X77.3618Y39.9857
G01 X77.36584Y40.06786
G01 X77.37791Y40.14922
G01 X77.39789Y40.22902
G01 X77.4256Y40.30647
G01 X77.46077Y40.38082
G01 X77.50306Y40.45138
G01 X77.55206Y40.51745
G01 X77.6073Y40.5784
G01 X77.66825Y40.63364
G01 X77.692Y40.65125
G01 X77.692Y50.68458
G01 X76.40208Y51.9745
G01 X65.8175Y51.9745
G01 X65.76771Y51.97695
G01 X65.71839Y51.98426
G01 X65.67004Y51.99637
G01 X65.6231Y52.01317
G01 X65.57803Y52.03448
G01 X65.53527Y52.06011
G01 X65.49523Y52.08981
G01 X65.45829Y52.12329
G01 X63.38458Y54.197
G01 X39.465Y54.197
G01 X39.41521Y54.19945
G01 X39.36589Y54.20676
G01 X39.31754Y54.21887
G01 X39.2706Y54.23567
G01 X39.22553Y54.25698
G01 X39.18277Y54.28261
G01 X39.14273Y54.31231
G01 X39.10579Y54.34579
G01 X36.88329Y56.56829
G01 X36.84981Y56.60523
G01 X36.82011Y56.64527
G01 X36.79448Y56.68803
G01 X36.77317Y56.7331
G01 X36.75637Y56.78004
G01 X36.74426Y56.82839
G01 X36.73695Y56.87771
G01 X36.7345Y56.9275
G01 X36.7345Y58.7056
G01 X16.9225Y58.7056
G01 X16.9127Y58.7068
G01 X16.9028Y58.7071
G01 X16.897Y58.7088
G01 X16.8909Y58.7096
G01 X16.8817Y58.7132
G01 X16.8722Y58.716
G01 X16.867Y58.719
G01 X16.8614Y58.7213
G01 X16.8534Y58.7271
G01 X16.8448Y58.7321
G01 X16.8373Y58.7387
G01 X16.8356Y58.7399
G01 X16.8349Y58.7409
G01 X16.8327Y58.7428
G01 X15.2452Y60.3303
G01 X15.2392Y60.3381
G01 X15.2324Y60.3453
G01 X15.2295Y60.3506
G01 X15.2258Y60.3554
G01 X15.2218Y60.3645
G01 X15.217Y60.3731
G01 X15.2155Y60.379
G01 X15.2131Y60.3846
G01 X15.2116Y60.3944
G01 X15.2091Y60.4039
G01 X15.2085Y60.4139
G01 X15.2081Y60.416
G01 X15.2083Y60.4172
G01 X15.2081Y60.42
G01 X15.2081Y70.91741
G01 X15.20056Y70.96825
G01 X15.1953Y71.0753
G01 X15.1953Y73.2597
G01 X15.20056Y73.36675
G01 X15.2081Y73.41759
G01 X15.2081Y74.39
G01 X15.2096Y74.4018
G01 X15.2103Y74.4137
G01 X15.2116Y74.4175
G01 X15.2121Y74.4216
G01 X15.2121Y74.4216
M5
G01 X117.9486Y79.2637
M3
G01 X117.9566Y79.2579
G01 X117.9652Y79.2529
G01 X117.9727Y79.2463
G01 X117.9744Y79.2451
G01 X117.9751Y79.2441
G01 X117.9772Y79.2423
G01 X119.2472Y77.9723
G01 X119.2533Y77.9644
G01 X119.2601Y77.9572
G01 X119.263Y77.9519
G01 X119.2667Y77.9471
G01 X119.2707Y77.938
G01 X119.2755Y77.9294
G01 X119.277Y77.9235
G01 X119.2794Y77.9179
G01 X119.2809Y77.9081
G01 X119.2834Y77.8986
G01 X119.284Y77.8886
G01 X119.2844Y77.8865
G01 X119.2842Y77.8853
G01 X119.2844Y77.8825
G01 X119.2844Y73.41759
G01 X119.29194Y73.36675
G01 X119.2972Y73.2597
G01 X119.2972Y71.0753
G01 X119.29194Y70.96825
G01 X119.27621Y70.86222
G01 X119.25017Y70.75825
G01 X119.21406Y70.65733
G01 X119.16823Y70.56044
G01 X119.11313Y70.46851
G01 X119.04928Y70.38242
G01 X118.9773Y70.303
G01 X118.89788Y70.23102
G01 X118.81179Y70.16717
G01 X118.71986Y70.11207
G01 X118.62297Y70.06624
G01 X118.52205Y70.03013
G01 X118.41808Y70.00409
G01 X118.31205Y69.98836
G01 X118.205Y69.9831
G01 X118.09795Y69.98836
G01 X117.99192Y70.00409
G01 X117.88795Y70.03013
G01 X117.78703Y70.06624
G01 X117.69014Y70.11207
G01 X117.59821Y70.16717
G01 X117.51212Y70.23102
G01 X117.4327Y70.303
G01 X117.36072Y70.38242
G01 X117.29687Y70.46851
G01 X117.24177Y70.56044
G01 X117.19594Y70.65733
G01 X117.15983Y70.75825
G01 X117.13379Y70.86222
G01 X117.11806Y70.96825
G01 X117.1128Y71.0753
G01 X117.1128Y73.2597
G01 X117.11806Y73.36675
G01 X117.1256Y73.41759
G01 X117.1256Y74.0199
G01 X115.9299Y75.2156
G01 X105.8751Y75.2156
G01 X104.6794Y74.0199
G01 X104.6794Y73.41759
G01 X104.68694Y73.36675
G01 X104.6922Y73.2597
G01 X104.6922Y71.0753
G01 X104.68694Y70.96825
G01 X104.67121Y70.86222
G01 X104.64517Y70.75825
G01 X104.60906Y70.65733
G01 X104.56323Y70.56044
G01 X104.50813Y70.46851
G01 X104.44428Y70.38242
G01 X104.3723Y70.303
G01 X104.29288Y70.23102
G01 X104.20679Y70.16717
G01 X104.11486Y70.11207
G01 X104.01797Y70.06624
G01 X103.91705Y70.03013
G01 X103.81308Y70.00409
G01 X103.70705Y69.98836
G01 X103.6Y69.9831
G01 X103.49295Y69.98836
G01 X103.38692Y70.00409
G01 X103.28295Y70.03013
G01 X103.18203Y70.06624
G01 X103.08514Y70.11207
G01 X102.99321Y70.16717
G01 X102.90712Y70.23102
G01 X102.8277Y70.303
G01 X102.75572Y70.38242
G01 X102.69187Y70.46851
G01 X102.63677Y70.56044
G01 X102.59094Y70.65733
G01 X102.55483Y70.75825
G01 X102.52879Y70.86222
G01 X102.51306Y70.96825
G01 X102.5078Y71.0753
G01 X102.5078Y73.2597
G01 X102.51306Y73.36675
G01 X102.5206Y73.41759
G01 X102.5206Y74.0199
G01 X101.3249Y75.2156
G01 X99.5251Y75.2156
G01 X98.3294Y74.0199
G01 X98.3294Y64.5475
G01 X98.3282Y64.5377
G01 X98.3279Y64.5278
G01 X98.3262Y64.522
G01 X98.3254Y64.5159
G01 X98.3218Y64.5067
G01 X98.319Y64.4972
G01 X98.316Y64.492
G01 X98.3137Y64.4864
G01 X98.3079Y64.4784
G01 X98.3029Y64.4698
G01 X98.2963Y64.4623
G01 X98.2951Y64.4606
G01 X98.2941Y64.4599
G01 X98.2922Y64.4578
G01 X96.7047Y62.8703
G01 X96.6969Y62.8642
G01 X96.6897Y62.8574
G01 X96.6844Y62.8545
G01 X96.6796Y62.8508
G01 X96.6705Y62.8468
G01 X96.6619Y62.842
G01 X96.656Y62.8405
G01 X96.6504Y62.8381
G01 X96.6406Y62.8366
G01 X96.6311Y62.8341
G01 X96.6211Y62.8335
G01 X96.619Y62.8331
G01 X96.6178Y62.8333
G01 X96.615Y62.8331
G01 X76.93Y62.8331
G01 X76.9202Y62.8343
G01 X76.9103Y62.8346
G01 X76.9045Y62.8363
G01 X76.8984Y62.8371
G01 X76.8892Y62.8407
G01 X76.8797Y62.8435
G01 X76.8745Y62.8465
G01 X76.8689Y62.8488
G01 X76.8609Y62.8546
G01 X76.8523Y62.8596
G01 X76.8448Y62.8662
G01 X76.8431Y62.8674
G01 X76.8424Y62.8684
G01 X76.8402Y62.8703
G01 X75.2527Y64.4578
G01 X75.2467Y64.4656
G01 X75.2399Y64.4728
G01 X75.237Y64.4781
G01 X75.2333Y64.4829
G01 X75.2293Y64.492
G01 X75.2245Y64.5006
G01 X75.223Y64.5065
G01 X75.2206Y64.5121
G01 X75.2191Y64.5219
G01 X75.2166Y64.5314
G01 X75.216Y64.5414
G01 X75.2156Y64.5435
G01 X75.2158Y64.5447
G01 X75.2156Y64.5475
G01 X75.2156Y70.91741
G01 X75.20806Y70.96825
G01 X75.2028Y71.0753
G01 X75.2028Y73.2597
G01 X75.20806Y73.36675
G01 X75.2156Y73.41759
G01 X75.2156Y74.39
G01 X75.2171Y74.4018
G01 X75.2178Y74.4137
G01 X75.2191Y74.4175
G01 X75.2196Y74.4216
G01 X75.2239Y74.4326
G01 X75.2276Y74.4439
G01 X75.2298Y74.4474
G01 X75.2313Y74.4511
G01 X75.2382Y74.4607
G01 X75.2446Y74.4708
G01 X75.2476Y74.4736
G01 X75.2499Y74.4769
G01 X75.2591Y74.4845
G01 X75.2678Y74.4926
G01 X75.2713Y74.4946
G01 X75.2744Y74.4971
G01 X75.2852Y74.5022
G01 X75.2956Y74.508
G01 X75.2996Y74.509
G01 X75.3032Y74.5107
G01 X75.3149Y74.5129
G01 X75.3264Y74.5159
G01 X75.3324Y74.5163
G01 X75.3344Y74.5167
G01 X75.3365Y74.5165
G01 X75.3425Y74.5169
G01 X81.6925Y74.5169
G01 X81.7043Y74.5154
G01 X81.7162Y74.5147
G01 X81.72Y74.5134
G01 X81.7241Y74.5129
G01 X81.7351Y74.5086
G01 X81.7464Y74.5049
G01 X81.7499Y74.5027
G01 X81.7536Y74.5012
G01 X81.7632Y74.4943
G01 X81.7733Y74.4879
G01 X81.7761Y74.4849
G01 X81.7794Y74.4826
G01 X81.7869Y74.4734
G01 X81.7951Y74.4647
G01 X81.7971Y74.4612
G01 X81.7996Y74.4581
G01 X81.8047Y74.4473
G01 X81.8105Y74.4369
G01 X81.8115Y74.4329
G01 X81.8132Y74.4293
G01 X81.8154Y74.4176
G01 X81.8184Y74.4061
G01 X81.8188Y74.4001
G01 X81.8192Y74.3981
G01 X81.819Y74.396
G01 X81.8194Y74.39
G01 X81.8194Y67.4576
G01 X83.3326Y65.9444
G01 X88.3074Y65.9444
G01 X89.8206Y67.4576
G01 X89.8206Y70.91741
G01 X89.81306Y70.96825
G01 X89.8078Y71.0753
G01 X89.8078Y73.2597
G01 X89.81306Y73.36675
G01 X89.8206Y73.41759
G01 X89.8206Y73.4375
G01 X89.8221Y73.4493
G01 X89.8228Y73.4612
G01 X89.8241Y73.465
G01 X89.8246Y73.4691
G01 X89.8289Y73.4801
G01 X89.8326Y73.4914
G01 X89.83401Y73.49365
G01 X89.85483Y73.57675
G01 X89.89094Y73.67767
G01 X89.93677Y73.77456
G01 X89.99187Y73.86649
G01 X90.05572Y73.95258
G01 X90.1277Y74.032
G01 X90.1381Y74.04143
G01 X90.1381Y75.66
G01 X90.1393Y75.6698
G01 X90.1396Y75.6797
G01 X90.1413Y75.6855
G01 X90.1421Y75.6916
G01 X90.1457Y75.7008
G01 X90.1485Y75.7103
G01 X90.1515Y75.7155
G01 X90.1538Y75.7211
G01 X90.1596Y75.7291
G01 X90.1646Y75.7377
G01 X90.1712Y75.7452
G01 X90.1724Y75.7469
G01 X90.1734Y75.7476
G01 X90.1752Y75.7498
G01 X93.6677Y79.2423
G01 X93.6756Y79.2483
G01 X93.6828Y79.2551
G01 X93.6881Y79.258
G01 X93.6929Y79.2617
G01 X93.702Y79.2657
G01 X93.7106Y79.2705
G01 X93.7165Y79.272
G01 X93.7221Y79.2744
G01 X93.7319Y79.2759
G01 X93.7414Y79.2784
G01 X93.7514Y79.279
G01 X93.7535Y79.2794
G01 X93.7547Y79.2792
G01 X93.7575Y79.2794
G01 X117.8875Y79.2794
G01 X117.8973Y79.2782
G01 X117.9072Y79.2779
G01 X117.913Y79.2762
G01 X117.9191Y79.2754
G01 X117.9283Y79.2718
G01 X117.9378Y79.269
G01 X117.943Y79.266
G01 X117.9486Y79.2637
G01 X117.9486Y79.2637
M5
G01 X124.4418Y20.9945
M3
G01 X124.437Y21.0031
G01 X124.4355Y21.009
G01 X124.4331Y21.0146
G01 X124.4316Y21.0244
G01 X124.4291Y21.0339
G01 X124.4285Y21.0439
G01 X124.4281Y21.046
G01 X124.4283Y21.0472
G01 X124.4281Y21.05
G01 X124.4281Y26.765
G01 X124.4293Y26.7748
G01 X124.4296Y26.7847
G01 X124.4313Y26.7905
G01 X124.4321Y26.7966
G01 X124.4357Y26.8058
G01 X124.4385Y26.8153
G01 X124.4415Y26.8205
G01 X124.4438Y26.8261
G01 X124.4496Y26.8341
G01 X124.4546Y26.8427
G01 X124.4612Y26.8502
G01 X124.4624Y26.8519
G01 X124.4634Y26.8526
G01 X124.4652Y26.8548
G01 X126.6877Y29.0773
G01 X126.6956Y29.0833
G01 X126.7028Y29.0901
G01 X126.7081Y29.093
G01 X126.7129Y29.0967
G01 X126.722Y29.1007
G01 X126.7306Y29.1055
G01 X126.7365Y29.107
G01 X126.7421Y29.1094
G01 X126.7519Y29.1109
G01 X126.7614Y29.1134
G01 X126.7714Y29.114
G01 X126.7735Y29.1144
G01 X126.7747Y29.1142
G01 X126.7775Y29.1144
G01 X138.525Y29.1144
G01 X138.5348Y29.1132
G01 X138.5447Y29.1129
G01 X138.5505Y29.1112
G01 X138.5566Y29.1104
G01 X138.5658Y29.1068
G01 X138.5753Y29.104
G01 X138.5805Y29.101
G01 X138.5861Y29.0987
G01 X138.5941Y29.0929
G01 X138.6027Y29.0879
G01 X138.6102Y29.0813
G01 X138.6119Y29.0801
G01 X138.6126Y29.0791
G01 X138.6148Y29.0773
G01 X140.2023Y27.4898
G01 X140.2083Y27.4819
G01 X140.2151Y27.4747
G01 X140.218Y27.4694
G01 X140.2217Y27.4646
G01 X140.2257Y27.4555
G01 X140.2305Y27.4469
G01 X140.232Y27.441
G01 X140.2344Y27.4354
G01 X140.2359Y27.4256
G01 X140.2384Y27.4161
G01 X140.239Y27.4061
G01 X140.2394Y27.404
G01 X140.2392Y27.4028
G01 X140.2394Y27.4
