; This gcode is generated by my specialised python script for my PCB manufacturer project :))

; Machine Initialization Sequence...

G21 ; to set metric units
G90 ; to set absolute mode , G91 for incremental mode
G94 ; To set the active feed rate mode to units per minute mode

M5 ; disabling spindle PWM
C0 ; Choosing the empty tool slot in the multiplexer circuits

B1 ; Turn ON Machine

$H ; Homing :)
G10 P0 L20 X0.0Y0.0Z0.0 ; Force Reset current coordinates after homing


; The following gcode is the PCB trace laser marking gcode

M5 ; Being extra sure it won't light up before activation

; Getting and Activating Tool-1, The Tool.Laser
G00X165.0Y0.0Z10.5 ; Go to Tool-1 Home Pos
G00X188 ; Enter Female Kinematic Mount Home Pos
A1 ; Latch on Kinematic Mount
G4 P5 ; Wait for Kinematic Mount to fully attach
G00X92 ; Exit Female Kinematic Mount Home Pos
#TODO X0.0Y0.0Z0.0 ;  ;Add tool offset coordinate
C1 ; Choosing tool 1 in the choose demultiplexer circuits

F400 ; setting default feedrate

G00Z16 ; Moving to correct focal length Z position

S200 ; Setting Laser Power

; Number of passes: 1

; Pass number: 1
G01 X18.763Y10.35
M3
G01 X18.84631Y10.34591
G01 X18.90893Y10.33662
G01 X20.738Y12.16569
G01 X20.738Y13.05818
G01 X20.69354Y13.08482
G01 X20.63049Y13.13159
G01 X20.57231Y13.18431
G01 X20.51959Y13.24249
G01 X20.47282Y13.30554
G01 X20.43246Y13.37288
G01 X20.3989Y13.44385
G01 X20.37245Y13.51777
G01 X20.35337Y13.59393
G01 X20.34185Y13.67159
G01 X20.338Y13.75
G01 X20.34185Y13.82841
G01 X20.35337Y13.90607
G01 X20.36597Y13.95635
G01 X19.42231Y14.9
G01 X11.708Y14.9
G01 X11.66879Y14.90193
G01 X11.62996Y14.90769
G01 X11.59189Y14.91722
G01 X11.55493Y14.93045
G01 X11.51944Y14.94723
G01 X11.48577Y14.96741
G01 X11.45424Y14.9908
G01 X11.42516Y15.01716
G01 X6.84435Y19.59797
G01 X6.79407Y19.58537
G01 X6.71641Y19.57385
G01 X6.638Y19.57
G01 X6.55959Y19.57385
G01 X6.48193Y19.58537
G01 X6.40577Y19.60445
G01 X6.33185Y19.6309
G01 X6.26088Y19.66446
G01 X6.19354Y19.70482
G01 X6.13049Y19.75159
G01 X6.07231Y19.80431
G01 X6.01959Y19.86249
G01 X5.97282Y19.92554
G01 X5.94618Y19.97
G01 X4.32982Y19.97
G01 X4.30318Y19.92554
G01 X4.25641Y19.86249
G01 X4.20369Y19.80431
G01 X4.14551Y19.75159
G01 X4.08246Y19.70482
G01 X4.01512Y19.66446
G01 X3.94415Y19.6309
G01 X3.87023Y19.60445
G01 X3.79407Y19.58537
G01 X3.71641Y19.57385
G01 X3.638Y19.57
G01 X3.55959Y19.57385
G01 X3.48193Y19.58537
G01 X3.40577Y19.60445
G01 X3.33185Y19.6309
G01 X3.26088Y19.66446
G01 X3.19354Y19.70482
G01 X3.13049Y19.75159
G01 X3.07231Y19.80431
G01 X3.01959Y19.86249
G01 X2.97282Y19.92554
G01 X2.93246Y19.99288
G01 X2.8989Y20.06385
G01 X2.87245Y20.13777
G01 X2.85337Y20.21393
G01 X2.84185Y20.29159
G01 X2.838Y20.37
G01 X2.84185Y20.44841
G01 X2.85337Y20.52607
G01 X2.87245Y20.60223
G01 X2.8989Y20.67615
G01 X2.93246Y20.74712
G01 X2.97282Y20.81446
G01 X3.01959Y20.87751
G01 X3.07231Y20.93569
G01 X3.13049Y20.98841
G01 X3.19354Y21.03518
G01 X3.238Y21.06182
G01 X3.238Y21.81497
G01 X3.20154Y21.83682
G01 X3.13849Y21.88359
G01 X3.08031Y21.93631
G01 X3.02759Y21.99449
G01 X2.98082Y22.05754
G01 X2.94046Y22.12488
G01 X2.9069Y22.19585
G01 X2.88045Y22.26977
G01 X2.86137Y22.34593
G01 X2.84985Y22.42359
G01 X2.846Y22.502
G01 X2.84985Y22.58041
G01 X2.86137Y22.65807
G01 X2.88045Y22.73423
G01 X2.9069Y22.80815
G01 X2.94046Y22.87912
G01 X2.98082Y22.94646
G01 X3.02759Y23.00951
G01 X3.08031Y23.06769
G01 X3.13849Y23.12041
G01 X3.20154Y23.16718
G01 X3.26888Y23.20754
G01 X3.33985Y23.2411
G01 X3.41377Y23.26755
G01 X3.48993Y23.28663
G01 X3.56759Y23.29815
G01 X3.646Y23.302
G01 X3.72441Y23.29815
G01 X3.80207Y23.28663
G01 X3.87823Y23.26755
G01 X3.95215Y23.2411
G01 X4.02312Y23.20754
G01 X4.09046Y23.16718
G01 X4.15351Y23.12041
G01 X4.21169Y23.06769
G01 X4.26441Y23.00951
G01 X4.31118Y22.94646
G01 X4.35154Y22.87912
G01 X4.3851Y22.80815
G01 X4.41155Y22.73423
G01 X4.43063Y22.65807
G01 X4.44215Y22.58041
G01 X4.446Y22.502
G01 X4.44215Y22.42359
G01 X4.43063Y22.34593
G01 X4.41155Y22.26977
G01 X4.3851Y22.19585
G01 X4.35154Y22.12488
G01 X4.31118Y22.05754
G01 X4.26441Y21.99449
G01 X4.21169Y21.93631
G01 X4.15351Y21.88359
G01 X4.09046Y21.83682
G01 X4.038Y21.80538
G01 X4.038Y21.06182
G01 X4.08246Y21.03518
G01 X4.14551Y20.98841
G01 X4.20369Y20.93569
G01 X4.25641Y20.87751
G01 X4.30318Y20.81446
G01 X4.32982Y20.77
G01 X5.94618Y20.77
G01 X5.97282Y20.81446
G01 X6.01959Y20.87751
G01 X6.07231Y20.93569
G01 X6.13049Y20.98841
G01 X6.19354Y21.03518
G01 X6.26088Y21.07554
G01 X6.33185Y21.1091
G01 X6.40577Y21.13555
G01 X6.48193Y21.15463
G01 X6.55959Y21.16615
G01 X6.638Y21.17
G01 X6.71641Y21.16615
G01 X6.79407Y21.15463
G01 X6.87023Y21.13555
G01 X6.94415Y21.1091
G01 X7.01512Y21.07554
G01 X7.08246Y21.03518
G01 X7.14551Y20.98841
G01 X7.20369Y20.93569
G01 X7.25641Y20.87751
G01 X7.30318Y20.81446
G01 X7.34354Y20.74712
G01 X7.3771Y20.67615
G01 X7.40355Y20.60223
G01 X7.42263Y20.52607
G01 X7.43415Y20.44841
G01 X7.438Y20.37
G01 X7.43415Y20.29159
G01 X7.42263Y20.21393
G01 X7.41003Y20.16365
G01 X11.87369Y15.7
G01 X19.588Y15.7
G01 X19.62721Y15.69807
G01 X19.66604Y15.69231
G01 X19.70411Y15.68278
G01 X19.74107Y15.66955
G01 X19.77656Y15.65277
G01 X19.81023Y15.63259
G01 X19.84176Y15.6092
G01 X19.87084Y15.58284
G01 X20.93165Y14.52203
G01 X20.98193Y14.53463
G01 X21.05959Y14.54615
G01 X21.138Y14.55
G01 X21.21641Y14.54615
G01 X21.29407Y14.53463
G01 X21.37023Y14.51555
G01 X21.44415Y14.4891
G01 X21.51512Y14.45554
G01 X21.58246Y14.41518
G01 X21.64551Y14.36841
G01 X21.70369Y14.31569
G01 X21.75641Y14.25751
G01 X21.80318Y14.19446
G01 X21.84354Y14.12712
G01 X21.8771Y14.05615
G01 X21.90355Y13.98223
G01 X21.92263Y13.90607
G01 X21.93415Y13.82841
G01 X21.938Y13.75
G01 X21.93415Y13.67159
G01 X21.92263Y13.59393
G01 X21.90355Y13.51777
G01 X21.8771Y13.44385
G01 X21.84354Y13.37288
G01 X21.80318Y13.30554
G01 X21.75641Y13.24249
G01 X21.70369Y13.18431
G01 X21.64551Y13.13159
G01 X21.58246Y13.08482
G01 X21.538Y13.05818
G01 X21.538Y12.0
G01 X21.53607Y11.96079
G01 X21.53031Y11.92196
G01 X21.52078Y11.88389
G01 X21.50755Y11.84693
G01 X21.49077Y11.81144
G01 X21.47059Y11.77777
G01 X21.4472Y11.74624
G01 X21.42084Y11.71716
G01 X19.54209Y9.8384
G01 X19.5483Y9.82528
G01 X19.5764Y9.74674
G01 X19.59667Y9.66583
G01 X19.60891Y9.58331
G01 X19.613Y9.5
G01 X19.60891Y9.41669
G01 X19.59667Y9.33417
G01 X19.5764Y9.25326
G01 X19.5483Y9.17472
G01 X19.51263Y9.09931
G01 X19.46975Y9.02777
G01 X19.42006Y8.96077
G01 X19.36404Y8.89896
G01 X19.30223Y8.84294
G01 X19.23523Y8.79325
G01 X19.16369Y8.75037
G01 X19.08828Y8.7147
G01 X19.00974Y8.6866
G01 X18.92883Y8.66633
G01 X18.84631Y8.65409
G01 X18.513Y8.65
G01 X18.42969Y8.65409
G01 X18.34717Y8.66633
G01 X18.26626Y8.6866
G01 X18.18772Y8.7147
G01 X18.11231Y8.75037
G01 X18.04077Y8.79325
G01 X17.97377Y8.84294
G01 X17.91196Y8.89896
G01 X17.85594Y8.96077
G01 X17.80625Y9.02777
G01 X17.76337Y9.09931
G01 X17.7277Y9.17472
G01 X17.6996Y9.25326
G01 X17.67933Y9.33417
G01 X17.66709Y9.41669
G01 X17.663Y9.5
G01 X17.66709Y9.58331
G01 X17.67933Y9.66583
G01 X17.6996Y9.74674
G01 X17.7277Y9.82528
G01 X17.76337Y9.90069
G01 X17.80625Y9.97223
G01 X17.85594Y10.03923
G01 X17.91196Y10.10104
G01 X17.97377Y10.15706
G01 X18.04077Y10.20675
G01 X18.11231Y10.24963
G01 X18.18772Y10.2853
G01 X18.26626Y10.3134
G01 X18.34717Y10.33367
G01 X18.42969Y10.34591
G01 X18.763Y10.35
G01 X18.763Y10.35
M5
G01 X16.263Y10.35
M3
G01 X16.34631Y10.34591
G01 X16.42883Y10.33367
G01 X16.50974Y10.3134
G01 X16.58828Y10.2853
G01 X16.66369Y10.24963
G01 X16.73523Y10.20675
G01 X16.80223Y10.15706
G01 X16.86404Y10.10104
G01 X16.92006Y10.03923
G01 X16.96975Y9.97223
G01 X17.01263Y9.90069
G01 X17.0483Y9.82528
G01 X17.0764Y9.74674
G01 X17.09667Y9.66583
G01 X17.10891Y9.58331
G01 X17.113Y9.5
G01 X17.10891Y9.41669
G01 X17.09667Y9.33417
G01 X17.0764Y9.25326
G01 X17.0483Y9.17472
G01 X17.04209Y9.1616
G01 X17.87869Y8.325
G01 X19.07292Y8.325
G01 X22.138Y11.39008
G01 X22.138Y15.18431
G01 X21.34435Y15.97797
G01 X21.29407Y15.96537
G01 X21.21641Y15.95385
G01 X21.138Y15.95
G01 X21.05959Y15.95385
G01 X20.98193Y15.96537
G01 X20.90577Y15.98445
G01 X20.83185Y16.0109
G01 X20.76088Y16.04446
G01 X20.69354Y16.08482
G01 X20.63049Y16.13159
G01 X20.57231Y16.18431
G01 X20.51959Y16.24249
G01 X20.47282Y16.30554
G01 X20.44618Y16.35
G01 X13.138Y16.35
G01 X13.09879Y16.35193
G01 X13.05996Y16.35769
G01 X13.02189Y16.36722
G01 X12.98493Y16.38045
G01 X12.94944Y16.39723
G01 X12.91577Y16.41741
G01 X12.88424Y16.4408
G01 X12.85516Y16.46716
G01 X12.35516Y16.96716
G01 X12.3288Y16.99624
G01 X12.30541Y17.02777
G01 X12.28523Y17.06144
G01 X12.26845Y17.09693
G01 X12.25522Y17.13389
G01 X12.24569Y17.17196
G01 X12.23993Y17.21079
G01 X12.238Y17.25
G01 X12.238Y19.67818
G01 X12.19354Y19.70482
G01 X12.13049Y19.75159
G01 X12.07231Y19.80431
G01 X12.01959Y19.86249
G01 X11.97282Y19.92554
G01 X11.94618Y19.97
G01 X10.32982Y19.97
G01 X10.30318Y19.92554
G01 X10.25641Y19.86249
G01 X10.20369Y19.80431
G01 X10.14551Y19.75159
G01 X10.08246Y19.70482
G01 X10.01512Y19.66446
G01 X9.94415Y19.6309
G01 X9.87023Y19.60445
G01 X9.79407Y19.58537
G01 X9.71641Y19.57385
G01 X9.638Y19.57
G01 X9.55959Y19.57385
G01 X9.48193Y19.58537
G01 X9.40577Y19.60445
G01 X9.33185Y19.6309
G01 X9.26088Y19.66446
G01 X9.19354Y19.70482
G01 X9.13049Y19.75159
G01 X9.07231Y19.80431
G01 X9.01959Y19.86249
G01 X8.97282Y19.92554
G01 X8.93246Y19.99288
G01 X8.8989Y20.06385
G01 X8.87245Y20.13777
G01 X8.85337Y20.21393
G01 X8.84185Y20.29159
G01 X8.838Y20.37
G01 X8.84185Y20.44841
G01 X8.85337Y20.52607
G01 X8.87245Y20.60223
G01 X8.87281Y20.60324
G01 X8.86445Y20.62093
G01 X8.85122Y20.65789
G01 X8.84169Y20.69596
G01 X8.83593Y20.73479
G01 X8.834Y20.774
G01 X8.834Y21.81018
G01 X8.78954Y21.83682
G01 X8.72649Y21.88359
G01 X8.66831Y21.93631
G01 X8.61559Y21.99449
G01 X8.56882Y22.05754
G01 X8.52846Y22.12488
G01 X8.4949Y22.19585
G01 X8.46845Y22.26977
G01 X8.44937Y22.34593
G01 X8.43785Y22.42359
G01 X8.434Y22.502
G01 X8.43785Y22.58041
G01 X8.44937Y22.65807
G01 X8.46845Y22.73423
G01 X8.4949Y22.80815
G01 X8.52846Y22.87912
G01 X8.56882Y22.94646
G01 X8.61559Y23.00951
G01 X8.66831Y23.06769
G01 X8.72649Y23.12041
G01 X8.78954Y23.16718
G01 X8.85688Y23.20754
G01 X8.92785Y23.2411
G01 X9.00177Y23.26755
G01 X9.07793Y23.28663
G01 X9.15559Y23.29815
G01 X9.234Y23.302
G01 X9.31241Y23.29815
G01 X9.39007Y23.28663
G01 X9.46623Y23.26755
G01 X9.54015Y23.2411
G01 X9.61112Y23.20754
G01 X9.67846Y23.16718
G01 X9.74151Y23.12041
G01 X9.79969Y23.06769
G01 X9.85241Y23.00951
G01 X9.89918Y22.94646
G01 X9.93954Y22.87912
G01 X9.9731Y22.80815
G01 X9.99955Y22.73423
G01 X10.01863Y22.65807
G01 X10.03015Y22.58041
G01 X10.034Y22.502
G01 X10.03015Y22.42359
G01 X10.01863Y22.34593
G01 X9.99955Y22.26977
G01 X9.9731Y22.19585
G01 X9.93954Y22.12488
G01 X9.89918Y22.05754
G01 X9.85241Y21.99449
G01 X9.79969Y21.93631
G01 X9.74151Y21.88359
G01 X9.67846Y21.83682
G01 X9.634Y21.81018
G01 X9.634Y21.1698
G01 X9.638Y21.17
G01 X9.71641Y21.16615
G01 X9.79407Y21.15463
G01 X9.87023Y21.13555
G01 X9.94415Y21.1091
G01 X10.01512Y21.07554
G01 X10.08246Y21.03518
G01 X10.14551Y20.98841
G01 X10.20369Y20.93569
G01 X10.25641Y20.87751
G01 X10.30318Y20.81446
G01 X10.32982Y20.77
G01 X11.94618Y20.77
G01 X11.97282Y20.81446
G01 X12.01959Y20.87751
G01 X12.07231Y20.93569
G01 X12.13049Y20.98841
G01 X12.19354Y21.03518
G01 X12.26088Y21.07554
G01 X12.33185Y21.1091
G01 X12.40577Y21.13555
G01 X12.48193Y21.15463
G01 X12.55959Y21.16615
G01 X12.638Y21.17
G01 X12.71641Y21.16615
G01 X12.79407Y21.15463
G01 X12.87023Y21.13555
G01 X12.94415Y21.1091
G01 X13.01512Y21.07554
G01 X13.08246Y21.03518
G01 X13.14551Y20.98841
G01 X13.20369Y20.93569
G01 X13.25641Y20.87751
G01 X13.30318Y20.81446
G01 X13.34354Y20.74712
G01 X13.3771Y20.67615
G01 X13.40355Y20.60223
G01 X13.42263Y20.52607
G01 X13.43415Y20.44841
G01 X13.438Y20.37
G01 X13.43415Y20.29159
G01 X13.42263Y20.21393
G01 X13.40355Y20.13777
G01 X13.3771Y20.06385
G01 X13.34354Y19.99288
G01 X13.30318Y19.92554
G01 X13.25641Y19.86249
G01 X13.20369Y19.80431
G01 X13.14551Y19.75159
G01 X13.08246Y19.70482
G01 X13.038Y19.67818
G01 X13.038Y17.41569
G01 X13.30369Y17.15
G01 X20.44618Y17.15
G01 X20.47282Y17.19446
G01 X20.51959Y17.25751
G01 X20.57231Y17.31569
G01 X20.63049Y17.36841
G01 X20.69354Y17.41518
G01 X20.76088Y17.45554
G01 X20.83185Y17.4891
G01 X20.90577Y17.51555
G01 X20.98193Y17.53463
G01 X21.05959Y17.54615
G01 X21.138Y17.55
G01 X21.21641Y17.54615
G01 X21.29407Y17.53463
G01 X21.37023Y17.51555
G01 X21.44415Y17.4891
G01 X21.51512Y17.45554
G01 X21.58246Y17.41518
G01 X21.64551Y17.36841
G01 X21.70369Y17.31569
G01 X21.75641Y17.25751
G01 X21.80318Y17.19446
G01 X21.84354Y17.12712
G01 X21.8771Y17.05615
G01 X21.90355Y16.98223
G01 X21.92263Y16.90607
G01 X21.93415Y16.82841
G01 X21.938Y16.75
G01 X21.93415Y16.67159
G01 X21.92263Y16.59393
G01 X21.91003Y16.54365
G01 X22.82084Y15.63284
G01 X22.8472Y15.60376
G01 X22.87059Y15.57223
G01 X22.89077Y15.53856
G01 X22.90755Y15.50307
G01 X22.92078Y15.46611
G01 X22.93031Y15.42804
G01 X22.93607Y15.38921
G01 X22.938Y15.35
G01 X22.938Y11.22439
G01 X22.93607Y11.18518
G01 X22.93031Y11.14635
G01 X22.92078Y11.10828
G01 X22.90755Y11.07132
G01 X22.89077Y11.03583
G01 X22.87059Y11.00216
G01 X22.8472Y10.97063
G01 X22.82084Y10.94155
G01 X19.52145Y7.64216
G01 X19.49237Y7.6158
G01 X19.46084Y7.59241
G01 X19.42717Y7.57223
G01 X19.39168Y7.55545
G01 X19.35472Y7.54222
G01 X19.31665Y7.53269
G01 X19.27782Y7.52693
G01 X19.23861Y7.525
G01 X17.713Y7.525
G01 X17.67379Y7.52693
G01 X17.63496Y7.53269
G01 X17.59689Y7.54222
G01 X17.55993Y7.55545
G01 X17.52444Y7.57223
G01 X17.49077Y7.59241
G01 X17.45924Y7.6158
G01 X17.43016Y7.64216
G01 X16.40893Y8.66338
G01 X16.34631Y8.65409
G01 X16.013Y8.65
G01 X15.92969Y8.65409
G01 X15.84717Y8.66633
G01 X15.76626Y8.6866
G01 X15.68772Y8.7147
G01 X15.61231Y8.75037
G01 X15.54077Y8.79325
G01 X15.47377Y8.84294
G01 X15.41196Y8.89896
G01 X15.35594Y8.96077
G01 X15.30625Y9.02777
G01 X15.26337Y9.09931
G01 X15.2277Y9.17472
G01 X15.1996Y9.25326
G01 X15.17933Y9.33417
G01 X15.16709Y9.41669
G01 X15.163Y9.5
G01 X15.16709Y9.58331
G01 X15.17933Y9.66583
G01 X15.1996Y9.74674
G01 X15.2277Y9.82528
G01 X15.26337Y9.90069
G01 X15.30625Y9.97223
G01 X15.35594Y10.03923
G01 X15.41196Y10.10104
G01 X15.47377Y10.15706
G01 X15.54077Y10.20675
G01 X15.61231Y10.24963
G01 X15.68772Y10.2853
G01 X15.76626Y10.3134
G01 X15.84717Y10.33367
G01 X15.92969Y10.34591
G01 X16.263Y10.35
G01 X16.263Y10.35
M5
G01 X20.98193Y18.96537
M3
G01 X20.90577Y18.98445
G01 X20.83185Y19.0109
G01 X20.76088Y19.04446
G01 X20.69354Y19.08482
G01 X20.63049Y19.13159
G01 X20.57231Y19.18431
G01 X20.51959Y19.24249
G01 X20.47282Y19.30554
G01 X20.43246Y19.37288
G01 X20.3989Y19.44385
G01 X20.37245Y19.51777
G01 X20.35337Y19.59393
G01 X20.34185Y19.67159
G01 X20.338Y19.75
G01 X20.34185Y19.82841
G01 X20.35337Y19.90607
G01 X20.36597Y19.95635
G01 X20.35231Y19.97
G01 X19.32982Y19.97
G01 X19.30318Y19.92554
G01 X19.25641Y19.86249
G01 X19.20369Y19.80431
G01 X19.14551Y19.75159
G01 X19.08246Y19.70482
G01 X19.01512Y19.66446
G01 X18.94415Y19.6309
G01 X18.87023Y19.60445
G01 X18.79407Y19.58537
G01 X18.71641Y19.57385
G01 X18.638Y19.57
G01 X18.55959Y19.57385
G01 X18.48193Y19.58537
G01 X18.40577Y19.60445
G01 X18.33185Y19.6309
G01 X18.26088Y19.66446
G01 X18.19354Y19.70482
G01 X18.13049Y19.75159
G01 X18.07231Y19.80431
G01 X18.01959Y19.86249
G01 X17.97282Y19.92554
G01 X17.94618Y19.97
G01 X16.32982Y19.97
G01 X16.30318Y19.92554
G01 X16.25641Y19.86249
G01 X16.20369Y19.80431
G01 X16.14551Y19.75159
G01 X16.08246Y19.70482
G01 X16.01512Y19.66446
G01 X15.94415Y19.6309
G01 X15.87023Y19.60445
G01 X15.79407Y19.58537
G01 X15.71641Y19.57385
G01 X15.638Y19.57
G01 X15.55959Y19.57385
G01 X15.48193Y19.58537
G01 X15.40577Y19.60445
G01 X15.33185Y19.6309
G01 X15.26088Y19.66446
G01 X15.19354Y19.70482
G01 X15.13049Y19.75159
G01 X15.07231Y19.80431
G01 X15.01959Y19.86249
G01 X14.97282Y19.92554
G01 X14.93246Y19.99288
G01 X14.8989Y20.06385
G01 X14.87245Y20.13777
G01 X14.85337Y20.21393
G01 X14.84185Y20.29159
G01 X14.838Y20.37
G01 X14.84185Y20.44841
G01 X14.85337Y20.52607
G01 X14.86597Y20.57635
G01 X14.53916Y20.90316
G01 X14.5128Y20.93224
G01 X14.48941Y20.96377
G01 X14.46923Y20.99744
G01 X14.45245Y21.03293
G01 X14.43922Y21.06989
G01 X14.42969Y21.10796
G01 X14.42393Y21.14679
G01 X14.422Y21.186
G01 X14.422Y21.81018
G01 X14.37754Y21.83682
G01 X14.31449Y21.88359
G01 X14.25631Y21.93631
G01 X14.20359Y21.99449
G01 X14.15682Y22.05754
G01 X14.11646Y22.12488
G01 X14.0829Y22.19585
G01 X14.05645Y22.26977
G01 X14.03737Y22.34593
G01 X14.02585Y22.42359
G01 X14.022Y22.502
G01 X14.02585Y22.58041
G01 X14.03737Y22.65807
G01 X14.05645Y22.73423
G01 X14.0829Y22.80815
G01 X14.11646Y22.87912
G01 X14.15682Y22.94646
G01 X14.20359Y23.00951
G01 X14.25631Y23.06769
G01 X14.31449Y23.12041
G01 X14.37754Y23.16718
G01 X14.44488Y23.20754
G01 X14.51585Y23.2411
G01 X14.58977Y23.26755
G01 X14.66593Y23.28663
G01 X14.74359Y23.29815
G01 X14.822Y23.302
G01 X14.90041Y23.29815
G01 X14.97807Y23.28663
G01 X15.05423Y23.26755
G01 X15.12815Y23.2411
G01 X15.19912Y23.20754
G01 X15.26646Y23.16718
G01 X15.32951Y23.12041
G01 X15.38769Y23.06769
G01 X15.44041Y23.00951
G01 X15.48718Y22.94646
G01 X15.52754Y22.87912
G01 X15.5611Y22.80815
G01 X15.58755Y22.73423
G01 X15.60663Y22.65807
G01 X15.61815Y22.58041
G01 X15.622Y22.502
G01 X15.61815Y22.42359
G01 X15.60663Y22.34593
G01 X15.58755Y22.26977
G01 X15.5611Y22.19585
G01 X15.52754Y22.12488
G01 X15.48718Y22.05754
G01 X15.44041Y21.99449
G01 X15.38769Y21.93631
G01 X15.32951Y21.88359
G01 X15.26646Y21.83682
G01 X15.222Y21.81018
G01 X15.222Y21.35169
G01 X15.43165Y21.14203
G01 X15.48193Y21.15463
G01 X15.55959Y21.16615
G01 X15.638Y21.17
G01 X15.71641Y21.16615
G01 X15.79407Y21.15463
G01 X15.87023Y21.13555
G01 X15.94415Y21.1091
G01 X16.01512Y21.07554
G01 X16.08246Y21.03518
G01 X16.14551Y20.98841
G01 X16.20369Y20.93569
G01 X16.25641Y20.87751
G01 X16.30318Y20.81446
G01 X16.32982Y20.77
G01 X17.94618Y20.77
G01 X17.97282Y20.81446
G01 X18.01959Y20.87751
G01 X18.07231Y20.93569
G01 X18.13049Y20.98841
G01 X18.19354Y21.03518
G01 X18.26088Y21.07554
G01 X18.33185Y21.1091
G01 X18.40577Y21.13555
G01 X18.48193Y21.15463
G01 X18.55959Y21.16615
G01 X18.638Y21.17
G01 X18.71641Y21.16615
G01 X18.79407Y21.15463
G01 X18.87023Y21.13555
G01 X18.94415Y21.1091
G01 X19.01512Y21.07554
G01 X19.08246Y21.03518
G01 X19.14551Y20.98841
G01 X19.20369Y20.93569
G01 X19.25641Y20.87751
G01 X19.30318Y20.81446
G01 X19.32982Y20.77
G01 X20.518Y20.77
G01 X20.55721Y20.76807
G01 X20.59604Y20.76231
G01 X20.63411Y20.75278
G01 X20.67107Y20.73955
G01 X20.70656Y20.72277
G01 X20.74023Y20.70259
G01 X20.77176Y20.6792
G01 X20.80084Y20.65284
G01 X20.93165Y20.52203
G01 X20.98193Y20.53463
G01 X21.05959Y20.54615
G01 X21.138Y20.55
G01 X21.21641Y20.54615
G01 X21.29407Y20.53463
G01 X21.37023Y20.51555
G01 X21.44415Y20.4891
G01 X21.51512Y20.45554
G01 X21.58246Y20.41518
G01 X21.64551Y20.36841
G01 X21.70369Y20.31569
G01 X21.75641Y20.25751
G01 X21.80318Y20.19446
G01 X21.84354Y20.12712
G01 X21.8771Y20.05615
G01 X21.90355Y19.98223
G01 X21.92263Y19.90607
G01 X21.93415Y19.82841
G01 X21.938Y19.75
G01 X21.93415Y19.67159
G01 X21.92263Y19.59393
G01 X21.91003Y19.54365
G01 X23.82084Y17.63284
G01 X23.8472Y17.60376
G01 X23.87059Y17.57223
G01 X23.89077Y17.53856
G01 X23.90755Y17.50307
G01 X23.92078Y17.46611
G01 X23.93031Y17.42804
G01 X23.93607Y17.38921
G01 X23.938Y17.35
G01 X23.938Y10.81018
G01 X23.93607Y10.77097
G01 X23.93031Y10.73214
G01 X23.92078Y10.69407
G01 X23.90755Y10.65711
G01 X23.89077Y10.62162
G01 X23.87059Y10.58795
G01 X23.8472Y10.55642
G01 X23.82084Y10.52734
G01 X19.93566Y6.64216
G01 X19.90658Y6.6158
G01 X19.87505Y6.59241
G01 X19.84138Y6.57223
G01 X19.80589Y6.55545
G01 X19.76893Y6.54222
G01 X19.73086Y6.53269
G01 X19.69203Y6.52693
G01 X19.65282Y6.525
G01 X16.213Y6.525
G01 X16.17379Y6.52693
G01 X16.13496Y6.53269
G01 X16.09689Y6.54222
G01 X16.05993Y6.55545
G01 X16.02444Y6.57223
G01 X15.99077Y6.59241
G01 X15.95924Y6.6158
G01 X15.93016Y6.64216
G01 X13.67231Y8.9
G01 X12.913Y8.9
G01 X12.913Y10.1
G01 X14.363Y10.1
G01 X14.363Y9.34069
G01 X16.37869Y7.325
G01 X19.48713Y7.325
G01 X23.138Y10.97587
G01 X23.138Y17.18431
G01 X21.34435Y18.97797
G01 X21.29407Y18.96537
G01 X21.21641Y18.95385
G01 X21.138Y18.95
G01 X21.05959Y18.95385
G01 X20.98193Y18.96537
G01 X20.98193Y18.96537
M5
G01 X7.08731Y8.75037
M3
G01 X7.01577Y8.79325
G01 X6.94877Y8.84294
G01 X6.88696Y8.89896
G01 X6.83094Y8.96077
G01 X6.78125Y9.02777
G01 X6.73837Y9.09931
G01 X6.7027Y9.17472
G01 X6.6746Y9.25326
G01 X6.65433Y9.33417
G01 X6.64209Y9.41669
G01 X6.638Y9.5
G01 X6.64209Y9.58331
G01 X6.65433Y9.66583
G01 X6.6746Y9.74674
G01 X6.7027Y9.82528
G01 X6.73837Y9.90069
G01 X6.78125Y9.97223
G01 X6.83094Y10.03923
G01 X6.88696Y10.10104
G01 X6.94877Y10.15706
G01 X7.01577Y10.20675
G01 X7.08731Y10.24963
G01 X7.16272Y10.2853
G01 X7.24126Y10.3134
G01 X7.32217Y10.33367
G01 X7.40469Y10.34591
G01 X7.788Y10.35
G01 X7.87131Y10.34591
G01 X7.95383Y10.33367
G01 X8.03474Y10.3134
G01 X8.11328Y10.2853
G01 X8.18869Y10.24963
G01 X8.26023Y10.20675
G01 X8.32723Y10.15706
G01 X8.38904Y10.10104
G01 X8.44506Y10.03923
G01 X8.49475Y9.97223
G01 X8.53763Y9.90069
G01 X8.5733Y9.82528
G01 X8.6014Y9.74674
G01 X8.62167Y9.66583
G01 X8.63391Y9.58331
G01 X8.638Y9.5
G01 X8.63391Y9.41669
G01 X8.62167Y9.33417
G01 X8.6014Y9.25326
G01 X8.5733Y9.17472
G01 X8.55906Y9.14462
G01 X11.37869Y6.325
G01 X19.90135Y6.325
G01 X25.738Y12.16165
G01 X25.738Y13.05818
G01 X25.69354Y13.08482
G01 X25.63049Y13.13159
G01 X25.57231Y13.18431
G01 X25.51959Y13.24249
G01 X25.47282Y13.30554
G01 X25.43246Y13.37288
G01 X25.3989Y13.44385
G01 X25.37245Y13.51777
G01 X25.35337Y13.59393
G01 X25.34185Y13.67159
G01 X25.338Y13.75
G01 X25.34185Y13.82841
G01 X25.35337Y13.90607
G01 X25.37245Y13.98223
G01 X25.3989Y14.05615
G01 X25.43246Y14.12712
G01 X25.47282Y14.19446
G01 X25.51959Y14.25751
G01 X25.57231Y14.31569
G01 X25.63049Y14.36841
G01 X25.69354Y14.41518
G01 X25.738Y14.44182
G01 X25.738Y16.05818
G01 X25.69354Y16.08482
G01 X25.63049Y16.13159
G01 X25.57231Y16.18431
G01 X25.51959Y16.24249
G01 X25.47282Y16.30554
G01 X25.43246Y16.37288
G01 X25.3989Y16.44385
G01 X25.37245Y16.51777
G01 X25.35337Y16.59393
G01 X25.34185Y16.67159
G01 X25.338Y16.75
G01 X25.34185Y16.82841
G01 X25.35337Y16.90607
G01 X25.37245Y16.98223
G01 X25.3989Y17.05615
G01 X25.43246Y17.12712
G01 X25.47282Y17.19446
G01 X25.51959Y17.25751
G01 X25.57231Y17.31569
G01 X25.63049Y17.36841
G01 X25.69354Y17.41518
G01 X25.738Y17.44182
G01 X25.738Y19.05818
G01 X25.69354Y19.08482
G01 X25.63049Y19.13159
G01 X25.57231Y19.18431
G01 X25.51959Y19.24249
G01 X25.47282Y19.30554
G01 X25.43246Y19.37288
G01 X25.3989Y19.44385
G01 X25.37245Y19.51777
G01 X25.35337Y19.59393
G01 X25.34185Y19.67159
G01 X25.338Y19.75
G01 X25.34185Y19.82841
G01 X25.35337Y19.90607
G01 X25.36597Y19.95635
G01 X23.22031Y22.102
G01 X18.05382Y22.102
G01 X18.02718Y22.05754
G01 X17.98041Y21.99449
G01 X17.92769Y21.93631
G01 X17.86951Y21.88359
G01 X17.80646Y21.83682
G01 X17.73912Y21.79646
G01 X17.66815Y21.7629
G01 X17.59423Y21.73645
G01 X17.51807Y21.71737
G01 X17.44041Y21.70585
G01 X17.362Y21.702
G01 X17.28359Y21.70585
G01 X17.20593Y21.71737
G01 X17.12977Y21.73645
G01 X17.05585Y21.7629
G01 X16.98488Y21.79646
G01 X16.91754Y21.83682
G01 X16.85449Y21.88359
G01 X16.79631Y21.93631
G01 X16.74359Y21.99449
G01 X16.69682Y22.05754
G01 X16.65646Y22.12488
G01 X16.6229Y22.19585
G01 X16.59645Y22.26977
G01 X16.57737Y22.34593
G01 X16.56585Y22.42359
G01 X16.562Y22.502
G01 X16.56585Y22.58041
G01 X16.57737Y22.65807
G01 X16.58997Y22.70835
G01 X15.79631Y23.502
G01 X11.33969Y23.502
G01 X11.56765Y23.27403
G01 X11.61793Y23.28663
G01 X11.69559Y23.29815
G01 X11.774Y23.302
G01 X11.85241Y23.29815
G01 X11.93007Y23.28663
G01 X12.00623Y23.26755
G01 X12.08015Y23.2411
G01 X12.15112Y23.20754
G01 X12.21846Y23.16718
G01 X12.28151Y23.12041
G01 X12.33969Y23.06769
G01 X12.39241Y23.00951
G01 X12.43918Y22.94646
G01 X12.47954Y22.87912
G01 X12.5131Y22.80815
G01 X12.53955Y22.73423
G01 X12.55863Y22.65807
G01 X12.57015Y22.58041
G01 X12.574Y22.502
G01 X12.57015Y22.42359
G01 X12.55863Y22.34593
G01 X12.53955Y22.26977
G01 X12.5131Y22.19585
G01 X12.47954Y22.12488
G01 X12.43918Y22.05754
G01 X12.39241Y21.99449
G01 X12.33969Y21.93631
G01 X12.28151Y21.88359
G01 X12.21846Y21.83682
G01 X12.15112Y21.79646
G01 X12.08015Y21.7629
G01 X12.00623Y21.73645
G01 X11.93007Y21.71737
G01 X11.85241Y21.70585
G01 X11.774Y21.702
G01 X11.69559Y21.70585
G01 X11.61793Y21.71737
G01 X11.54177Y21.73645
G01 X11.46785Y21.7629
G01 X11.39688Y21.79646
G01 X11.32954Y21.83682
G01 X11.26649Y21.88359
G01 X11.20831Y21.93631
G01 X11.15559Y21.99449
G01 X11.10882Y22.05754
G01 X11.06846Y22.12488
G01 X11.0349Y22.19585
G01 X11.00845Y22.26977
G01 X10.98937Y22.34593
G01 X10.97785Y22.42359
G01 X10.974Y22.502
G01 X10.97785Y22.58041
G01 X10.98937Y22.65807
G01 X11.00197Y22.70835
G01 X10.20831Y23.502
G01 X7.75169Y23.502
G01 X6.95803Y22.70835
G01 X6.97063Y22.65807
G01 X6.98215Y22.58041
G01 X6.986Y22.502
G01 X6.98215Y22.42359
G01 X6.97063Y22.34593
G01 X6.95155Y22.26977
G01 X6.9251Y22.19585
G01 X6.89154Y22.12488
G01 X6.85118Y22.05754
G01 X6.80441Y21.99449
G01 X6.75169Y21.93631
G01 X6.69351Y21.88359
G01 X6.63046Y21.83682
G01 X6.56312Y21.79646
G01 X6.49215Y21.7629
G01 X6.41823Y21.73645
G01 X6.34207Y21.71737
G01 X6.26441Y21.70585
G01 X6.186Y21.702
G01 X6.10759Y21.70585
G01 X6.02993Y21.71737
G01 X5.95377Y21.73645
G01 X5.87985Y21.7629
G01 X5.80888Y21.79646
G01 X5.74154Y21.83682
G01 X5.67849Y21.88359
G01 X5.62031Y21.93631
G01 X5.56759Y21.99449
G01 X5.52082Y22.05754
G01 X5.48046Y22.12488
G01 X5.4469Y22.19585
G01 X5.42045Y22.26977
G01 X5.40137Y22.34593
G01 X5.38985Y22.42359
G01 X5.386Y22.502
G01 X5.38985Y22.58041
G01 X5.40137Y22.65807
G01 X5.42045Y22.73423
G01 X5.4469Y22.80815
G01 X5.48046Y22.87912
G01 X5.52082Y22.94646
G01 X5.56759Y23.00951
G01 X5.62031Y23.06769
G01 X5.67849Y23.12041
G01 X5.74154Y23.16718
G01 X5.80888Y23.20754
G01 X5.87985Y23.2411
G01 X5.95377Y23.26755
G01 X6.02993Y23.28663
G01 X6.10759Y23.29815
G01 X6.186Y23.302
G01 X6.26441Y23.29815
G01 X6.34207Y23.28663
G01 X6.39235Y23.27403
G01 X7.30316Y24.18484
G01 X7.33224Y24.2112
G01 X7.36377Y24.23459
G01 X7.39744Y24.25477
G01 X7.43293Y24.27155
G01 X7.46989Y24.28478
G01 X7.50796Y24.29431
G01 X7.54679Y24.30007
G01 X7.586Y24.302
G01 X10.374Y24.302
G01 X15.962Y24.302
G01 X16.00121Y24.30007
G01 X16.04004Y24.29431
G01 X16.07811Y24.28478
G01 X16.11507Y24.27155
G01 X16.15056Y24.25477
G01 X16.18423Y24.23459
G01 X16.21576Y24.2112
G01 X16.24484Y24.18484
G01 X17.15565Y23.27403
G01 X17.20593Y23.28663
G01 X17.28359Y23.29815
G01 X17.362Y23.302
G01 X17.44041Y23.29815
G01 X17.51807Y23.28663
G01 X17.59423Y23.26755
G01 X17.66815Y23.2411
G01 X17.73912Y23.20754
G01 X17.80646Y23.16718
G01 X17.86951Y23.12041
G01 X17.92769Y23.06769
G01 X17.98041Y23.00951
G01 X18.02718Y22.94646
G01 X18.05382Y22.902
G01 X23.386Y22.902
G01 X23.42521Y22.90007
G01 X23.46404Y22.89431
G01 X23.50211Y22.88478
G01 X23.53907Y22.87155
G01 X23.57456Y22.85477
G01 X23.60823Y22.83459
G01 X23.63976Y22.8112
G01 X23.66884Y22.78484
G01 X25.93165Y20.52203
G01 X25.98193Y20.53463
G01 X26.05959Y20.54615
G01 X26.138Y20.55
G01 X26.21641Y20.54615
G01 X26.29407Y20.53463
G01 X26.37023Y20.51555
G01 X26.44415Y20.4891
G01 X26.51512Y20.45554
G01 X26.58246Y20.41518
G01 X26.64551Y20.36841
G01 X26.70369Y20.31569
G01 X26.75641Y20.25751
G01 X26.80318Y20.19446
G01 X26.84354Y20.12712
G01 X26.8771Y20.05615
G01 X26.90355Y19.98223
G01 X26.92263Y19.90607
G01 X26.93415Y19.82841
G01 X26.938Y19.75
G01 X26.93415Y19.67159
G01 X26.92263Y19.59393
G01 X26.90355Y19.51777
G01 X26.8771Y19.44385
G01 X26.84354Y19.37288
G01 X26.80318Y19.30554
G01 X26.75641Y19.24249
G01 X26.70369Y19.18431
G01 X26.64551Y19.13159
G01 X26.58246Y19.08482
G01 X26.538Y19.05818
G01 X26.538Y17.44182
G01 X26.58246Y17.41518
G01 X26.64551Y17.36841
G01 X26.70369Y17.31569
G01 X26.75641Y17.25751
G01 X26.80318Y17.19446
G01 X26.84354Y17.12712
G01 X26.8771Y17.05615
G01 X26.90355Y16.98223
G01 X26.92263Y16.90607
G01 X26.93415Y16.82841
G01 X26.938Y16.75
G01 X26.93415Y16.67159
G01 X26.92263Y16.59393
G01 X26.90355Y16.51777
G01 X26.8771Y16.44385
G01 X26.84354Y16.37288
G01 X26.80318Y16.30554
G01 X26.75641Y16.24249
G01 X26.70369Y16.18431
G01 X26.64551Y16.13159
G01 X26.58246Y16.08482
G01 X26.538Y16.05818
G01 X26.538Y14.44182
G01 X26.58246Y14.41518
G01 X26.64551Y14.36841
G01 X26.70369Y14.31569
G01 X26.75641Y14.25751
G01 X26.80318Y14.19446
G01 X26.84354Y14.12712
G01 X26.8771Y14.05615
G01 X26.90355Y13.98223
G01 X26.92263Y13.90607
G01 X26.93415Y13.82841
G01 X26.938Y13.75
G01 X26.93415Y13.67159
G01 X26.92263Y13.59393
G01 X26.90355Y13.51777
G01 X26.8771Y13.44385
G01 X26.84354Y13.37288
G01 X26.80318Y13.30554
G01 X26.75641Y13.24249
G01 X26.70369Y13.18431
G01 X26.64551Y13.13159
G01 X26.58246Y13.08482
G01 X26.538Y13.05818
G01 X26.538Y11.99596
G01 X26.53607Y11.95675
G01 X26.53031Y11.91792
G01 X26.52078Y11.87985
G01 X26.50755Y11.84289
G01 X26.49077Y11.8074
G01 X26.47059Y11.77373
G01 X26.4472Y11.7422
G01 X26.42084Y11.71312
G01 X20.34988Y5.64216
G01 X20.3208Y5.6158
G01 X20.28927Y5.59241
G01 X20.2556Y5.57223
G01 X20.22011Y5.55545
G01 X20.18315Y5.54222
G01 X20.14508Y5.53269
G01 X20.10625Y5.52693
G01 X20.06704Y5.525
G01 X11.213Y5.525
G01 X11.17379Y5.52693
G01 X11.13496Y5.53269
G01 X11.09689Y5.54222
G01 X11.05993Y5.55545
G01 X11.02444Y5.57223
G01 X10.99077Y5.59241
G01 X10.95924Y5.6158
G01 X10.93016Y5.64216
G01 X7.91216Y8.66015
G01 X7.87131Y8.65409
G01 X7.488Y8.65
G01 X7.40469Y8.65409
G01 X7.32217Y8.66633
G01 X7.24126Y8.6866
G01 X7.16272Y8.7147
G01 X7.08731Y8.75037
G01 X7.08731Y8.75037
M5
G01 X9.39507Y33.07563
M3
G01 X9.47123Y33.05655
G01 X9.54515Y33.0301
G01 X9.61612Y32.99654
G01 X9.68346Y32.95618
G01 X9.74651Y32.90941
G01 X9.80469Y32.85669
G01 X9.85741Y32.79851
G01 X9.90418Y32.73546
G01 X9.94454Y32.66812
G01 X9.9781Y32.59715
G01 X10.00455Y32.52323
G01 X10.02363Y32.44707
G01 X10.03515Y32.36941
G01 X10.039Y32.291
G01 X10.03515Y32.21259
G01 X10.02363Y32.13493
G01 X10.00455Y32.05877
G01 X9.9781Y31.98485
G01 X9.94454Y31.91388
G01 X9.90418Y31.84654
G01 X9.85741Y31.78349
G01 X9.80469Y31.72531
G01 X9.74651Y31.67259
G01 X9.68346Y31.62582
G01 X9.639Y31.59918
G01 X9.639Y30.922
G01 X10.034Y30.922
G01 X10.034Y29.322
G01 X8.434Y29.322
G01 X8.434Y30.922
G01 X8.839Y30.922
G01 X8.839Y31.59918
G01 X8.79454Y31.62582
G01 X8.73149Y31.67259
G01 X8.67331Y31.72531
G01 X8.62059Y31.78349
G01 X8.57382Y31.84654
G01 X8.53346Y31.91388
G01 X8.4999Y31.98485
G01 X8.47345Y32.05877
G01 X8.45437Y32.13493
G01 X8.44285Y32.21259
G01 X8.439Y32.291
G01 X8.44285Y32.36941
G01 X8.45437Y32.44707
G01 X8.47345Y32.52323
G01 X8.4999Y32.59715
G01 X8.53346Y32.66812
G01 X8.57382Y32.73546
G01 X8.62059Y32.79851
G01 X8.67331Y32.85669
G01 X8.73149Y32.90941
G01 X8.79454Y32.95618
G01 X8.86188Y32.99654
G01 X8.93285Y33.0301
G01 X9.00677Y33.05655
G01 X9.08293Y33.07563
G01 X9.16059Y33.08715
G01 X9.239Y33.091
G01 X9.31741Y33.08715
G01 X9.39507Y33.07563
G01 X9.39507Y33.07563
M5
G01 X9.16059Y39.11485
M3
G01 X9.08293Y39.12637
G01 X9.00677Y39.14545
G01 X8.93285Y39.1719
G01 X8.86188Y39.20546
G01 X8.79454Y39.24582
G01 X8.73149Y39.29259
G01 X8.67331Y39.34531
G01 X8.62059Y39.40349
G01 X8.57382Y39.46654
G01 X8.54718Y39.511
G01 X4.34282Y39.511
G01 X4.31618Y39.46654
G01 X4.26941Y39.40349
G01 X4.21669Y39.34531
G01 X4.15851Y39.29259
G01 X4.09546Y39.24582
G01 X4.02812Y39.20546
G01 X3.95715Y39.1719
G01 X3.88323Y39.14545
G01 X3.80707Y39.12637
G01 X3.72941Y39.11485
G01 X3.651Y39.111
G01 X3.57259Y39.11485
G01 X3.49493Y39.12637
G01 X3.41877Y39.14545
G01 X3.34485Y39.1719
G01 X3.27388Y39.20546
G01 X3.20654Y39.24582
G01 X3.14349Y39.29259
G01 X3.08531Y39.34531
G01 X3.03259Y39.40349
G01 X2.98582Y39.46654
G01 X2.94546Y39.53388
G01 X2.9119Y39.60485
G01 X2.88545Y39.67877
G01 X2.86637Y39.75493
G01 X2.85485Y39.83259
G01 X2.851Y39.911
G01 X2.85485Y39.98941
G01 X2.86637Y40.06707
G01 X2.88545Y40.14323
G01 X2.9119Y40.21715
G01 X2.94546Y40.28812
G01 X2.98582Y40.35546
G01 X3.03259Y40.41851
G01 X3.08531Y40.47669
G01 X3.14349Y40.52941
G01 X3.20654Y40.57618
G01 X3.251Y40.60282
G01 X3.251Y41.513
G01 X3.25293Y41.55221
G01 X3.25869Y41.59104
G01 X3.26822Y41.62911
G01 X3.28145Y41.66607
G01 X3.29823Y41.70156
G01 X3.31841Y41.73523
G01 X3.3418Y41.76676
G01 X3.36816Y41.79584
G01 X4.21694Y42.64462
G01 X4.2027Y42.67472
G01 X4.1746Y42.75326
G01 X4.15433Y42.83417
G01 X4.14209Y42.91669
G01 X4.138Y43.0
G01 X4.14209Y43.08331
G01 X4.15433Y43.16583
G01 X4.1746Y43.24674
G01 X4.2027Y43.32528
G01 X4.23837Y43.40069
G01 X4.28125Y43.47223
G01 X4.33094Y43.53923
G01 X4.38696Y43.60104
G01 X4.44877Y43.65706
G01 X4.51577Y43.70675
G01 X4.58731Y43.74963
G01 X4.66272Y43.7853
G01 X4.74126Y43.8134
G01 X4.82217Y43.83367
G01 X4.90469Y43.84591
G01 X5.288Y43.85
G01 X5.37131Y43.84591
G01 X5.45383Y43.83367
G01 X5.53474Y43.8134
G01 X5.61328Y43.7853
G01 X5.68869Y43.74963
G01 X5.76023Y43.70675
G01 X5.82723Y43.65706
G01 X5.88904Y43.60104
G01 X5.94506Y43.53923
G01 X5.99475Y43.47223
G01 X6.03763Y43.40069
G01 X6.0733Y43.32528
G01 X6.1014Y43.24674
G01 X6.12167Y43.16583
G01 X6.13391Y43.08331
G01 X6.138Y43.0
G01 X6.13391Y42.91669
G01 X6.12167Y42.83417
G01 X6.1014Y42.75326
G01 X6.0733Y42.67472
G01 X6.03763Y42.59931
G01 X5.99475Y42.52777
G01 X5.94506Y42.46077
G01 X5.88904Y42.39896
G01 X5.82723Y42.34294
G01 X5.76023Y42.29325
G01 X5.68869Y42.25037
G01 X5.61328Y42.2147
G01 X5.53474Y42.1866
G01 X5.45383Y42.16633
G01 X5.37131Y42.15409
G01 X4.988Y42.15
G01 X4.90469Y42.15409
G01 X4.86384Y42.16015
G01 X4.051Y41.34731
G01 X4.051Y40.60282
G01 X4.09546Y40.57618
G01 X4.15851Y40.52941
G01 X4.21669Y40.47669
G01 X4.26941Y40.41851
G01 X4.31618Y40.35546
G01 X4.34282Y40.311
G01 X8.54718Y40.311
G01 X8.57382Y40.35546
G01 X8.62059Y40.41851
G01 X8.67331Y40.47669
G01 X8.73149Y40.52941
G01 X8.79454Y40.57618
G01 X8.86188Y40.61654
G01 X8.93285Y40.6501
G01 X9.00677Y40.67655
G01 X9.08293Y40.69563
G01 X9.16059Y40.70715
G01 X9.239Y40.711
G01 X9.31741Y40.70715
G01 X9.39507Y40.69563
G01 X9.47123Y40.67655
G01 X9.54515Y40.6501
G01 X9.61612Y40.61654
G01 X9.68346Y40.57618
G01 X9.74651Y40.52941
G01 X9.80469Y40.47669
G01 X9.85741Y40.41851
G01 X9.90418Y40.35546
G01 X9.93082Y40.311
G01 X13.50018Y40.311
G01 X13.52682Y40.35546
G01 X13.57359Y40.41851
G01 X13.62631Y40.47669
G01 X13.68449Y40.52941
G01 X13.74754Y40.57618
G01 X13.81488Y40.61654
G01 X13.88585Y40.6501
G01 X13.95977Y40.67655
G01 X14.03593Y40.69563
G01 X14.11359Y40.70715
G01 X14.192Y40.711
G01 X14.27041Y40.70715
G01 X14.34807Y40.69563
G01 X14.42423Y40.67655
G01 X14.49815Y40.6501
G01 X14.56912Y40.61654
G01 X14.63646Y40.57618
G01 X14.69951Y40.52941
G01 X14.75769Y40.47669
G01 X14.81041Y40.41851
G01 X14.85718Y40.35546
G01 X14.89754Y40.28812
G01 X14.9311Y40.21715
G01 X14.95755Y40.14323
G01 X14.97663Y40.06707
G01 X14.98815Y39.98941
G01 X14.992Y39.911
G01 X14.98815Y39.83259
G01 X14.97663Y39.75493
G01 X14.95755Y39.67877
G01 X14.9311Y39.60485
G01 X14.89754Y39.53388
G01 X14.85718Y39.46654
G01 X14.81041Y39.40349
G01 X14.75769Y39.34531
G01 X14.69951Y39.29259
G01 X14.63646Y39.24582
G01 X14.56912Y39.20546
G01 X14.49815Y39.1719
G01 X14.42423Y39.14545
G01 X14.34807Y39.12637
G01 X14.27041Y39.11485
G01 X14.192Y39.111
G01 X14.11359Y39.11485
G01 X14.03593Y39.12637
G01 X13.95977Y39.14545
G01 X13.88585Y39.1719
G01 X13.81488Y39.20546
G01 X13.74754Y39.24582
G01 X13.68449Y39.29259
G01 X13.62631Y39.34531
G01 X13.57359Y39.40349
G01 X13.52682Y39.46654
G01 X13.50018Y39.511
G01 X9.93082Y39.511
G01 X9.90418Y39.46654
G01 X9.85741Y39.40349
G01 X9.80469Y39.34531
G01 X9.74651Y39.29259
G01 X9.68346Y39.24582
G01 X9.61612Y39.20546
G01 X9.54515Y39.1719
G01 X9.47123Y39.14545
G01 X9.39507Y39.12637
G01 X9.31741Y39.11485
G01 X9.239Y39.111
G01 X9.16059Y39.11485
G01 X9.16059Y39.11485
M5
G01 X12.08015Y29.3829
M3
G01 X12.00623Y29.35645
G01 X11.93007Y29.33737
G01 X11.85241Y29.32585
G01 X11.774Y29.322
G01 X11.69559Y29.32585
G01 X11.61793Y29.33737
G01 X11.54177Y29.35645
G01 X11.46785Y29.3829
G01 X11.39688Y29.41646
G01 X11.32954Y29.45682
G01 X11.26649Y29.50359
G01 X11.20831Y29.55631
G01 X11.15559Y29.61449
G01 X11.10882Y29.67754
G01 X11.06846Y29.74488
G01 X11.0349Y29.81585
G01 X11.00845Y29.88977
G01 X10.98937Y29.96593
G01 X10.97785Y30.04359
G01 X10.974Y30.122
G01 X10.97785Y30.20041
G01 X10.98937Y30.27807
G01 X11.00845Y30.35423
G01 X11.0349Y30.42815
G01 X11.06846Y30.49912
G01 X11.10882Y30.56646
G01 X11.15559Y30.62951
G01 X11.20831Y30.68769
G01 X11.26649Y30.74041
G01 X11.32954Y30.78718
G01 X11.374Y30.81382
G01 X11.374Y31.8529
G01 X11.37593Y31.89211
G01 X11.38169Y31.93094
G01 X11.39122Y31.96901
G01 X11.40445Y32.00597
G01 X11.42123Y32.04146
G01 X11.44141Y32.07513
G01 X11.4648Y32.10666
G01 X11.49116Y32.13574
G01 X21.6921Y42.33669
G01 X21.66272Y42.3472
G01 X21.58731Y42.38287
G01 X21.51577Y42.42575
G01 X21.44877Y42.47544
G01 X21.38696Y42.53146
G01 X21.33094Y42.59327
G01 X21.28125Y42.66027
G01 X21.23837Y42.73181
G01 X21.2027Y42.80722
G01 X21.1746Y42.88576
G01 X21.15433Y42.96667
G01 X21.14209Y43.04919
G01 X21.138Y43.1325
G01 X21.14209Y43.21581
G01 X21.15433Y43.29833
G01 X21.1746Y43.37924
G01 X21.2027Y43.45778
G01 X21.23837Y43.53319
G01 X21.28125Y43.60473
G01 X21.33094Y43.67173
G01 X21.38696Y43.73354
G01 X21.44877Y43.78956
G01 X21.51577Y43.83925
G01 X21.58731Y43.88213
G01 X21.66272Y43.9178
G01 X21.74126Y43.9459
G01 X21.82217Y43.96617
G01 X21.90469Y43.97841
G01 X22.288Y43.9825
G01 X22.37131Y43.97841
G01 X22.45383Y43.96617
G01 X22.53474Y43.9459
G01 X22.61328Y43.9178
G01 X22.68869Y43.88213
G01 X22.76023Y43.83925
G01 X22.82723Y43.78956
G01 X22.88904Y43.73354
G01 X22.94506Y43.67173
G01 X22.99475Y43.60473
G01 X23.03763Y43.53319
G01 X23.0733Y43.45778
G01 X23.1014Y43.37924
G01 X23.12167Y43.29833
G01 X23.13391Y43.21581
G01 X23.138Y43.1325
G01 X23.13391Y43.04919
G01 X23.12167Y42.96667
G01 X23.1014Y42.88576
G01 X23.0733Y42.80722
G01 X23.03763Y42.73181
G01 X22.99475Y42.66027
G01 X22.94506Y42.59327
G01 X22.88904Y42.53146
G01 X22.82723Y42.47544
G01 X22.76023Y42.42575
G01 X22.68869Y42.38287
G01 X22.61328Y42.3472
G01 X22.538Y42.32027
G01 X22.538Y42.2169
G01 X22.53607Y42.17769
G01 X22.53031Y42.13886
G01 X22.52078Y42.10079
G01 X22.50755Y42.06383
G01 X22.49077Y42.02834
G01 X22.47059Y41.99467
G01 X22.4472Y41.96314
G01 X22.42084Y41.93406
G01 X12.174Y31.68721
G01 X12.174Y30.81382
G01 X12.21846Y30.78718
G01 X12.28151Y30.74041
G01 X12.33969Y30.68769
G01 X12.39241Y30.62951
G01 X12.43918Y30.56646
G01 X12.47954Y30.49912
G01 X12.5131Y30.42815
G01 X12.53955Y30.35423
G01 X12.55863Y30.27807
G01 X12.57015Y30.20041
G01 X12.574Y30.122
G01 X12.57015Y30.04359
G01 X12.55863Y29.96593
G01 X12.53955Y29.88977
G01 X12.5131Y29.81585
G01 X12.47954Y29.74488
G01 X12.43918Y29.67754
G01 X12.39241Y29.61449
G01 X12.33969Y29.55631
G01 X12.28151Y29.50359
G01 X12.21846Y29.45682
G01 X12.15112Y29.41646
G01 X12.08015Y29.3829
G01 X12.08015Y29.3829
M5
G01 X25.03607Y39.49329
M3
G01 X25.03031Y39.45446
G01 X25.02078Y39.41639
G01 X25.00755Y39.37943
G01 X24.99077Y39.34394
G01 X24.97059Y39.31027
G01 X24.9472Y39.27874
G01 X24.92084Y39.24966
G01 X21.0105Y35.33931
G01 X21.0105Y34.75
G01 X19.8105Y34.75
G01 X19.8105Y36.25
G01 X20.78981Y36.25
G01 X24.238Y39.69819
G01 X24.238Y42.5325
G01 X23.888Y42.5325
G01 X23.888Y43.31681
G01 X22.87231Y44.3325
G01 X15.47119Y44.3325
G01 X16.10369Y43.7
G01 X16.888Y43.7
G01 X16.888Y42.5
G01 X15.388Y42.5
G01 X15.388Y43.28431
G01 X14.37231Y44.3
G01 X9.50369Y44.3
G01 X8.388Y43.18431
G01 X8.388Y42.4
G01 X6.888Y42.4
G01 X6.888Y43.6
G01 X7.67231Y43.6
G01 X9.05516Y44.98284
G01 X9.08424Y45.0092
G01 X9.11577Y45.03259
G01 X9.14944Y45.05277
G01 X9.18493Y45.06955
G01 X9.22189Y45.08278
G01 X9.25996Y45.09231
G01 X9.29879Y45.09807
G01 X9.338Y45.1
G01 X14.41309Y45.1
G01 X14.41743Y45.10205
G01 X14.45439Y45.11528
G01 X14.49246Y45.12481
G01 X14.53129Y45.13057
G01 X14.5705Y45.1325
G01 X23.038Y45.1325
G01 X23.07721Y45.13057
G01 X23.11604Y45.12481
G01 X23.15411Y45.11528
G01 X23.19107Y45.10205
G01 X23.22656Y45.08527
G01 X23.26023Y45.06509
G01 X23.29176Y45.0417
G01 X23.32084Y45.01534
G01 X24.60369Y43.7325
G01 X25.388Y43.7325
G01 X25.388Y42.5325
G01 X25.038Y42.5325
G01 X25.038Y39.5325
G01 X25.03607Y39.49329
G01 X25.03607Y39.49329
M5
G01 X6.85118Y30.56646
M3
G01 X6.89154Y30.49912
G01 X6.9251Y30.42815
G01 X6.95155Y30.35423
G01 X6.97063Y30.27807
G01 X6.98215Y30.20041
G01 X6.986Y30.122
G01 X6.98215Y30.04359
G01 X6.97063Y29.96593
G01 X6.95155Y29.88977
G01 X6.9251Y29.81585
G01 X6.89154Y29.74488
G01 X6.85118Y29.67754
G01 X6.80441Y29.61449
G01 X6.75169Y29.55631
G01 X6.69351Y29.50359
G01 X6.63046Y29.45682
G01 X6.56312Y29.41646
G01 X6.49215Y29.3829
G01 X6.41823Y29.35645
G01 X6.34207Y29.33737
G01 X6.26441Y29.32585
G01 X6.186Y29.322
G01 X6.10759Y29.32585
G01 X6.02993Y29.33737
G01 X5.95377Y29.35645
G01 X5.87985Y29.3829
G01 X5.80888Y29.41646
G01 X5.74154Y29.45682
G01 X5.67849Y29.50359
G01 X5.62031Y29.55631
G01 X5.56759Y29.61449
G01 X5.52082Y29.67754
G01 X5.48046Y29.74488
G01 X5.4469Y29.81585
G01 X5.42045Y29.88977
G01 X5.40137Y29.96593
G01 X5.38985Y30.04359
G01 X5.386Y30.122
G01 X5.38985Y30.20041
G01 X5.40137Y30.27807
G01 X5.42045Y30.35423
G01 X5.4469Y30.42815
G01 X5.48046Y30.49912
G01 X5.52082Y30.56646
G01 X5.56759Y30.62951
G01 X5.62031Y30.68769
G01 X5.67849Y30.74041
G01 X5.74154Y30.78718
G01 X5.786Y30.81382
G01 X5.786Y31.2179
G01 X5.78793Y31.25711
G01 X5.79369Y31.29594
G01 X5.80322Y31.33401
G01 X5.81645Y31.37097
G01 X5.83323Y31.40646
G01 X5.85341Y31.44013
G01 X5.8768Y31.47166
G01 X5.90316Y31.50074
G01 X8.37626Y33.97384
G01 X8.40534Y34.0002
G01 X8.43687Y34.02359
G01 X8.47054Y34.04377
G01 X8.50603Y34.06055
G01 X8.54299Y34.07378
G01 X8.58106Y34.08331
G01 X8.61989Y34.08907
G01 X8.6591Y34.091
G01 X10.16331Y34.091
G01 X15.192Y39.11969
G01 X15.192Y40.32521
G01 X13.35516Y42.16206
G01 X13.3288Y42.19114
G01 X13.30541Y42.22267
G01 X13.28523Y42.25634
G01 X13.27491Y42.27817
G01 X13.24126Y42.2866
G01 X13.16272Y42.3147
G01 X13.08731Y42.35037
G01 X13.01577Y42.39325
G01 X12.94877Y42.44294
G01 X12.88696Y42.49896
G01 X12.83094Y42.56077
G01 X12.78125Y42.62777
G01 X12.73837Y42.69931
G01 X12.7027Y42.77472
G01 X12.6746Y42.85326
G01 X12.65433Y42.93417
G01 X12.64209Y43.01669
G01 X12.638Y43.1
G01 X12.64209Y43.18331
G01 X12.65433Y43.26583
G01 X12.6746Y43.34674
G01 X12.7027Y43.42528
G01 X12.73837Y43.50069
G01 X12.78125Y43.57223
G01 X12.83094Y43.63923
G01 X12.88696Y43.70104
G01 X12.94877Y43.75706
G01 X13.01577Y43.80675
G01 X13.08731Y43.84963
G01 X13.16272Y43.8853
G01 X13.24126Y43.9134
G01 X13.32217Y43.93367
G01 X13.40469Y43.94591
G01 X13.788Y43.95
G01 X13.87131Y43.94591
G01 X13.95383Y43.93367
G01 X14.03474Y43.9134
G01 X14.11328Y43.8853
G01 X14.18869Y43.84963
G01 X14.26023Y43.80675
G01 X14.32723Y43.75706
G01 X14.38904Y43.70104
G01 X14.44506Y43.63923
G01 X14.49475Y43.57223
G01 X14.53763Y43.50069
G01 X14.5733Y43.42528
G01 X14.6014Y43.34674
G01 X14.62167Y43.26583
G01 X14.63391Y43.18331
G01 X14.638Y43.1
G01 X14.63391Y43.01669
G01 X14.62167Y42.93417
G01 X14.6014Y42.85326
G01 X14.5733Y42.77472
G01 X14.53763Y42.69931
G01 X14.49475Y42.62777
G01 X14.44506Y42.56077
G01 X14.38904Y42.49896
G01 X14.32723Y42.44294
G01 X14.26023Y42.39325
G01 X14.25717Y42.39141
G01 X15.87484Y40.77374
G01 X15.9012Y40.74466
G01 X15.92459Y40.71313
G01 X15.94477Y40.67946
G01 X15.96155Y40.64397
G01 X15.97478Y40.60701
G01 X15.98431Y40.56894
G01 X15.99007Y40.53011
G01 X15.992Y40.4909
G01 X15.992Y38.954
G01 X15.99007Y38.91479
G01 X15.98431Y38.87596
G01 X15.97478Y38.83789
G01 X15.96155Y38.80093
G01 X15.94477Y38.76544
G01 X15.92459Y38.73177
G01 X15.9012Y38.70024
G01 X15.87484Y38.67116
G01 X10.61184Y33.40816
G01 X10.58276Y33.3818
G01 X10.55123Y33.35841
G01 X10.51756Y33.33823
G01 X10.48207Y33.32145
G01 X10.44511Y33.30822
G01 X10.40704Y33.29869
G01 X10.36821Y33.29293
G01 X10.329Y33.291
G01 X8.82479Y33.291
G01 X6.586Y31.05221
G01 X6.586Y30.81382
G01 X6.63046Y30.78718
G01 X6.69351Y30.74041
G01 X6.75169Y30.68769
G01 X6.80441Y30.62951
G01 X6.85118Y30.56646
G01 X6.85118Y30.56646
M5
G01 X17.98041Y29.61449
M3
G01 X17.92769Y29.55631
G01 X17.86951Y29.50359
G01 X17.80646Y29.45682
G01 X17.73912Y29.41646
G01 X17.66815Y29.3829
G01 X17.59423Y29.35645
G01 X17.51807Y29.33737
G01 X17.44041Y29.32585
G01 X17.362Y29.322
G01 X17.28359Y29.32585
G01 X17.20593Y29.33737
G01 X17.12977Y29.35645
G01 X17.05585Y29.3829
G01 X16.98488Y29.41646
G01 X16.91754Y29.45682
G01 X16.85449Y29.50359
G01 X16.79631Y29.55631
G01 X16.74359Y29.61449
G01 X16.69682Y29.67754
G01 X16.65646Y29.74488
G01 X16.6229Y29.81585
G01 X16.59645Y29.88977
G01 X16.57737Y29.96593
G01 X16.56585Y30.04359
G01 X16.562Y30.122
G01 X16.56585Y30.20041
G01 X16.57737Y30.27807
G01 X16.59645Y30.35423
G01 X16.6229Y30.42815
G01 X16.65646Y30.49912
G01 X16.69682Y30.56646
G01 X16.74359Y30.62951
G01 X16.79631Y30.68769
G01 X16.85449Y30.74041
G01 X16.91754Y30.78718
G01 X16.962Y30.81382
G01 X16.962Y35.01051
G01 X16.96393Y35.04972
G01 X16.96969Y35.08855
G01 X16.97922Y35.12662
G01 X16.99245Y35.16358
G01 X17.00923Y35.19907
G01 X17.02941Y35.23274
G01 X17.0528Y35.26427
G01 X17.07916Y35.29335
G01 X19.56447Y37.77866
G01 X19.5605Y38.15
G01 X19.56459Y38.23331
G01 X19.57683Y38.31583
G01 X19.5971Y38.39674
G01 X19.6252Y38.47528
G01 X19.66087Y38.55069
G01 X19.70375Y38.62223
G01 X19.75344Y38.68923
G01 X19.80946Y38.75104
G01 X19.87127Y38.80706
G01 X19.93827Y38.85675
G01 X20.00981Y38.89963
G01 X20.08522Y38.9353
G01 X20.16376Y38.9634
G01 X20.24467Y38.98367
G01 X20.32719Y38.99591
G01 X20.4105Y39.0
G01 X20.49381Y38.99591
G01 X20.57633Y38.98367
G01 X20.65724Y38.9634
G01 X20.73578Y38.9353
G01 X20.81119Y38.89963
G01 X20.88273Y38.85675
G01 X20.94973Y38.80706
G01 X21.01154Y38.75104
G01 X21.06756Y38.68923
G01 X21.11725Y38.62223
G01 X21.16013Y38.55069
G01 X21.1958Y38.47528
G01 X21.2239Y38.39674
G01 X21.24417Y38.31583
G01 X21.25641Y38.23331
G01 X21.2605Y37.85
G01 X21.25641Y37.76669
G01 X21.24417Y37.68417
G01 X21.2239Y37.60326
G01 X21.1958Y37.52472
G01 X21.16013Y37.44931
G01 X21.11725Y37.37777
G01 X21.06756Y37.31077
G01 X21.01154Y37.24896
G01 X20.94973Y37.19294
G01 X20.88273Y37.14325
G01 X20.81119Y37.10037
G01 X20.73578Y37.0647
G01 X20.65724Y37.0366
G01 X20.57633Y37.01633
G01 X20.49381Y37.00409
G01 X20.4105Y37.0
G01 X20.32719Y37.00409
G01 X20.24467Y37.01633
G01 X20.16376Y37.0366
G01 X20.08522Y37.0647
G01 X20.01506Y37.09788
G01 X17.762Y34.84482
G01 X17.762Y30.81382
G01 X17.80646Y30.78718
G01 X17.86951Y30.74041
G01 X17.92769Y30.68769
G01 X17.98041Y30.62951
G01 X18.02718Y30.56646
G01 X18.06754Y30.49912
G01 X18.1011Y30.42815
G01 X18.12755Y30.35423
G01 X18.14663Y30.27807
G01 X18.15815Y30.20041
G01 X18.162Y30.122
G01 X18.15815Y30.04359
G01 X18.14663Y29.96593
G01 X18.12755Y29.88977
G01 X18.1011Y29.81585
G01 X18.06754Y29.74488
G01 X18.02718Y29.67754
G01 X17.98041Y29.61449
G01 X17.98041Y29.61449
M5
G01 X14.56912Y32.99654
M3
G01 X14.63646Y32.95618
G01 X14.69951Y32.90941
G01 X14.75769Y32.85669
G01 X14.81041Y32.79851
G01 X14.85718Y32.73546
G01 X14.89754Y32.66812
G01 X14.9311Y32.59715
G01 X14.95755Y32.52323
G01 X14.97663Y32.44707
G01 X14.98815Y32.36941
G01 X14.992Y32.291
G01 X14.98815Y32.21259
G01 X14.97663Y32.13493
G01 X14.95755Y32.05877
G01 X14.9311Y31.98485
G01 X14.89754Y31.91388
G01 X14.85718Y31.84654
G01 X14.81041Y31.78349
G01 X14.75769Y31.72531
G01 X14.69951Y31.67259
G01 X14.63646Y31.62582
G01 X14.592Y31.59918
G01 X14.592Y30.922
G01 X15.622Y30.922
G01 X15.622Y29.322
G01 X14.022Y29.322
G01 X14.022Y30.35631
G01 X13.90916Y30.46916
G01 X13.8828Y30.49824
G01 X13.85941Y30.52977
G01 X13.83923Y30.56344
G01 X13.82245Y30.59893
G01 X13.80922Y30.63589
G01 X13.79969Y30.67396
G01 X13.79393Y30.71279
G01 X13.792Y30.752
G01 X13.792Y31.59918
G01 X13.74754Y31.62582
G01 X13.68449Y31.67259
G01 X13.62631Y31.72531
G01 X13.57359Y31.78349
G01 X13.52682Y31.84654
G01 X13.48646Y31.91388
G01 X13.4529Y31.98485
G01 X13.42645Y32.05877
G01 X13.40737Y32.13493
G01 X13.39585Y32.21259
G01 X13.392Y32.291
G01 X13.39585Y32.36941
G01 X13.40737Y32.44707
G01 X13.42645Y32.52323
G01 X13.4529Y32.59715
G01 X13.48646Y32.66812
G01 X13.52682Y32.73546
G01 X13.57359Y32.79851
G01 X13.62631Y32.85669
G01 X13.68449Y32.90941
G01 X13.74754Y32.95618
G01 X13.81488Y32.99654
G01 X13.88585Y33.0301
G01 X13.95977Y33.05655
G01 X14.03593Y33.07563
G01 X14.11359Y33.08715
G01 X14.192Y33.091
G01 X14.27041Y33.08715
G01 X14.34807Y33.07563
G01 X14.42423Y33.05655
G01 X14.49815Y33.0301
G01 X14.56912Y32.99654
G01 X14.56912Y32.99654
M5
G01 X15.40577Y13.51555
M3
G01 X15.48193Y13.53463
G01 X15.55959Y13.54615
G01 X15.638Y13.55
G01 X15.71641Y13.54615
G01 X15.79407Y13.53463
G01 X15.87023Y13.51555
G01 X15.94415Y13.4891
G01 X16.01512Y13.45554
G01 X16.08246Y13.41518
G01 X16.14551Y13.36841
G01 X16.20369Y13.31569
G01 X16.25641Y13.25751
G01 X16.30318Y13.19446
G01 X16.32982Y13.15
G01 X17.94618Y13.15
G01 X17.97282Y13.19446
G01 X18.01959Y13.25751
G01 X18.07231Y13.31569
G01 X18.13049Y13.36841
G01 X18.19354Y13.41518
G01 X18.26088Y13.45554
G01 X18.33185Y13.4891
G01 X18.40577Y13.51555
G01 X18.48193Y13.53463
G01 X18.55959Y13.54615
G01 X18.638Y13.55
G01 X18.71641Y13.54615
G01 X18.79407Y13.53463
G01 X18.87023Y13.51555
G01 X18.94415Y13.4891
G01 X19.01512Y13.45554
G01 X19.08246Y13.41518
G01 X19.14551Y13.36841
G01 X19.20369Y13.31569
G01 X19.25641Y13.25751
G01 X19.30318Y13.19446
G01 X19.34354Y13.12712
G01 X19.3771Y13.05615
G01 X19.40355Y12.98223
G01 X19.42263Y12.90607
G01 X19.43415Y12.82841
G01 X19.438Y12.75
G01 X19.43415Y12.67159
G01 X19.42263Y12.59393
G01 X19.40355Y12.51777
G01 X19.3771Y12.44385
G01 X19.34354Y12.37288
G01 X19.30318Y12.30554
G01 X19.25641Y12.24249
G01 X19.20369Y12.18431
G01 X19.14551Y12.13159
G01 X19.08246Y12.08482
G01 X19.01512Y12.04446
G01 X18.94415Y12.0109
G01 X18.87023Y11.98445
G01 X18.79407Y11.96537
G01 X18.71641Y11.95385
G01 X18.638Y11.95
G01 X18.55959Y11.95385
G01 X18.48193Y11.96537
G01 X18.40577Y11.98445
G01 X18.33185Y12.0109
G01 X18.26088Y12.04446
G01 X18.19354Y12.08482
G01 X18.13049Y12.13159
G01 X18.07231Y12.18431
G01 X18.01959Y12.24249
G01 X17.97282Y12.30554
G01 X17.94618Y12.35
G01 X16.32982Y12.35
G01 X16.30318Y12.30554
G01 X16.25641Y12.24249
G01 X16.20369Y12.18431
G01 X16.14551Y12.13159
G01 X16.08246Y12.08482
G01 X16.01512Y12.04446
G01 X15.94415Y12.0109
G01 X15.87023Y11.98445
G01 X15.79407Y11.96537
G01 X15.71641Y11.95385
G01 X15.638Y11.95
G01 X15.55959Y11.95385
G01 X15.48193Y11.96537
G01 X15.40577Y11.98445
G01 X15.33185Y12.0109
G01 X15.26088Y12.04446
G01 X15.19354Y12.08482
G01 X15.13049Y12.13159
G01 X15.07231Y12.18431
G01 X15.01959Y12.24249
G01 X14.97282Y12.30554
G01 X14.94618Y12.35
G01 X13.32982Y12.35
G01 X13.30318Y12.30554
G01 X13.25641Y12.24249
G01 X13.20369Y12.18431
G01 X13.14551Y12.13159
G01 X13.08246Y12.08482
G01 X13.01512Y12.04446
G01 X12.94415Y12.0109
G01 X12.87023Y11.98445
G01 X12.79407Y11.96537
G01 X12.71641Y11.95385
G01 X12.638Y11.95
G01 X12.55959Y11.95385
G01 X12.48193Y11.96537
G01 X12.40577Y11.98445
G01 X12.33185Y12.0109
G01 X12.26088Y12.04446
G01 X12.19354Y12.08482
G01 X12.13049Y12.13159
G01 X12.07231Y12.18431
G01 X12.01959Y12.24249
G01 X11.97282Y12.30554
G01 X11.94618Y12.35
G01 X10.32982Y12.35
G01 X10.30318Y12.30554
G01 X10.25641Y12.24249
G01 X10.20369Y12.18431
G01 X10.14551Y12.13159
G01 X10.08246Y12.08482
G01 X10.01512Y12.04446
G01 X9.94415Y12.0109
G01 X9.87023Y11.98445
G01 X9.79407Y11.96537
G01 X9.71641Y11.95385
G01 X9.638Y11.95
G01 X9.55959Y11.95385
G01 X9.48193Y11.96537
G01 X9.40577Y11.98445
G01 X9.33185Y12.0109
G01 X9.26088Y12.04446
G01 X9.19354Y12.08482
G01 X9.13049Y12.13159
G01 X9.07231Y12.18431
G01 X9.01959Y12.24249
G01 X8.97282Y12.30554
G01 X8.94618Y12.35
G01 X7.32982Y12.35
G01 X7.30318Y12.30554
G01 X7.25641Y12.24249
G01 X7.20369Y12.18431
G01 X7.14551Y12.13159
G01 X7.08246Y12.08482
G01 X7.01512Y12.04446
G01 X6.94415Y12.0109
G01 X6.87023Y11.98445
G01 X6.79407Y11.96537
G01 X6.71641Y11.95385
G01 X6.638Y11.95
G01 X6.55959Y11.95385
G01 X6.48193Y11.96537
G01 X6.40577Y11.98445
G01 X6.33185Y12.0109
G01 X6.26088Y12.04446
G01 X6.19354Y12.08482
G01 X6.13049Y12.13159
G01 X6.07231Y12.18431
G01 X6.01959Y12.24249
G01 X5.97282Y12.30554
G01 X5.94618Y12.35
G01 X4.32982Y12.35
G01 X4.30318Y12.30554
G01 X4.25641Y12.24249
G01 X4.20369Y12.18431
G01 X4.14551Y12.13159
G01 X4.08246Y12.08482
G01 X4.038Y12.05818
G01 X4.038Y11.16569
G01 X5.10369Y10.1
G01 X5.888Y10.1
G01 X5.888Y8.9
G01 X4.388Y8.9
G01 X4.388Y9.68431
G01 X3.35516Y10.71716
G01 X3.3288Y10.74624
G01 X3.30541Y10.77777
G01 X3.28523Y10.81144
G01 X3.26845Y10.84693
G01 X3.25522Y10.88389
G01 X3.24569Y10.92196
G01 X3.23993Y10.96079
G01 X3.238Y11.0
G01 X3.238Y12.05818
G01 X3.19354Y12.08482
G01 X3.13049Y12.13159
G01 X3.07231Y12.18431
G01 X3.01959Y12.24249
G01 X2.97282Y12.30554
G01 X2.93246Y12.37288
G01 X2.8989Y12.44385
G01 X2.87245Y12.51777
G01 X2.85337Y12.59393
G01 X2.84185Y12.67159
G01 X2.838Y12.75
G01 X2.84185Y12.82841
G01 X2.85337Y12.90607
G01 X2.87245Y12.98223
G01 X2.8989Y13.05615
G01 X2.93246Y13.12712
G01 X2.97282Y13.19446
G01 X3.01959Y13.25751
G01 X3.07231Y13.31569
G01 X3.13049Y13.36841
G01 X3.19354Y13.41518
G01 X3.26088Y13.45554
G01 X3.33185Y13.4891
G01 X3.40577Y13.51555
G01 X3.48193Y13.53463
G01 X3.55959Y13.54615
G01 X3.638Y13.55
G01 X3.71641Y13.54615
G01 X3.79407Y13.53463
G01 X3.87023Y13.51555
G01 X3.94415Y13.4891
G01 X4.01512Y13.45554
G01 X4.08246Y13.41518
G01 X4.14551Y13.36841
G01 X4.20369Y13.31569
G01 X4.25641Y13.25751
G01 X4.30318Y13.19446
G01 X4.32982Y13.15
G01 X5.94618Y13.15
G01 X5.97282Y13.19446
G01 X6.01959Y13.25751
G01 X6.07231Y13.31569
G01 X6.13049Y13.36841
G01 X6.19354Y13.41518
G01 X6.26088Y13.45554
G01 X6.33185Y13.4891
G01 X6.40577Y13.51555
G01 X6.48193Y13.53463
G01 X6.55959Y13.54615
G01 X6.638Y13.55
G01 X6.71641Y13.54615
G01 X6.79407Y13.53463
G01 X6.87023Y13.51555
G01 X6.94415Y13.4891
G01 X7.01512Y13.45554
G01 X7.08246Y13.41518
G01 X7.14551Y13.36841
G01 X7.20369Y13.31569
G01 X7.25641Y13.25751
G01 X7.30318Y13.19446
G01 X7.32982Y13.15
G01 X8.94618Y13.15
G01 X8.97282Y13.19446
G01 X9.01959Y13.25751
G01 X9.07231Y13.31569
G01 X9.13049Y13.36841
G01 X9.19354Y13.41518
G01 X9.26088Y13.45554
G01 X9.33185Y13.4891
G01 X9.40577Y13.51555
G01 X9.48193Y13.53463
G01 X9.55959Y13.54615
G01 X9.638Y13.55
G01 X9.71641Y13.54615
G01 X9.79407Y13.53463
G01 X9.87023Y13.51555
G01 X9.94415Y13.4891
G01 X10.01512Y13.45554
G01 X10.08246Y13.41518
G01 X10.14551Y13.36841
G01 X10.20369Y13.31569
G01 X10.25641Y13.25751
G01 X10.30318Y13.19446
G01 X10.32982Y13.15
G01 X11.94618Y13.15
G01 X11.97282Y13.19446
G01 X12.01959Y13.25751
G01 X12.07231Y13.31569
G01 X12.13049Y13.36841
G01 X12.19354Y13.41518
G01 X12.26088Y13.45554
G01 X12.33185Y13.4891
G01 X12.40577Y13.51555
G01 X12.48193Y13.53463
G01 X12.55959Y13.54615
G01 X12.638Y13.55
G01 X12.71641Y13.54615
G01 X12.79407Y13.53463
G01 X12.87023Y13.51555
G01 X12.94415Y13.4891
G01 X13.01512Y13.45554
G01 X13.08246Y13.41518
G01 X13.14551Y13.36841
G01 X13.20369Y13.31569
G01 X13.25641Y13.25751
G01 X13.30318Y13.19446
G01 X13.32982Y13.15
G01 X14.94618Y13.15
G01 X14.97282Y13.19446
G01 X15.01959Y13.25751
G01 X15.07231Y13.31569
G01 X15.13049Y13.36841
G01 X15.19354Y13.41518
G01 X15.26088Y13.45554
G01 X15.33185Y13.4891
G01 X15.40577Y13.51555
G01 X15.40577Y13.51555
M5
G01 X3.246Y30.922
M3
G01 X3.246Y31.60218
G01 X3.20654Y31.62582
G01 X3.14349Y31.67259
G01 X3.08531Y31.72531
G01 X3.03259Y31.78349
G01 X2.98582Y31.84654
G01 X2.94546Y31.91388
G01 X2.9119Y31.98485
G01 X2.88545Y32.05877
G01 X2.86637Y32.13493
G01 X2.85485Y32.21259
G01 X2.851Y32.291
G01 X2.85485Y32.36941
G01 X2.86637Y32.44707
G01 X2.88545Y32.52323
G01 X2.9119Y32.59715
G01 X2.94546Y32.66812
G01 X2.98582Y32.73546
G01 X3.03259Y32.79851
G01 X3.08531Y32.85669
G01 X3.14349Y32.90941
G01 X3.20654Y32.95618
G01 X3.27388Y32.99654
G01 X3.34485Y33.0301
G01 X3.41877Y33.05655
G01 X3.49493Y33.07563
G01 X3.57259Y33.08715
G01 X3.651Y33.091
G01 X3.72941Y33.08715
G01 X3.80707Y33.07563
G01 X3.88323Y33.05655
G01 X3.95715Y33.0301
G01 X4.02812Y32.99654
G01 X4.09546Y32.95618
G01 X4.15851Y32.90941
G01 X4.21669Y32.85669
G01 X4.26941Y32.79851
G01 X4.31618Y32.73546
G01 X4.35654Y32.66812
G01 X4.3901Y32.59715
G01 X4.41655Y32.52323
G01 X4.43563Y32.44707
G01 X4.44715Y32.36941
G01 X4.451Y32.291
G01 X4.44715Y32.21259
G01 X4.43563Y32.13493
G01 X4.41655Y32.05877
G01 X4.3901Y31.98485
G01 X4.35654Y31.91388
G01 X4.31618Y31.84654
G01 X4.26941Y31.78349
G01 X4.21669Y31.72531
G01 X4.15851Y31.67259
G01 X4.09546Y31.62582
G01 X4.046Y31.59618
G01 X4.046Y30.922
G01 X4.446Y30.922
G01 X4.446Y29.322
G01 X2.846Y29.322
G01 X2.846Y30.922
G01 X3.246Y30.922
G01 X3.246Y30.922
M5
G01 X27.39775Y50.54904
M3
G01 X27.40251Y50.54785
G01 X27.40713Y50.54619
G01 X27.41157Y50.5441
G01 X27.41578Y50.54157
G01 X27.41972Y50.53865
G01 X27.42336Y50.53536
G01 X27.42665Y50.53172
G01 X27.42957Y50.52778
G01 X27.4321Y50.52357
G01 X27.43419Y50.51913
G01 X27.43585Y50.51451
G01 X27.43704Y50.50975
G01 X27.43776Y50.5049
G01 X27.438Y50.5
G01 X27.438Y2.0
G01 X27.43776Y1.9951
G01 X27.43704Y1.99025
G01 X27.43585Y1.98549
G01 X27.43419Y1.98087
G01 X27.4321Y1.97643
G01 X27.42957Y1.97222
G01 X27.42665Y1.96828
G01 X27.42336Y1.96464
G01 X27.41972Y1.96135
G01 X27.41578Y1.95843
G01 X27.41157Y1.9559
G01 X27.40713Y1.95381
G01 X27.40251Y1.95215
G01 X27.39775Y1.95096
G01 X27.3929Y1.95024
G01 X27.388Y1.95
G01 X2.038Y1.95
G01 X2.03557Y1.95012
G01 X2.03314Y1.95024
G01 X2.03312Y1.95024
G01 X2.0331Y1.95024
G01 X2.03069Y1.9506
G01 X2.02828Y1.95095
G01 X2.02826Y1.95096
G01 X2.02825Y1.95096
G01 X2.02588Y1.95155
G01 X2.02352Y1.95214
G01 X2.0235Y1.95215
G01 X2.02349Y1.95215
G01 X2.02119Y1.95297
G01 X2.0189Y1.95379
G01 X2.01888Y1.9538
G01 X2.01887Y1.95381
G01 X2.01667Y1.95485
G01 X2.01446Y1.95589
G01 X2.01445Y1.9559
G01 X2.01443Y1.9559
G01 X2.01234Y1.95716
G01 X2.01025Y1.9584
G01 X2.01024Y1.95842
G01 X2.01022Y1.95843
G01 X2.00827Y1.95988
G01 X2.00631Y1.96132
G01 X2.0063Y1.96134
G01 X2.00628Y1.96135
G01 X2.00448Y1.96298
G01 X2.00267Y1.96462
G01 X2.00266Y1.96463
G01 X2.00264Y1.96464
G01 X2.00101Y1.96645
G01 X1.99937Y1.96825
G01 X1.99936Y1.96827
G01 X1.99935Y1.96828
G01 X1.9979Y1.97024
G01 X1.99645Y1.97219
G01 X1.99644Y1.97221
G01 X1.99643Y1.97222
G01 X1.99518Y1.97431
G01 X1.99392Y1.9764
G01 X1.99391Y1.97641
G01 X1.9939Y1.97643
G01 X1.99286Y1.97863
G01 X1.99182Y1.98083
G01 X1.99181Y1.98085
G01 X1.99181Y1.98087
G01 X1.99099Y1.98316
G01 X1.99016Y1.98545
G01 X1.99016Y1.98547
G01 X1.99015Y1.98549
G01 X1.98956Y1.98785
G01 X1.98897Y1.99021
G01 X1.98897Y1.99023
G01 X1.98896Y1.99025
G01 X1.9886Y1.99265
G01 X1.98824Y1.99506
G01 X1.98824Y1.99508
G01 X1.98824Y1.9951
G01 X1.98812Y1.99753
G01 X1.988Y1.99996
G01 X1.95Y50.49996
G01 X1.95Y50.49998
G01 X1.95Y50.5
G01 X1.95012Y50.50243
G01 X1.95024Y50.50486
G01 X1.95024Y50.50488
G01 X1.95024Y50.5049
G01 X1.9506Y50.50731
G01 X1.95095Y50.50972
G01 X1.95096Y50.50974
G01 X1.95096Y50.50975
G01 X1.95155Y50.51212
G01 X1.95214Y50.51448
G01 X1.95215Y50.5145
G01 X1.95215Y50.51451
G01 X1.95297Y50.51681
G01 X1.95379Y50.5191
G01 X1.9538Y50.51912
G01 X1.95381Y50.51913
G01 X1.95485Y50.52133
G01 X1.95589Y50.52354
G01 X1.9559Y50.52355
G01 X1.9559Y50.52357
G01 X1.95716Y50.52566
G01 X1.9584Y50.52775
G01 X1.95842Y50.52776
G01 X1.95843Y50.52778
G01 X1.95988Y50.52973
G01 X1.96132Y50.53169
G01 X1.96134Y50.5317
G01 X1.96135Y50.53172
G01 X1.96298Y50.53352
G01 X1.96462Y50.53533
G01 X1.96463Y50.53534
G01 X1.96464Y50.53536
G01 X1.96645Y50.53699
G01 X1.96825Y50.53863
G01 X1.96827Y50.53864
G01 X1.96828Y50.53865
G01 X1.97024Y50.5401
G01 X1.97219Y50.54155
G01 X1.97221Y50.54156
G01 X1.97222Y50.54157
G01 X1.97431Y50.54282
G01 X1.9764Y50.54408
G01 X1.97641Y50.54409
G01 X1.97643Y50.5441
G01 X1.97863Y50.54514
G01 X1.98083Y50.54618
G01 X1.98085Y50.54619
G01 X1.98087Y50.54619
G01 X1.98316Y50.54701
G01 X1.98545Y50.54784
G01 X1.98547Y50.54784
G01 X1.98549Y50.54785
G01 X1.98785Y50.54844
G01 X1.99021Y50.54903
G01 X1.99023Y50.54903
G01 X1.99025Y50.54904
G01 X1.99265Y50.5494
G01 X1.99506Y50.54976
G01 X1.99508Y50.54976
G01 X1.9951Y50.54976
G01 X1.99753Y50.54988
G01 X1.99996Y50.55
G01 X1.99998Y50.55
G01 X2.0Y50.55
G01 X27.388Y50.55
G01 X27.3929Y50.54976
G01 X27.39775Y50.54904
G01 X27.39775Y50.54904
M5
G01 X27.338Y50.45
M3
G01 X2.05004Y50.45
G01 X2.08796Y2.05
G01 X27.338Y2.05
G01 X27.338Y50.45
G01 X27.338Y50.45
M5

M5 ; Disable End-Effector Signal

; Returning the Deactivating Tool-1
C0 ; PWM Tool select demultiplexer to select tool zero which is the empty tool slot in multiplexers
#TODO X-0.0Y-0.0Z-0.0 ;  ;Remove tool offset coordinate
G00X165.0Y0.0Z10.5 ; Go to Tool-1 Home Pos
G00X92 ; Enter Female Kinematic Mount Home Pos
A0 ; Latch OFF Kinematic Mount
G4 P5 ; Wait for Kinematic Mount to fully detach
G00X188 ; Exit Female Kinematic Mount Home Pos

; Machine deinitialization Sequence... 
G00X0.0Y0.0Z0.0
B0 ; Turn Machine OFF
