; This gcode is generated by my specialised python script for my PCB manufacturer project :))

; Machine Initialization Sequence...

G21 ; to set metric units
G90 ; to set absolute mode , G91 for incremental mode
G94 ; To set the active feed rate mode to units per minute mode

M5 ; disabling spindle PWM
C0 ; Choosing the empty tool slot in the multiplexer circuits

B1 ; Turn ON Machine

$H ; Homing :)
G10 P0 L20 X0.0Y0.0Z0.0 ; Force Reset current coordinates after homing


; The following gcode is the PCB trace laser marking gcode

M5 ; Being extra sure it won't light up before activation

; Getting and Activating Tool-1, The Tool.Laser
G00X165.0Y0.0Z10.5 ; Go to Tool-1 Home Pos
G00X188 ; Enter Female Kinematic Mount Home Pos
A1 ; Latch on Kinematic Mount
G4 P5 ; Wait for Kinematic Mount to fully attach
G00X92 ; Exit Female Kinematic Mount Home Pos
#TODO X0.0Y0.0Z0.0 ;  ;Add tool offset coordinate
C1 ; Choosing tool 1 in the choose demultiplexer circuits

F400 ; setting default feedrate

G00Z16 ; Moving to correct focal length Z position

S200 ; Setting Laser Power

; Number of passes: 1

; Pass number: 1
G01 X39.7544Y8.6287
M3
G01 X39.7534Y8.6295
G01 X39.7522Y8.6312
G01 X39.7456Y8.6387
G01 X39.7406Y8.6472
G01 X39.7348Y8.6552
G01 X39.7325Y8.6609
G01 X39.7295Y8.6661
G01 X39.7267Y8.6756
G01 X39.7231Y8.6848
G01 X39.7223Y8.6908
G01 X39.7206Y8.6966
G01 X39.7203Y8.7065
G01 X39.7191Y8.7164
G01 X39.7191Y8.9763
G01 X39.7201Y8.9924
G01 X39.7213Y8.9972
G01 X39.7217Y9.0022
G01 X39.7253Y9.0126
G01 X39.728Y9.0232
G01 X39.7304Y9.0276
G01 X39.7321Y9.0323
G01 X39.7381Y9.0414
G01 X39.7434Y9.0511
G01 X39.7468Y9.0547
G01 X39.7495Y9.0588
G01 X39.7577Y9.0662
G01 X39.7652Y9.0742
G01 X39.7694Y9.0769
G01 X39.7731Y9.0802
G01 X39.7828Y9.0854
G01 X39.7921Y9.0912
G01 X39.7968Y9.0928
G01 X39.8012Y9.0951
G01 X39.8119Y9.0977
G01 X39.8223Y9.101
G01 X39.8273Y9.1013
G01 X39.8321Y9.1025
G01 X39.8431Y9.1023
G01 X39.854Y9.103
G01 X39.8589Y9.1021
G01 X39.8639Y9.102
G01 X39.8745Y9.0991
G01 X39.8853Y9.097
G01 X39.8898Y9.0949
G01 X39.8946Y9.0936
G01 X40.3409Y8.9087
G01 X41.1291Y8.9087
G01 X41.8573Y9.2104
G01 X42.4146Y9.7677
G01 X42.7163Y10.4959
G01 X42.7163Y11.2841
G01 X42.4146Y12.0123
G01 X42.2962Y12.1307
G01 X42.2944Y12.1328
G01 X42.2934Y12.1336
G01 X42.2922Y12.1352
G01 X42.29Y12.1378
G01 X42.2894Y12.1383
G01 X42.2892Y12.1387
G01 X42.2856Y12.1428
G01 X42.2806Y12.1513
G01 X42.2748Y12.1593
G01 X42.2725Y12.1649
G01 X42.2695Y12.1702
G01 X42.2667Y12.1797
G01 X42.2631Y12.1889
G01 X42.2623Y12.1949
G01 X42.2606Y12.2007
G01 X42.2603Y12.2106
G01 X42.2591Y12.2204
G01 X42.2591Y13.0636
G01 X42.2593Y13.0664
G01 X42.2591Y13.0677
G01 X42.2595Y13.0697
G01 X42.2601Y13.0797
G01 X42.2626Y13.0893
G01 X42.2641Y13.0991
G01 X42.2665Y13.1046
G01 X42.268Y13.1105
G01 X42.2728Y13.1192
G01 X42.2768Y13.1283
G01 X42.2805Y13.133
G01 X42.2834Y13.1383
G01 X42.2902Y13.1456
G01 X42.2962Y13.1534
G01 X43.6171Y14.4742
G01 X43.6246Y14.4808
G01 X43.626Y14.4823
G01 X43.627Y14.483
G01 X43.6291Y14.4848
G01 X43.6411Y14.4919
G01 X43.6529Y14.4993
G01 X43.6548Y14.5
G01 X43.6565Y14.501
G01 X43.6699Y14.5049
G01 X43.6831Y14.5091
G01 X43.6851Y14.5093
G01 X43.6871Y14.5098
G01 X43.701Y14.5102
G01 X43.7149Y14.5111
G01 X43.7168Y14.5107
G01 X43.7189Y14.5108
G01 X43.7325Y14.5077
G01 X43.7461Y14.5051
G01 X43.7479Y14.5043
G01 X43.7499Y14.5038
G01 X43.7623Y14.4975
G01 X43.7749Y14.4916
G01 X43.7764Y14.4903
G01 X43.7782Y14.4894
G01 X43.7886Y14.4802
G01 X43.7994Y14.4713
G01 X43.8005Y14.4697
G01 X43.8021Y14.4683
G01 X43.8099Y14.4568
G01 X43.818Y14.4456
G01 X43.8188Y14.4437
G01 X43.8199Y14.442
G01 X43.8246Y14.4289
G01 X43.8297Y14.416
G01 X43.83Y14.414
G01 X43.8307Y14.4121
G01 X43.832Y14.3982
G01 X43.8337Y14.3844
G01 X43.8337Y14.3059
G01 X44.1354Y13.5777
G01 X44.6927Y13.0204
G01 X45.12966Y12.83936
G01 X45.1325Y12.8425
G01 X45.20268Y12.90611
G01 X45.27876Y12.96253
G01 X45.36001Y13.01123
G01 X45.44563Y13.05173
G01 X45.53482Y13.08364
G01 X45.6267Y13.10665
G01 X45.72039Y13.12055
G01 X45.815Y13.1252
G01 X45.90961Y13.12055
G01 X46.0033Y13.10665
G01 X46.09518Y13.08364
G01 X46.18437Y13.05173
G01 X46.26999Y13.01123
G01 X46.35124Y12.96253
G01 X46.42732Y12.90611
G01 X46.4975Y12.8425
G01 X46.50034Y12.83936
G01 X46.9373Y13.0204
G01 X47.0907Y13.1738
G01 X47.1028Y13.1844
G01 X47.1036Y13.1849
G01 X47.1043Y13.1855
G01 X47.1173Y13.193
G01 X47.1302Y13.2006
G01 X47.1311Y13.2008
G01 X47.1319Y13.2013
G01 X47.6308Y13.408
G01 X49.647Y15.4242
G01 X49.8791Y15.9843
G01 X49.8791Y17.8261
G01 X49.8793Y17.8289
G01 X49.8791Y17.8302
G01 X49.8795Y17.8322
G01 X49.8801Y17.8422
G01 X49.8826Y17.8518
G01 X49.8841Y17.8616
G01 X49.8865Y17.8671
G01 X49.888Y17.873
G01 X49.8928Y17.8817
G01 X49.8968Y17.8908
G01 X49.9005Y17.8955
G01 X49.9034Y17.9008
G01 X49.9102Y17.9081
G01 X49.9162Y17.9159
G01 X52.187Y20.1867
G01 X52.4191Y20.7468
G01 X52.4191Y21.4867
G01 X52.4193Y21.4895
G01 X52.4191Y21.4907
G01 X52.4194Y21.4921
G01 X52.4193Y21.4927
G01 X52.4195Y21.4937
G01 X52.4201Y21.5027
G01 X52.4226Y21.5123
G01 X52.4241Y21.5221
G01 X52.4265Y21.5277
G01 X52.428Y21.5335
G01 X52.4328Y21.5422
G01 X52.4368Y21.5513
G01 X52.4405Y21.5561
G01 X52.4434Y21.5614
G01 X52.4502Y21.5686
G01 X52.4562Y21.5764
G01 X52.467Y21.5871
G01 X52.72098Y22.20032
G01 X52.69577Y22.24238
G01 X52.6606Y22.31673
G01 X52.63289Y22.39418
G01 X52.61291Y22.47398
G01 X52.60084Y22.55534
G01 X52.5968Y22.6375
G01 X52.60084Y22.71966
G01 X52.61291Y22.80102
G01 X52.63289Y22.88082
G01 X52.6606Y22.95827
G01 X52.69577Y23.03262
G01 X52.72098Y23.07468
G01 X52.467Y23.6879
G01 X51.9454Y24.2095
G01 X51.2638Y24.4918
G01 X50.5262Y24.4918
G01 X49.8446Y24.2095
G01 X49.7147Y24.0796
G01 X49.7102Y24.0756
G01 X49.7089Y24.0741
G01 X49.7072Y24.0729
G01 X49.7027Y24.0689
G01 X49.6924Y24.0629
G01 X49.6826Y24.0562
G01 X49.6787Y24.0548
G01 X49.6753Y24.0528
G01 X49.6639Y24.0495
G01 X49.6526Y24.0455
G01 X49.6486Y24.0451
G01 X49.6447Y24.044
G01 X49.6328Y24.0436
G01 X49.621Y24.0425
G01 X49.617Y24.0431
G01 X49.6129Y24.043
G01 X49.6013Y24.0456
G01 X49.5896Y24.0475
G01 X49.5858Y24.0491
G01 X49.5819Y24.05
G01 X49.5713Y24.0554
G01 X49.5604Y24.0601
G01 X49.5572Y24.0626
G01 X49.5536Y24.0644
G01 X49.5447Y24.0723
G01 X49.5352Y24.0796
G01 X49.4054Y24.2095
G01 X48.7238Y24.4918
G01 X47.9862Y24.4918
G01 X47.6416Y24.349
G01 X47.6263Y24.3438
G01 X47.6214Y24.3431
G01 X47.6167Y24.3416
G01 X47.6057Y24.3409
G01 X47.5948Y24.3394
G01 X47.5899Y24.3399
G01 X47.5849Y24.3396
G01 X47.5742Y24.3417
G01 X47.5632Y24.3429
G01 X47.5586Y24.3447
G01 X47.5537Y24.3456
G01 X47.5438Y24.3503
G01 X47.5335Y24.3542
G01 X47.5294Y24.357
G01 X47.5249Y24.3592
G01 X47.5165Y24.3662
G01 X47.5075Y24.3725
G01 X47.5043Y24.3763
G01 X47.5004Y24.3794
G01 X47.494Y24.3883
G01 X47.4869Y24.3967
G01 X47.4847Y24.4012
G01 X47.4818Y24.4052
G01 X47.4777Y24.4154
G01 X47.4729Y24.4253
G01 X47.4719Y24.4301
G01 X47.4701Y24.4347
G01 X47.4687Y24.4457
G01 X47.4665Y24.4564
G01 X47.4667Y24.4614
G01 X47.4661Y24.4663
G01 X47.4661Y25.3935
G01 X47.4663Y25.3963
G01 X47.4661Y25.3976
G01 X47.4665Y25.3996
G01 X47.4671Y25.4096
G01 X47.4696Y25.4192
G01 X47.4711Y25.429
G01 X47.4735Y25.4345
G01 X47.475Y25.4404
G01 X47.4798Y25.4491
G01 X47.4838Y25.4582
G01 X47.4875Y25.4629
G01 X47.4904Y25.4682
G01 X47.4972Y25.4755
G01 X47.5032Y25.4833
G01 X48.0492Y26.0293
G01 X48.0513Y26.0311
G01 X48.0521Y26.0321
G01 X48.0538Y26.0333
G01 X48.0613Y26.0399
G01 X48.0698Y26.0449
G01 X48.0778Y26.0507
G01 X48.0835Y26.053
G01 X48.0887Y26.056
G01 X48.0982Y26.0588
G01 X48.1074Y26.0624
G01 X48.1134Y26.0632
G01 X48.1192Y26.0649
G01 X48.1292Y26.0652
G01 X48.139Y26.0664
G01 X55.3509Y26.0664
G01 X55.9578Y26.3178
G01 X58.0097Y28.3697
G01 X58.1496Y28.7075
G01 X58.1523Y28.7129
G01 X58.1529Y28.7148
G01 X58.154Y28.7165
G01 X58.1567Y28.7219
G01 X58.1639Y28.7314
G01 X58.1704Y28.7414
G01 X58.1734Y28.7441
G01 X58.1758Y28.7473
G01 X58.1851Y28.7548
G01 X58.1939Y28.7628
G01 X58.1975Y28.7647
G01 X58.2007Y28.7672
G01 X58.2115Y28.7721
G01 X58.222Y28.7777
G01 X58.226Y28.7786
G01 X58.2297Y28.7803
G01 X58.2414Y28.7823
G01 X58.253Y28.7851
G01 X58.257Y28.785
G01 X58.261Y28.7857
G01 X58.2729Y28.7848
G01 X58.2848Y28.7846
G01 X58.2887Y28.7835
G01 X58.2927Y28.7832
G01 X58.304Y28.7793
G01 X58.3154Y28.7762
G01 X58.7559Y28.5937
G01 X59.5441Y28.5937
G01 X60.2723Y28.8954
G01 X60.8296Y29.4527
G01 X61.01064Y29.88966
G01 X61.0075Y29.8925
G01 X60.94389Y29.96268
G01 X60.88747Y30.03876
G01 X60.83877Y30.12001
G01 X60.79827Y30.20563
G01 X60.76636Y30.29482
G01 X60.74335Y30.3867
G01 X60.72945Y30.48039
G01 X60.7248Y30.575
G01 X60.72945Y30.66961
G01 X60.74335Y30.7633
G01 X60.76636Y30.85518
G01 X60.79827Y30.94437
G01 X60.83877Y31.02999
G01 X60.88747Y31.11124
G01 X60.94389Y31.18732
G01 X61.0075Y31.2575
G01 X61.01064Y31.26034
G01 X60.8296Y31.6973
G01 X60.2723Y32.2546
G01 X59.5441Y32.5563
G01 X58.7559Y32.5563
G01 X58.0255Y32.2537
G01 X58.0242Y32.2526
G01 X58.0157Y32.2476
G01 X58.0077Y32.2418
G01 X58.002Y32.2395
G01 X57.9968Y32.2365
G01 X57.9873Y32.2337
G01 X57.9781Y32.2301
G01 X57.9721Y32.2293
G01 X57.9663Y32.2276
G01 X57.9564Y32.2273
G01 X57.9466Y32.2261
G01 X57.8134Y32.2261
G01 X57.8106Y32.2263
G01 X57.8094Y32.2261
G01 X57.8074Y32.2265
G01 X57.7974Y32.2271
G01 X57.7878Y32.2296
G01 X57.778Y32.2311
G01 X57.7724Y32.2335
G01 X57.7666Y32.235
G01 X57.7579Y32.2398
G01 X57.7488Y32.2438
G01 X57.744Y32.2475
G01 X57.7387Y32.2504
G01 X57.7357Y32.2532
G01 X57.0041Y32.5563
G01 X56.2159Y32.5563
G01 X55.4877Y32.2546
G01 X54.9304Y31.6973
G01 X54.9114Y31.6516
G01 X54.9043Y31.6371
G01 X54.9014Y31.6332
G01 X54.8991Y31.6288
G01 X54.8918Y31.6205
G01 X54.8852Y31.6117
G01 X54.8813Y31.6086
G01 X54.878Y31.6049
G01 X54.8689Y31.5987
G01 X54.8604Y31.5919
G01 X54.8558Y31.5898
G01 X54.8517Y31.5871
G01 X54.8414Y31.5833
G01 X54.8314Y31.5788
G01 X54.8265Y31.578
G01 X54.8218Y31.5763
G01 X54.8109Y31.5753
G01 X54.8Y31.5734
G01 X54.7951Y31.5738
G01 X54.7901Y31.5733
G01 X54.7793Y31.575
G01 X54.7683Y31.5759
G01 X54.7636Y31.5775
G01 X54.7587Y31.5783
G01 X54.7486Y31.5827
G01 X54.7383Y31.5862
G01 X54.7341Y31.589
G01 X54.7295Y31.5909
G01 X54.7209Y31.5977
G01 X54.7117Y31.6037
G01 X54.7083Y31.6074
G01 X54.7044Y31.6104
G01 X54.4854Y31.8295
G01 X53.8038Y32.1118
G01 X53.0662Y32.1118
G01 X52.3846Y31.8295
G01 X52.2547Y31.6996
G01 X52.2502Y31.6956
G01 X52.2489Y31.6941
G01 X52.2472Y31.6929
G01 X52.2427Y31.6889
G01 X52.2324Y31.6829
G01 X52.2226Y31.6762
G01 X52.2187Y31.6748
G01 X52.2153Y31.6728
G01 X52.2039Y31.6695
G01 X52.1926Y31.6655
G01 X52.1886Y31.6651
G01 X52.1847Y31.664
G01 X52.1728Y31.6636
G01 X52.161Y31.6625
G01 X52.157Y31.6631
G01 X52.1529Y31.663
G01 X52.1413Y31.6656
G01 X52.1296Y31.6675
G01 X52.1258Y31.6691
G01 X52.1219Y31.67
G01 X52.1113Y31.6754
G01 X52.1004Y31.6801
G01 X52.0972Y31.6826
G01 X52.0936Y31.6844
G01 X52.0847Y31.6923
G01 X52.0752Y31.6996
G01 X51.9454Y31.8295
G01 X51.2638Y32.1118
G01 X50.5262Y32.1118
G01 X49.8446Y31.8295
G01 X49.7147Y31.6996
G01 X49.7102Y31.6956
G01 X49.7089Y31.6941
G01 X49.7072Y31.6929
G01 X49.7027Y31.6889
G01 X49.6924Y31.6829
G01 X49.6826Y31.6762
G01 X49.6787Y31.6748
G01 X49.6753Y31.6728
G01 X49.6639Y31.6695
G01 X49.6526Y31.6655
G01 X49.6486Y31.6651
G01 X49.6447Y31.664
G01 X49.6328Y31.6636
G01 X49.621Y31.6625
G01 X49.617Y31.6631
G01 X49.6129Y31.663
G01 X49.6013Y31.6656
G01 X49.5896Y31.6675
G01 X49.5858Y31.6691
G01 X49.5819Y31.67
G01 X49.5713Y31.6754
G01 X49.5604Y31.6801
G01 X49.5572Y31.6826
G01 X49.5536Y31.6844
G01 X49.5447Y31.6923
G01 X49.5352Y31.6996
G01 X49.4054Y31.8295
G01 X48.7238Y32.1118
G01 X47.9862Y32.1118
G01 X47.3046Y31.8295
G01 X47.1748Y31.6996
G01 X47.1702Y31.6956
G01 X47.1689Y31.6941
G01 X47.1672Y31.6929
G01 X47.1627Y31.689
G01 X47.1524Y31.6829
G01 X47.1426Y31.6762
G01 X47.1388Y31.6748
G01 X47.1353Y31.6728
G01 X47.1238Y31.6695
G01 X47.1126Y31.6655
G01 X47.1086Y31.6651
G01 X47.1047Y31.664
G01 X47.0928Y31.6636
G01 X47.081Y31.6625
G01 X47.077Y31.6631
G01 X47.0729Y31.663
G01 X47.0613Y31.6656
G01 X47.0496Y31.6675
G01 X47.0458Y31.6691
G01 X47.0419Y31.67
G01 X47.0313Y31.6754
G01 X47.0204Y31.6801
G01 X47.0172Y31.6826
G01 X47.0136Y31.6844
G01 X47.0047Y31.6923
G01 X46.9953Y31.6996
G01 X46.8654Y31.8295
G01 X46.1838Y32.1118
G01 X45.4462Y32.1118
G01 X44.7646Y31.8295
G01 X44.243Y31.3079
G01 X43.9607Y30.6263
G01 X43.9607Y29.8875
G01 X43.9636Y29.879
G01 X43.964Y29.876
G01 X43.965Y29.8733
G01 X43.9663Y29.8603
G01 X43.9681Y29.8475
G01 X43.9678Y29.8445
G01 X43.968Y29.8416
G01 X43.966Y29.8288
G01 X43.9646Y29.8159
G01 X43.9635Y29.8131
G01 X43.963Y29.8102
G01 X43.9579Y29.7983
G01 X43.9533Y29.7861
G01 X43.9516Y29.7837
G01 X43.9504Y29.781
G01 X43.9424Y29.7707
G01 X43.935Y29.7601
G01 X43.9327Y29.7582
G01 X43.9309Y29.7559
G01 X42.3108Y28.1357
G01 X42.3087Y28.1339
G01 X42.3079Y28.1329
G01 X42.3062Y28.1317
G01 X42.2987Y28.1251
G01 X42.2902Y28.1201
G01 X42.2822Y28.1143
G01 X42.2765Y28.112
G01 X42.2713Y28.109
G01 X42.2618Y28.1062
G01 X42.2526Y28.1026
G01 X42.2466Y28.1018
G01 X42.2408Y28.1001
G01 X42.2308Y28.0998
G01 X42.221Y28.0986
G01 X38.68584Y28.0986
G01 X38.67394Y28.09147
G01 X38.58381Y28.04884
G01 X38.48993Y28.01525
G01 X38.39321Y27.99102
G01 X38.29459Y27.97639
G01 X38.195Y27.9715
G01 X38.09541Y27.97639
G01 X37.99679Y27.99102
G01 X37.90007Y28.01525
G01 X37.80619Y28.04884
G01 X37.71606Y28.09147
G01 X37.70416Y28.0986
G01 X36.9141Y28.0986
G01 X36.3072Y27.8472
G01 X34.2553Y25.7953
G01 X34.0039Y25.1884
G01 X34.0039Y19.7134
G01 X34.0037Y19.7106
G01 X34.0039Y19.7094
G01 X34.0035Y19.7074
G01 X34.0029Y19.6974
G01 X34.0004Y19.6878
G01 X33.9989Y19.678
G01 X33.9965Y19.6724
G01 X33.995Y19.6666
G01 X33.9902Y19.6579
G01 X33.9862Y19.6488
G01 X33.9825Y19.644
G01 X33.9796Y19.6387
G01 X33.9768Y19.6357
G01 X33.6737Y18.9041
G01 X33.6737Y18.1159
G01 X33.9375Y17.4791
G01 X33.9427Y17.4638
G01 X33.9434Y17.4589
G01 X33.9449Y17.4542
G01 X33.9456Y17.4432
G01 X33.9472Y17.4323
G01 X33.9466Y17.4274
G01 X33.9469Y17.4224
G01 X33.9449Y17.4117
G01 X33.9436Y17.4007
G01 X33.9419Y17.3961
G01 X33.9409Y17.3912
G01 X33.9363Y17.3813
G01 X33.9324Y17.371
G01 X33.9295Y17.3669
G01 X33.9274Y17.3624
G01 X33.9204Y17.354
G01 X33.9141Y17.345
G01 X33.9103Y17.3418
G01 X33.9071Y17.3379
G01 X33.8982Y17.3315
G01 X33.8899Y17.3244
G01 X33.8854Y17.3222
G01 X33.8814Y17.3193
G01 X33.8712Y17.3152
G01 X33.8613Y17.3104
G01 X33.8564Y17.3094
G01 X33.8518Y17.3076
G01 X33.8409Y17.3062
G01 X33.8301Y17.304
G01 X33.8252Y17.3042
G01 X33.8202Y17.3036
G01 X23.9075Y17.3036
G01 X23.9015Y17.304
G01 X23.8995Y17.3038
G01 X23.8975Y17.3042
G01 X23.8914Y17.3046
G01 X23.8799Y17.3076
G01 X23.8682Y17.3098
G01 X23.8646Y17.3115
G01 X23.8606Y17.3125
G01 X23.8502Y17.3183
G01 X23.8394Y17.3234
G01 X23.8363Y17.3259
G01 X23.8328Y17.3279
G01 X23.8241Y17.336
G01 X23.8149Y17.3436
G01 X23.8126Y17.3469
G01 X23.8096Y17.3497
G01 X23.8033Y17.3598
G01 X23.7963Y17.3694
G01 X23.7948Y17.3731
G01 X23.7926Y17.3766
G01 X23.7889Y17.3879
G01 X23.7846Y17.3989
G01 X23.7841Y17.403
G01 X23.7828Y17.4068
G01 X23.7821Y17.4187
G01 X23.7806Y17.4305
G01 X23.7806Y43.5399
G01 X19.4099Y47.9106
G01 X16.605Y47.9106
G01 X16.6022Y47.9108
G01 X16.601Y47.9106
G01 X16.5989Y47.911
G01 X16.5889Y47.9116
G01 X16.5794Y47.9141
G01 X16.5696Y47.9156
G01 X16.564Y47.918
G01 X16.5581Y47.9195
G01 X16.5495Y47.9243
G01 X16.5404Y47.9283
G01 X16.5356Y47.932
G01 X16.5303Y47.9349
G01 X16.5231Y47.9417
G01 X16.5153Y47.9478
G01 X15.5628Y48.9003
G01 X15.5609Y48.9024
G01 X15.5599Y48.9031
G01 X15.5587Y48.9048
G01 X15.5521Y48.9123
G01 X15.5471Y48.9209
G01 X15.5413Y48.9289
G01 X15.539Y48.9345
G01 X15.536Y48.9397
G01 X15.5332Y48.9492
G01 X15.5296Y48.9584
G01 X15.5288Y48.9645
G01 X15.5271Y48.9703
G01 X15.5268Y48.9802
G01 X15.5256Y48.99
G01 X15.5256Y54.3875
G01 X15.526Y54.3935
G01 X15.5258Y54.3956
G01 X15.5262Y54.3976
G01 X15.5266Y54.4036
G01 X15.5296Y54.4151
G01 X15.5318Y54.4268
G01 X15.5335Y54.4304
G01 X15.5345Y54.4344
G01 X15.5403Y54.4448
G01 X15.5454Y54.4556
G01 X15.5479Y54.4587
G01 X15.5499Y54.4622
G01 X15.5581Y54.4709
G01 X15.5656Y54.4801
G01 X15.5689Y54.4824
G01 X15.5717Y54.4854
G01 X15.5818Y54.4918
G01 X15.5914Y54.4987
G01 X15.5951Y54.5002
G01 X15.5986Y54.5024
G01 X15.6099Y54.5061
G01 X15.6209Y54.5104
G01 X15.625Y54.5109
G01 X15.6288Y54.5122
G01 X15.6407Y54.5129
G01 X15.6525Y54.5144
G01 X21.685Y54.5144
G01 X21.6878Y54.5142
G01 X21.689Y54.5144
G01 X21.6911Y54.514
G01 X21.7011Y54.5134
G01 X21.7106Y54.5109
G01 X21.7204Y54.5094
G01 X21.726Y54.507
G01 X21.7319Y54.5055
G01 X21.7405Y54.5007
G01 X21.7496Y54.4967
G01 X21.7544Y54.493
G01 X21.7597Y54.4901
G01 X21.7669Y54.4833
G01 X21.7748Y54.4773
G01 X23.6426Y52.6094
G01 X44.8625Y52.6094
G01 X44.8653Y52.6092
G01 X44.8665Y52.6094
G01 X44.8686Y52.609
G01 X44.8786Y52.6084
G01 X44.8881Y52.6059
G01 X44.8979Y52.6044
G01 X44.9035Y52.602
G01 X44.9094Y52.6005
G01 X44.918Y52.5957
G01 X44.9271Y52.5917
G01 X44.9319Y52.588
G01 X44.9372Y52.5851
G01 X44.9444Y52.5783
G01 X44.9523Y52.5723
G01 X46.8573Y50.6673
G01 X46.8591Y50.6651
G01 X46.8601Y50.6644
G01 X46.8613Y50.6627
G01 X46.8679Y50.6552
G01 X46.8729Y50.6466
G01 X46.8787Y50.6386
G01 X46.881Y50.633
G01 X46.884Y50.6278
G01 X46.8868Y50.6183
G01 X46.8904Y50.6091
G01 X46.8912Y50.603
G01 X46.8929Y50.5972
G01 X46.8932Y50.5873
G01 X46.8944Y50.5775
G01 X46.8944Y40.5637
G01 X46.8934Y40.5477
G01 X46.8932Y40.5468
G01 X46.8932Y40.5458
G01 X46.8892Y40.5313
G01 X46.8855Y40.5169
G01 X46.885Y40.5161
G01 X46.8848Y40.5152
G01 X46.8182Y40.3545
G01 X46.8182Y37.9405
G01 X47.1005Y37.2589
G01 X47.6221Y36.7373
G01 X48.3037Y36.455
G01 X49.0413Y36.455
G01 X49.7229Y36.7373
G01 X50.2445Y37.2589
G01 X50.49848Y37.87212
G01 X50.47327Y37.91418
G01 X50.4381Y37.98853
G01 X50.41039Y38.06598
G01 X50.39041Y38.14578
G01 X50.37834Y38.22714
G01 X50.3743Y38.3093
G01 X50.3743Y39.9857
G01 X50.37834Y40.06786
G01 X50.39041Y40.14922
G01 X50.41039Y40.22902
G01 X50.4381Y40.30647
G01 X50.47327Y40.38082
G01 X50.51556Y40.45138
G01 X50.56456Y40.51745
G01 X50.6198Y40.5784
G01 X50.68075Y40.63364
G01 X50.74682Y40.68264
G01 X50.81738Y40.72493
G01 X50.89173Y40.7601
G01 X50.96918Y40.78781
G01 X51.04898Y40.80779
G01 X51.13034Y40.81986
G01 X51.2125Y40.8239
G01 X51.29466Y40.81986
G01 X51.37602Y40.80779
G01 X51.45582Y40.78781
G01 X51.53327Y40.7601
G01 X51.60762Y40.72493
G01 X51.67818Y40.68264
G01 X51.74425Y40.63364
G01 X51.8052Y40.5784
G01 X51.86044Y40.51745
G01 X51.90944Y40.45138
G01 X51.95173Y40.38082
G01 X51.9869Y40.30647
G01 X52.01461Y40.22902
G01 X52.03459Y40.14922
G01 X52.04666Y40.06786
G01 X52.0507Y39.9857
G01 X52.0507Y38.3093
G01 X52.04666Y38.22714
G01 X52.03459Y38.14578
G01 X52.01461Y38.06598
G01 X51.9869Y37.98853
G01 X51.95173Y37.91418
G01 X51.92652Y37.87212
G01 X52.1805Y37.2589
G01 X52.7021Y36.7373
G01 X53.3837Y36.455
G01 X54.1213Y36.455
G01 X54.8029Y36.7373
G01 X55.3245Y37.2589
G01 X55.57848Y37.87212
G01 X55.55327Y37.91418
G01 X55.5181Y37.98853
G01 X55.49039Y38.06598
G01 X55.47041Y38.14578
G01 X55.45834Y38.22714
G01 X55.4543Y38.3093
G01 X55.4543Y39.9857
G01 X55.45834Y40.06786
G01 X55.47041Y40.14922
G01 X55.49039Y40.22902
G01 X55.5181Y40.30647
G01 X55.55327Y40.38082
G01 X55.59556Y40.45138
G01 X55.64456Y40.51745
G01 X55.6998Y40.5784
G01 X55.76075Y40.63364
G01 X55.82682Y40.68264
G01 X55.89738Y40.72493
G01 X55.97173Y40.7601
G01 X56.04918Y40.78781
G01 X56.12898Y40.80779
G01 X56.21034Y40.81986
G01 X56.2925Y40.8239
G01 X56.37466Y40.81986
G01 X56.45602Y40.80779
G01 X56.53582Y40.78781
G01 X56.61327Y40.7601
G01 X56.68762Y40.72493
G01 X56.75818Y40.68264
G01 X56.82425Y40.63364
G01 X56.8852Y40.5784
G01 X56.94044Y40.51745
G01 X56.98944Y40.45138
G01 X57.03173Y40.38082
G01 X57.0669Y40.30647
G01 X57.09461Y40.22902
G01 X57.11459Y40.14922
G01 X57.12666Y40.06786
G01 X57.1307Y39.9857
G01 X57.1307Y38.3093
G01 X57.12666Y38.22714
G01 X57.11459Y38.14578
G01 X57.09461Y38.06598
G01 X57.0669Y37.98853
G01 X57.03173Y37.91418
G01 X57.00652Y37.87212
G01 X57.2605Y37.2589
G01 X57.7821Y36.7373
G01 X58.4637Y36.455
G01 X59.2013Y36.455
G01 X59.8829Y36.7373
G01 X60.0127Y36.8672
G01 X60.0173Y36.8712
G01 X60.0186Y36.8727
G01 X60.0203Y36.8739
G01 X60.0248Y36.8778
G01 X60.0351Y36.8839
G01 X60.0449Y36.8906
G01 X60.0487Y36.892
G01 X60.0522Y36.894
G01 X60.0637Y36.8973
G01 X60.0749Y36.9013
G01 X60.0789Y36.9017
G01 X60.0828Y36.9028
G01 X60.0947Y36.9032
G01 X60.1065Y36.9043
G01 X60.1105Y36.9037
G01 X60.1146Y36.9038
G01 X60.1262Y36.9012
G01 X60.1379Y36.8993
G01 X60.1417Y36.8977
G01 X60.1456Y36.8968
G01 X60.1562Y36.8914
G01 X60.1671Y36.8867
G01 X60.1703Y36.8842
G01 X60.1739Y36.8824
G01 X60.1828Y36.8745
G01 X60.1922Y36.8672
G01 X60.3221Y36.7373
G01 X61.0037Y36.455
G01 X61.7413Y36.455
G01 X62.4229Y36.7373
G01 X62.9445Y37.2589
G01 X63.19848Y37.87212
G01 X63.17327Y37.91418
G01 X63.1381Y37.98853
G01 X63.11039Y38.06598
G01 X63.09041Y38.14578
G01 X63.07834Y38.22714
G01 X63.0743Y38.3093
G01 X63.0743Y39.9857
G01 X63.07834Y40.06786
G01 X63.09041Y40.14922
G01 X63.11039Y40.22902
G01 X63.1381Y40.30647
G01 X63.17327Y40.38082
G01 X63.21556Y40.45138
G01 X63.26456Y40.51745
G01 X63.3198Y40.5784
G01 X63.38075Y40.63364
G01 X63.44682Y40.68264
G01 X63.51738Y40.72493
G01 X63.59173Y40.7601
G01 X63.66918Y40.78781
G01 X63.74898Y40.80779
G01 X63.83034Y40.81986
G01 X63.9125Y40.8239
G01 X63.99466Y40.81986
G01 X64.07602Y40.80779
G01 X64.15582Y40.78781
G01 X64.23327Y40.7601
G01 X64.30762Y40.72493
G01 X64.37818Y40.68264
G01 X64.44425Y40.63364
G01 X64.5052Y40.5784
G01 X64.56044Y40.51745
G01 X64.60944Y40.45138
G01 X64.65173Y40.38082
G01 X64.6869Y40.30647
G01 X64.71461Y40.22902
G01 X64.73459Y40.14922
G01 X64.74666Y40.06786
G01 X64.7507Y39.9857
G01 X64.7507Y38.3093
G01 X64.74666Y38.22714
G01 X64.73459Y38.14578
G01 X64.71461Y38.06598
G01 X64.6869Y37.98853
G01 X64.65173Y37.91418
G01 X64.62652Y37.87212
G01 X64.8805Y37.2589
G01 X65.4021Y36.7373
G01 X66.0837Y36.455
G01 X66.8213Y36.455
G01 X67.5029Y36.7373
G01 X67.6327Y36.8672
G01 X67.6373Y36.8712
G01 X67.6386Y36.8727
G01 X67.6403Y36.8739
G01 X67.6448Y36.8778
G01 X67.6551Y36.8839
G01 X67.6649Y36.8906
G01 X67.6687Y36.892
G01 X67.6722Y36.894
G01 X67.6837Y36.8973
G01 X67.6949Y36.9013
G01 X67.6989Y36.9017
G01 X67.7028Y36.9028
G01 X67.7147Y36.9032
G01 X67.7265Y36.9043
G01 X67.7305Y36.9037
G01 X67.7346Y36.9038
G01 X67.7462Y36.9012
G01 X67.7579Y36.8993
G01 X67.7617Y36.8977
G01 X67.7656Y36.8968
G01 X67.7762Y36.8914
G01 X67.7871Y36.8867
G01 X67.7903Y36.8842
G01 X67.7939Y36.8824
G01 X67.8028Y36.8745
G01 X67.8122Y36.8672
G01 X67.9421Y36.7373
G01 X68.6237Y36.455
G01 X69.3613Y36.455
G01 X70.0429Y36.7373
G01 X70.1727Y36.8672
G01 X70.1773Y36.8712
G01 X70.1786Y36.8727
G01 X70.1803Y36.8739
G01 X70.1848Y36.8778
G01 X70.1951Y36.8839
G01 X70.2049Y36.8906
G01 X70.2087Y36.892
G01 X70.2122Y36.894
G01 X70.2237Y36.8973
G01 X70.2349Y36.9013
G01 X70.2389Y36.9017
G01 X70.2428Y36.9028
G01 X70.2547Y36.9032
G01 X70.2665Y36.9043
G01 X70.2705Y36.9037
G01 X70.2746Y36.9038
G01 X70.2862Y36.9012
G01 X70.2979Y36.8993
G01 X70.3017Y36.8977
G01 X70.3056Y36.8968
G01 X70.3162Y36.8914
G01 X70.3271Y36.8867
G01 X70.3303Y36.8842
G01 X70.3339Y36.8824
G01 X70.3428Y36.8745
G01 X70.3522Y36.8672
G01 X70.4821Y36.7373
G01 X71.1637Y36.455
G01 X71.9013Y36.455
G01 X72.5829Y36.7373
G01 X73.1045Y37.2589
G01 X73.35848Y37.87212
G01 X73.33327Y37.91418
G01 X73.2981Y37.98853
G01 X73.27039Y38.06598
G01 X73.25041Y38.14578
G01 X73.23834Y38.22714
G01 X73.2343Y38.3093
G01 X73.2343Y39.9857
G01 X73.23834Y40.06786
G01 X73.25041Y40.14922
G01 X73.27039Y40.22902
G01 X73.2981Y40.30647
G01 X73.33327Y40.38082
G01 X73.37556Y40.45138
G01 X73.42456Y40.51745
G01 X73.4375Y40.53172
G01 X73.4375Y41.37
G01 X73.44056Y41.43224
G01 X73.4497Y41.49388
G01 X73.46484Y41.55433
G01 X73.48584Y41.613
G01 X73.51248Y41.66934
G01 X73.54452Y41.72279
G01 X73.58164Y41.77284
G01 X73.62349Y41.81901
G01 X74.89349Y43.08901
G01 X74.93966Y43.13086
G01 X74.98971Y43.16798
G01 X75.04316Y43.20002
G01 X75.0995Y43.22666
G01 X75.15817Y43.24766
G01 X75.21862Y43.2628
G01 X75.28026Y43.27194
G01 X75.3425Y43.275
G01 X77.8825Y43.275
G01 X77.94474Y43.27194
G01 X78.00638Y43.2628
G01 X78.06683Y43.24766
G01 X78.1255Y43.22666
G01 X78.18184Y43.20002
G01 X78.23529Y43.16798
G01 X78.28534Y43.13086
G01 X78.33151Y43.08901
G01 X79.60151Y41.81901
G01 X79.64336Y41.77284
G01 X79.68048Y41.72279
G01 X79.71252Y41.66934
G01 X79.73916Y41.613
G01 X79.76016Y41.55433
G01 X79.7753Y41.49388
G01 X79.78444Y41.43224
G01 X79.7875Y41.37
G01 X79.7875Y40.53172
G01 X79.80044Y40.51745
G01 X79.84944Y40.45138
G01 X79.89173Y40.38082
G01 X79.9269Y40.30647
G01 X79.95461Y40.22902
G01 X79.97459Y40.14922
G01 X79.98666Y40.06786
G01 X79.9907Y39.9857
G01 X79.9907Y38.3093
G01 X79.98666Y38.22714
G01 X79.97459Y38.14578
G01 X79.95461Y38.06598
G01 X79.9269Y37.98853
G01 X79.89173Y37.91418
G01 X79.86653Y37.87214
G01 X79.9556Y37.6572
G01 X79.9608Y37.6419
G01 X79.9609Y37.641
G01 X79.9612Y37.6402
G01 X79.9627Y37.6288
G01 X79.963Y37.6278
G01 X79.9632Y37.6249
G01 X79.9652Y37.6105
G01 X79.9651Y37.6095
G01 X79.9652Y37.6086
G01 X79.9652Y33.66493
G01 X79.99678Y33.63008
G01 X80.06063Y33.54399
G01 X80.11573Y33.45206
G01 X80.16156Y33.35517
G01 X80.19767Y33.25425
G01 X80.22371Y33.15028
G01 X80.23944Y33.04425
G01 X80.2447Y32.9372
G01 X80.2447Y30.7528
G01 X80.23944Y30.64575
G01 X80.22371Y30.53972
G01 X80.19767Y30.43575
G01 X80.16156Y30.33483
G01 X80.11573Y30.23794
G01 X80.06063Y30.14601
G01 X80.00847Y30.07568
G01 X80.2227Y29.5586
G01 X80.323Y29.4582
G01 X80.3296Y29.4507
G01 X80.3311Y29.4493
G01 X80.3318Y29.4483
G01 X80.3336Y29.4462
G01 X80.3407Y29.4342
G01 X80.3481Y29.4224
G01 X80.3488Y29.4205
G01 X80.3498Y29.4188
G01 X80.3537Y29.4054
G01 X80.3579Y29.3922
G01 X80.3581Y29.3902
G01 X80.3586Y29.3882
G01 X80.3591Y29.3743
G01 X80.3599Y29.3604
G01 X80.3595Y29.3585
G01 X80.3596Y29.3564
G01 X80.3566Y29.3429
G01 X80.3539Y29.3292
G01 X80.3531Y29.3274
G01 X80.3526Y29.3254
G01 X80.3463Y29.313
G01 X80.3404Y29.3004
G01 X80.3391Y29.2989
G01 X80.3382Y29.2971
G01 X80.329Y29.2867
G01 X80.3201Y29.2759
G01 X80.3185Y29.2748
G01 X80.3171Y29.2732
G01 X80.3056Y29.2654
G01 X80.2944Y29.2573
G01 X80.2925Y29.2565
G01 X80.2908Y29.2554
G01 X80.2777Y29.2507
G01 X80.2648Y29.2456
G01 X80.2628Y29.2453
G01 X80.2609Y29.2446
G01 X80.2471Y29.2433
G01 X80.2333Y29.2416
G01 X78.5664Y29.2416
G01 X78.5636Y29.2418
G01 X78.5623Y29.2416
G01 X78.5603Y29.242
G01 X78.5503Y29.2426
G01 X78.5407Y29.2451
G01 X78.5309Y29.2466
G01 X78.5254Y29.249
G01 X78.5195Y29.2505
G01 X78.5108Y29.2553
G01 X78.5017Y29.2593
G01 X78.497Y29.263
G01 X78.4917Y29.2659
G01 X78.4844Y29.2727
G01 X78.4766Y29.2787
G01 X78.1758Y29.5796
G01 X78.1652Y29.5916
G01 X78.1637Y29.5942
G01 X78.1617Y29.5964
G01 X78.1556Y29.6079
G01 X78.149Y29.619
G01 X78.1482Y29.6219
G01 X78.1468Y29.6245
G01 X78.1438Y29.6371
G01 X78.1402Y29.6496
G01 X78.1401Y29.6525
G01 X78.1394Y29.6554
G01 X78.1396Y29.6684
G01 X78.1392Y29.6814
G01 X78.1399Y29.6842
G01 X78.1399Y29.6872
G01 X78.1433Y29.6997
G01 X78.1462Y29.7124
G01 X78.1475Y29.715
G01 X78.1483Y29.7179
G01 X78.29653Y30.07568
G01 X78.24437Y30.14601
G01 X78.18927Y30.23794
G01 X78.14344Y30.33483
G01 X78.10733Y30.43575
G01 X78.08129Y30.53972
G01 X78.06556Y30.64575
G01 X78.0603Y30.7528
G01 X78.0603Y32.9372
G01 X78.06556Y33.04425
G01 X78.08129Y33.15028
G01 X78.10733Y33.25425
G01 X78.14344Y33.35517
G01 X78.18927Y33.45206
G01 X78.24437Y33.54399
G01 X78.30822Y33.63008
G01 X78.3398Y33.66493
G01 X78.3398Y37.6086
G01 X78.3408Y37.6247
G01 X78.341Y37.6256
G01 X78.341Y37.6265
G01 X78.345Y37.641
G01 X78.3487Y37.6555
G01 X78.3492Y37.6563
G01 X78.3494Y37.6572
G01 X78.43847Y37.87214
G01 X78.41327Y37.91418
G01 X78.3781Y37.98853
G01 X78.35039Y38.06598
G01 X78.33041Y38.14578
G01 X78.31834Y38.22714
G01 X78.3143Y38.3093
G01 X78.3143Y39.9857
G01 X78.31834Y40.06786
G01 X78.33041Y40.14922
G01 X78.35039Y40.22902
G01 X78.3781Y40.30647
G01 X78.41327Y40.38082
G01 X78.45556Y40.45138
G01 X78.50456Y40.51745
G01 X78.5175Y40.53172
G01 X78.5175Y41.10697
G01 X77.61947Y42.005
G01 X75.60553Y42.005
G01 X74.7075Y41.10697
G01 X74.7075Y40.53172
G01 X74.72044Y40.51745
G01 X74.76944Y40.45138
G01 X74.81173Y40.38082
G01 X74.8469Y40.30647
G01 X74.87461Y40.22902
G01 X74.89459Y40.14922
G01 X74.90666Y40.06786
G01 X74.9107Y39.9857
G01 X74.9107Y38.3093
G01 X74.90666Y38.22714
G01 X74.89459Y38.14578
G01 X74.87461Y38.06598
G01 X74.8469Y37.98853
G01 X74.81173Y37.91418
G01 X74.78653Y37.87214
G01 X74.8756Y37.6572
G01 X74.8808Y37.6419
G01 X74.8809Y37.641
G01 X74.8812Y37.6402
G01 X74.8827Y37.6288
G01 X74.883Y37.6278
G01 X74.8832Y37.6249
G01 X74.8852Y37.6105
G01 X74.8851Y37.6095
G01 X74.8852Y37.6086
G01 X74.8852Y34.9692
G01 X74.8848Y34.9632
G01 X74.885Y34.9611
G01 X74.8846Y34.9591
G01 X74.8842Y34.9531
G01 X74.8812Y34.9416
G01 X74.879Y34.9299
G01 X74.8773Y34.9263
G01 X74.8763Y34.9223
G01 X74.8705Y34.9119
G01 X74.8654Y34.9011
G01 X74.8629Y34.898
G01 X74.8609Y34.8945
G01 X74.8528Y34.8858
G01 X74.8452Y34.8766
G01 X74.8419Y34.8743
G01 X74.8391Y34.8713
G01 X74.829Y34.8649
G01 X74.8194Y34.858
G01 X74.8157Y34.8565
G01 X74.8122Y34.8543
G01 X74.8009Y34.8506
G01 X74.7899Y34.8463
G01 X74.7858Y34.8458
G01 X74.782Y34.8445
G01 X74.7701Y34.8438
G01 X74.7583Y34.8423
G01 X70.8761Y34.8423
G01 X70.8733Y34.8425
G01 X70.872Y34.8423
G01 X70.87Y34.8427
G01 X70.86Y34.8433
G01 X70.8504Y34.8458
G01 X70.8406Y34.8473
G01 X70.8351Y34.8497
G01 X70.8292Y34.8512
G01 X70.8205Y34.856
G01 X70.8114Y34.86
G01 X70.8067Y34.8637
G01 X70.8014Y34.8666
G01 X70.7941Y34.8734
G01 X70.7863Y34.8794
G01 X70.5374Y35.1284
G01 X69.9637Y35.4596
G01 X69.3237Y35.6311
G01 X68.6613Y35.6311
G01 X68.0213Y35.4596
G01 X67.4476Y35.1284
G01 X66.9791Y34.6599
G01 X66.6479Y34.0862
G01 X66.4764Y33.4462
G01 X66.4764Y32.7838
G01 X66.6479Y32.1438
G01 X66.9791Y31.5701
G01 X67.4476Y31.1016
G01 X68.0213Y30.7704
G01 X68.6613Y30.5989
G01 X69.3237Y30.5989
G01 X69.9637Y30.7704
G01 X70.5374Y31.1016
G01 X70.7863Y31.3506
G01 X70.7884Y31.3524
G01 X70.7892Y31.3534
G01 X70.7909Y31.3546
G01 X70.7984Y31.3612
G01 X70.8069Y31.3662
G01 X70.8149Y31.372
G01 X70.8206Y31.3743
G01 X70.8258Y31.3773
G01 X70.8353Y31.3801
G01 X70.8445Y31.3837
G01 X70.8505Y31.3845
G01 X70.8563Y31.3862
G01 X70.8662Y31.3865
G01 X70.8761Y31.3877
G01 X74.0598Y31.3877
G01 X74.0658Y31.3873
G01 X74.0679Y31.3875
G01 X74.0699Y31.3871
G01 X74.0759Y31.3867
G01 X74.0874Y31.3837
G01 X74.0991Y31.3815
G01 X74.1027Y31.3798
G01 X74.1067Y31.3788
G01 X74.1171Y31.373
G01 X74.1279Y31.3679
G01 X74.131Y31.3654
G01 X74.1345Y31.3634
G01 X74.1432Y31.3553
G01 X74.1524Y31.3477
G01 X74.1547Y31.3444
G01 X74.1577Y31.3416
G01 X74.1641Y31.3315
G01 X74.171Y31.3219
G01 X74.1725Y31.3182
G01 X74.1747Y31.3147
G01 X74.1784Y31.3034
G01 X74.1827Y31.2924
G01 X74.1832Y31.2883
G01 X74.1845Y31.2845
G01 X74.1852Y31.2726
G01 X74.1867Y31.2608
G01 X74.1867Y30.3334
G01 X74.5077Y29.5586
G01 X74.7338Y29.3325
G01 X74.7356Y29.3304
G01 X74.7366Y29.3296
G01 X74.7378Y29.328
G01 X74.7444Y29.3204
G01 X74.7494Y29.3119
G01 X74.7552Y29.3039
G01 X74.7575Y29.2982
G01 X74.7605Y29.293
G01 X74.7633Y29.2835
G01 X74.7669Y29.2743
G01 X74.7677Y29.2683
G01 X74.7694Y29.2625
G01 X74.7697Y29.2526
G01 X74.7709Y29.2427
G01 X74.7709Y29.0018
G01 X75.003Y28.4417
G01 X75.4495Y27.9951
G01 X77.0192Y26.4255
G01 X77.5793Y26.1934
G01 X83.5832Y26.1934
G01 X84.1433Y26.4255
G01 X84.5899Y26.872
G01 X86.4141Y28.6963
G01 X86.4162Y28.6981
G01 X86.417Y28.6991
G01 X86.4187Y28.7003
G01 X86.4262Y28.7069
G01 X86.4347Y28.7119
G01 X86.4427Y28.7177
G01 X86.4484Y28.72
G01 X86.4536Y28.723
G01 X86.4631Y28.7258
G01 X86.4723Y28.7294
G01 X86.4783Y28.7302
G01 X86.4841Y28.7319
G01 X86.494Y28.7322
G01 X86.5039Y28.7334
G01 X89.25551Y28.7334
G01 X89.25962Y28.7421
G01 X89.3353Y28.86836
G01 X89.42298Y28.98659
G01 X89.52184Y29.09566
G01 X89.63091Y29.19452
G01 X89.74914Y29.2822
G01 X89.8754Y29.35788
G01 X90.00847Y29.42082
G01 X90.14707Y29.47041
G01 X90.28986Y29.50618
G01 X90.43547Y29.52778
G01 X90.5825Y29.535
G01 X90.72953Y29.52778
G01 X90.87514Y29.50618
G01 X91.01793Y29.47041
G01 X91.15653Y29.42082
G01 X91.2896Y29.35788
G01 X91.41586Y29.2822
G01 X91.53409Y29.19452
G01 X91.64316Y29.09566
G01 X91.74202Y28.98659
G01 X91.8297Y28.86836
G01 X91.90538Y28.7421
G01 X91.90949Y28.7334
G01 X92.7561Y28.7334
G01 X92.7589Y28.7332
G01 X92.7602Y28.7334
G01 X92.7622Y28.733
G01 X92.7722Y28.7324
G01 X92.7818Y28.7299
G01 X92.7916Y28.7284
G01 X92.7971Y28.726
G01 X92.803Y28.7245
G01 X92.8117Y28.7197
G01 X92.8208Y28.7157
G01 X92.8255Y28.712
G01 X92.8308Y28.7091
G01 X92.8381Y28.7023
G01 X92.8459Y28.6963
G01 X97.3392Y24.203
G01 X97.7387Y24.0375
G01 X97.7532Y24.0304
G01 X97.7587Y24.0262
G01 X97.7649Y24.0228
G01 X97.7714Y24.0167
G01 X97.7786Y24.0112
G01 X97.7829Y24.0058
G01 X97.788Y24.001
G01 X97.7928Y23.9934
G01 X97.7984Y23.9864
G01 X97.8013Y23.98
G01 X97.805Y23.9741
G01 X97.8078Y23.9656
G01 X97.8115Y23.9574
G01 X97.8127Y23.9505
G01 X97.8148Y23.9439
G01 X97.8154Y23.9349
G01 X97.8169Y23.9261
G01 X97.8164Y23.9191
G01 X97.8168Y23.9121
G01 X97.8151Y23.9033
G01 X97.8144Y23.8944
G01 X97.8121Y23.8878
G01 X97.8108Y23.8809
G01 X97.807Y23.8728
G01 X97.8041Y23.8643
G01 X97.8003Y23.8585
G01 X97.7973Y23.8521
G01 X97.7916Y23.8452
G01 X97.7866Y23.8377
G01 X97.7815Y23.833
G01 X97.777Y23.8276
G01 X97.7697Y23.8224
G01 X97.7631Y23.8163
G01 X97.7569Y23.8131
G01 X97.7513Y23.809
G01 X97.7429Y23.8057
G01 X97.735Y23.8015
G01 X97.7282Y23.7998
G01 X97.7217Y23.7973
G01 X97.7128Y23.7961
G01 X97.704Y23.794
G01 X97.6971Y23.7941
G01 X97.6901Y23.7933
G01 X97.6467Y23.7933
G01 X96.4117Y22.5583
G01 X96.4117Y20.8117
G01 X97.6467Y19.5767
G01 X99.3933Y19.5767
G01 X100.6283Y20.8117
G01 X100.6283Y22.5583
G01 X99.4323Y23.7543
G01 X99.4257Y23.7618
G01 X99.4242Y23.7632
G01 X99.4235Y23.7642
G01 X99.4217Y23.7663
G01 X99.4146Y23.7783
G01 X99.4072Y23.7901
G01 X99.4065Y23.792
G01 X99.4055Y23.7937
G01 X99.4016Y23.8071
G01 X99.3973Y23.8203
G01 X99.3972Y23.8223
G01 X99.3967Y23.8243
G01 X99.3962Y23.8382
G01 X99.3954Y23.8521
G01 X99.3958Y23.854
G01 X99.3957Y23.8561
G01 X99.3987Y23.8697
G01 X99.4014Y23.8833
G01 X99.4022Y23.8851
G01 X99.4027Y23.8871
G01 X99.409Y23.8995
G01 X99.4149Y23.9121
G01 X99.4162Y23.9136
G01 X99.4171Y23.9154
G01 X99.4263Y23.9258
G01 X99.4352Y23.9366
G01 X99.4368Y23.9377
G01 X99.4382Y23.9393
G01 X99.4497Y23.9471
G01 X99.4609Y23.9552
G01 X99.4628Y23.956
G01 X99.4645Y23.9571
G01 X99.4776Y23.9618
G01 X99.4905Y23.9669
G01 X99.4925Y23.9672
G01 X99.4944Y23.9679
G01 X99.5083Y23.9692
G01 X99.522Y23.9709
G01 X101.6461Y23.9709
G01 X101.6489Y23.9707
G01 X101.6502Y23.9709
G01 X101.6522Y23.9705
G01 X101.6622Y23.9699
G01 X101.6718Y23.9674
G01 X101.6816Y23.9659
G01 X101.6871Y23.9635
G01 X101.693Y23.962
G01 X101.7017Y23.9572
G01 X101.7108Y23.9532
G01 X101.7155Y23.9495
G01 X101.7208Y23.9466
G01 X101.7281Y23.9398
G01 X101.7359Y23.9338
G01 X102.0388Y23.6309
G01 X102.0406Y23.6288
G01 X102.0416Y23.628
G01 X102.0428Y23.6263
G01 X102.0494Y23.6188
G01 X102.0544Y23.6103
G01 X102.0602Y23.6023
G01 X102.0625Y23.5966
G01 X102.0655Y23.5914
G01 X102.0683Y23.5819
G01 X102.0719Y23.5727
G01 X102.0727Y23.5667
G01 X102.0744Y23.5609
G01 X102.0747Y23.551
G01 X102.0759Y23.5411
G01 X102.0759Y23.195
G01 X102.0757Y23.1922
G01 X102.0759Y23.191
G01 X102.0755Y23.189
G01 X102.0749Y23.179
G01 X102.0724Y23.1694
G01 X102.0709Y23.1596
G01 X102.0685Y23.154
G01 X102.067Y23.1482
G01 X102.0622Y23.1395
G01 X102.0582Y23.1304
G01 X102.0545Y23.1256
G01 X102.0516Y23.1203
G01 X102.0448Y23.1131
G01 X102.0388Y23.1053
G01 X101.4917Y22.5583
G01 X101.4917Y20.8117
G01 X102.7267Y19.5767
G01 X104.4733Y19.5767
G01 X105.7083Y20.8117
G01 X105.7083Y22.5583
G01 X105.1612Y23.1053
G01 X105.1594Y23.1074
G01 X105.1584Y23.1082
G01 X105.1572Y23.1098
G01 X105.1506Y23.1174
G01 X105.1456Y23.1259
G01 X105.1398Y23.1339
G01 X105.1375Y23.1396
G01 X105.1345Y23.1448
G01 X105.1317Y23.1543
G01 X105.1281Y23.1635
G01 X105.1273Y23.1695
G01 X105.1256Y23.1753
G01 X105.1253Y23.1852
G01 X105.1241Y23.195
G01 X105.1241Y24.5282
G01 X104.892Y25.0883
G01 X103.1933Y26.787
G01 X102.6332Y27.0191
G01 X98.8864Y27.0191
G01 X98.8836Y27.0193
G01 X98.8823Y27.0191
G01 X98.8803Y27.0195
G01 X98.8703Y27.0201
G01 X98.8607Y27.0226
G01 X98.8509Y27.0241
G01 X98.8454Y27.0265
G01 X98.8395Y27.028
G01 X98.8308Y27.0328
G01 X98.8217Y27.0368
G01 X98.817Y27.0405
G01 X98.8117Y27.0434
G01 X98.8044Y27.0502
G01 X98.7966Y27.0562
G01 X94.3033Y31.5495
G01 X93.7432Y31.7816
G01 X92.9378Y31.7816
G01 X92.9293Y31.7821
G01 X92.9271Y31.782
G01 X92.9255Y31.7824
G01 X92.9217Y31.7826
G01 X92.9089Y31.7859
G01 X92.896Y31.7887
G01 X92.8935Y31.7899
G01 X92.8909Y31.7905
G01 X92.8794Y31.7969
G01 X92.8675Y31.8028
G01 X92.8654Y31.8046
G01 X92.8631Y31.8059
G01 X92.8534Y31.815
G01 X92.8434Y31.8236
G01 X92.8419Y31.8258
G01 X92.8399Y31.8277
G01 X92.8328Y31.8389
G01 X92.8253Y31.8497
G01 X92.8244Y31.8523
G01 X92.8229Y31.8546
G01 X92.8188Y31.8671
G01 X92.8142Y31.8796
G01 X92.8139Y31.8822
G01 X92.8131Y31.8848
G01 X92.8123Y31.898
G01 X92.8109Y31.9112
G01 X92.8113Y31.9139
G01 X92.8111Y31.9165
G01 X92.8136Y31.9295
G01 X92.8156Y31.9426
G01 X92.8166Y31.9451
G01 X92.8171Y31.9478
G01 X92.8227Y31.9597
G01 X92.8279Y31.972
G01 X92.9271Y32.1438
G01 X93.0986Y32.7838
G01 X93.0986Y33.4462
G01 X92.9579Y33.9712
G01 X92.9565Y33.9783
G01 X92.9558Y33.9803
G01 X92.9557Y33.9821
G01 X92.9548Y33.9869
G01 X92.9546Y33.9995
G01 X92.9539Y34.0121
G01 X92.9545Y34.0154
G01 X92.9545Y34.0187
G01 X92.9575Y34.031
G01 X92.9598Y34.0433
G01 X92.9613Y34.0463
G01 X92.9621Y34.0496
G01 X92.968Y34.0607
G01 X92.9734Y34.0721
G01 X92.9755Y34.0747
G01 X92.9771Y34.0776
G01 X92.9857Y34.0869
G01 X92.9937Y34.0966
G01 X92.9964Y34.0985
G01 X92.9987Y34.101
G01 X93.0092Y34.1079
G01 X93.0194Y34.1152
G01 X93.0225Y34.1165
G01 X93.0254Y34.1183
G01 X93.0373Y34.1223
G01 X93.049Y34.1269
G01 X93.0523Y34.1274
G01 X93.0555Y34.1284
G01 X93.0681Y34.1294
G01 X93.0805Y34.1309
G01 X95.2961Y34.1309
G01 X95.2989Y34.1307
G01 X95.3002Y34.1309
G01 X95.3022Y34.1305
G01 X95.3122Y34.1299
G01 X95.3218Y34.1274
G01 X95.3316Y34.1259
G01 X95.3371Y34.1235
G01 X95.343Y34.122
G01 X95.3517Y34.1172
G01 X95.3608Y34.1132
G01 X95.3655Y34.1095
G01 X95.3708Y34.1066
G01 X95.3781Y34.0998
G01 X95.3859Y34.0938
G01 X96.557Y32.9226
G01 X96.5676Y32.9105
G01 X96.5692Y32.908
G01 X96.5711Y32.9058
G01 X96.5772Y32.8943
G01 X96.5838Y32.8831
G01 X96.5846Y32.8803
G01 X96.586Y32.8777
G01 X96.589Y32.8651
G01 X96.5926Y32.8526
G01 X96.5927Y32.8496
G01 X96.5934Y32.8468
G01 X96.5932Y32.8338
G01 X96.5936Y32.8208
G01 X96.593Y32.8179
G01 X96.5929Y32.815
G01 X96.5895Y32.8025
G01 X96.5866Y32.7898
G01 X96.5853Y32.7871
G01 X96.5845Y32.7843
G01 X96.3482Y32.2138
G01 X96.3482Y31.4762
G01 X96.6305Y30.7946
G01 X97.1521Y30.273
G01 X97.76532Y30.01902
G01 X97.80738Y30.04423
G01 X97.88173Y30.0794
G01 X97.95918Y30.10711
G01 X98.03898Y30.12709
G01 X98.12034Y30.13916
G01 X98.2025Y30.1432
G01 X98.28466Y30.13916
G01 X98.36602Y30.12709
G01 X98.44582Y30.10711
G01 X98.52327Y30.0794
G01 X98.59762Y30.04423
G01 X98.63968Y30.01902
G01 X99.2529Y30.273
G01 X99.2636Y30.2837
G01 X99.2657Y30.2856
G01 X99.2665Y30.2866
G01 X99.2682Y30.2878
G01 X99.2757Y30.2944
G01 X99.2842Y30.2994
G01 X99.2922Y30.3052
G01 X99.2978Y30.3075
G01 X99.3031Y30.3105
G01 X99.3126Y30.3133
G01 X99.3218Y30.3169
G01 X99.3278Y30.3177
G01 X99.3336Y30.3194
G01 X99.3435Y30.3197
G01 X99.3533Y30.3209
G01 X100.0586Y30.3209
G01 X100.0614Y30.3207
G01 X100.0627Y30.3209
G01 X100.0647Y30.3205
G01 X100.0747Y30.3199
G01 X100.0843Y30.3174
G01 X100.0941Y30.3159
G01 X100.0996Y30.3135
G01 X100.1055Y30.312
G01 X100.1142Y30.3072
G01 X100.1233Y30.3032
G01 X100.128Y30.2995
G01 X100.1333Y30.2966
G01 X100.1406Y30.2898
G01 X100.1484Y30.2838
G01 X101.1492Y29.283
G01 X101.7093Y29.0509
G01 X103.5396Y29.0509
G01 X103.5424Y29.0507
G01 X103.5436Y29.0509
G01 X103.5456Y29.0505
G01 X103.5556Y29.0499
G01 X103.5652Y29.0474
G01 X103.575Y29.0459
G01 X103.5806Y29.0435
G01 X103.5864Y29.042
G01 X103.5951Y29.0372
G01 X103.6042Y29.0332
G01 X103.609Y29.0295
G01 X103.6143Y29.0266
G01 X103.6215Y29.0198
G01 X103.6293Y29.0138
G01 X103.7477Y28.8954
G01 X104.18466Y28.71436
G01 X104.1875Y28.7175
G01 X104.25768Y28.78111
G01 X104.33376Y28.83753
G01 X104.41501Y28.88623
G01 X104.50063Y28.92673
G01 X104.58982Y28.95864
G01 X104.6817Y28.98165
G01 X104.77539Y28.99555
G01 X104.87Y29.0002
G01 X104.96461Y28.99555
G01 X105.0583Y28.98165
G01 X105.15018Y28.95864
G01 X105.23937Y28.92673
G01 X105.32499Y28.88623
G01 X105.40624Y28.83753
G01 X105.48232Y28.78111
G01 X105.5525Y28.7175
G01 X105.55534Y28.71436
G01 X105.9923Y28.8954
G01 X106.5496Y29.4527
G01 X106.8513Y30.1809
G01 X106.8513Y30.9691
G01 X106.5496Y31.6973
G01 X106.4917Y31.7553
G01 X106.4877Y31.7598
G01 X106.4862Y31.7611
G01 X106.485Y31.7628
G01 X106.4811Y31.7673
G01 X106.475Y31.7776
G01 X106.4683Y31.7874
G01 X106.467Y31.7912
G01 X106.4649Y31.7947
G01 X106.4616Y31.8062
G01 X106.4576Y31.8174
G01 X106.4572Y31.8214
G01 X106.4561Y31.8253
G01 X106.4557Y31.8372
G01 X106.4546Y31.849
G01 X106.4552Y31.853
G01 X106.4551Y31.8571
G01 X106.4577Y31.8687
G01 X106.4596Y31.8804
G01 X106.4612Y31.8842
G01 X106.4621Y31.8881
G01 X106.4675Y31.8987
G01 X106.4722Y31.9096
G01 X106.4747Y31.9128
G01 X106.4765Y31.9164
G01 X106.4844Y31.9254
G01 X106.4917Y31.9348
G01 X106.5496Y31.9927
G01 X106.8522Y32.7231
G01 X106.8523Y32.7248
G01 X106.8548Y32.7344
G01 X106.8563Y32.7442
G01 X106.8587Y32.7497
G01 X106.8602Y32.7556
G01 X106.865Y32.7643
G01 X106.869Y32.7734
G01 X106.8727Y32.7781
G01 X106.8756Y32.7834
G01 X106.8824Y32.7907
G01 X106.8884Y32.7985
G01 X107.4217Y33.3318
G01 X107.4238Y33.3336
G01 X107.4246Y33.3346
G01 X107.4263Y33.3358
G01 X107.4338Y33.3424
G01 X107.4423Y33.3474
G01 X107.4503Y33.3532
G01 X107.456Y33.3555
G01 X107.4612Y33.3585
G01 X107.4707Y33.3613
G01 X107.4799Y33.3649
G01 X107.4859Y33.3657
G01 X107.4917Y33.3674
G01 X107.5017Y33.3677
G01 X107.5115Y33.3689
G01 X109.95Y33.3689
G01 X109.956Y33.3685
G01 X109.9581Y33.3687
G01 X109.9601Y33.3683
G01 X109.9661Y33.3679
G01 X109.9776Y33.3649
G01 X109.9893Y33.3627
G01 X109.9929Y33.361
G01 X109.9969Y33.36
G01 X110.0073Y33.3542
G01 X110.0181Y33.3491
G01 X110.0212Y33.3466
G01 X110.0247Y33.3446
G01 X110.0334Y33.3365
G01 X110.0426Y33.3289
G01 X110.0449Y33.3256
G01 X110.0479Y33.3228
G01 X110.0543Y33.3127
G01 X110.05947Y33.3055
G01 X114.0775Y33.3055
G01 X114.12729Y33.30305
G01 X114.17661Y33.29574
G01 X114.22496Y33.28363
G01 X114.2719Y33.26683
G01 X114.31697Y33.24552
G01 X114.35973Y33.21989
G01 X114.39977Y33.19019
G01 X114.43671Y33.15671
G01 X115.24042Y32.353
G01 X115.48054Y32.353
G01 X115.49747Y32.38124
G01 X115.55389Y32.45732
G01 X115.6175Y32.5275
G01 X115.68768Y32.59111
G01 X115.76376Y32.64753
G01 X115.84501Y32.69623
G01 X115.93063Y32.73673
G01 X116.01982Y32.76864
G01 X116.1117Y32.79165
G01 X116.20539Y32.80555
G01 X116.3Y32.8102
G01 X116.39461Y32.80555
G01 X116.4883Y32.79165
G01 X116.58018Y32.76864
G01 X116.66937Y32.73673
G01 X116.75499Y32.69623
G01 X116.83624Y32.64753
G01 X116.91232Y32.59111
G01 X116.9825Y32.5275
G01 X117.04611Y32.45732
G01 X117.10253Y32.38124
G01 X117.15123Y32.29999
G01 X117.19173Y32.21437
G01 X117.22364Y32.12518
G01 X117.24665Y32.0333
G01 X117.26055Y31.93961
G01 X117.2652Y31.845
G01 X117.26055Y31.75039
G01 X117.24665Y31.6567
G01 X117.22364Y31.56482
G01 X117.19173Y31.47563
G01 X117.15123Y31.39001
G01 X117.10253Y31.30876
G01 X117.04611Y31.23268
G01 X116.9825Y31.1625
G01 X116.91232Y31.09889
G01 X116.83624Y31.04247
G01 X116.75499Y30.99377
G01 X116.66937Y30.95327
G01 X116.58018Y30.92136
G01 X116.4883Y30.89835
G01 X116.39461Y30.88445
G01 X116.3Y30.8798
G01 X116.20539Y30.88445
G01 X116.1117Y30.89835
G01 X116.01982Y30.92136
G01 X115.93063Y30.95327
G01 X115.84501Y30.99377
G01 X115.76376Y31.04247
G01 X115.68768Y31.09889
G01 X115.6175Y31.1625
G01 X115.55389Y31.23268
G01 X115.49747Y31.30876
G01 X115.48054Y31.337
G01 X115.03Y31.337
G01 X114.98021Y31.33945
G01 X114.93089Y31.34676
G01 X114.88254Y31.35887
G01 X114.8356Y31.37567
G01 X114.79053Y31.39698
G01 X114.74777Y31.42261
G01 X114.70773Y31.45231
G01 X114.67079Y31.48579
G01 X113.86708Y32.2895
G01 X110.0769Y32.2895
G01 X110.0769Y29.4955
G01 X117.04208Y29.4955
G01 X119.602Y32.05542
G01 X119.602Y36.07958
G01 X118.31208Y37.3695
G01 X112.67446Y37.3695
G01 X112.65753Y37.34126
G01 X112.60111Y37.26518
G01 X112.5375Y37.195
G01 X112.46732Y37.13139
G01 X112.39124Y37.07497
G01 X112.30999Y37.02627
G01 X112.22437Y36.98577
G01 X112.13518Y36.95386
G01 X112.0433Y36.93085
G01 X111.94961Y36.91695
G01 X111.855Y36.9123
G01 X111.76039Y36.91695
G01 X111.6667Y36.93085
G01 X111.57482Y36.95386
G01 X111.48563Y36.98577
G01 X111.40001Y37.02627
G01 X111.31876Y37.07497
G01 X111.24268Y37.13139
G01 X111.1725Y37.195
G01 X111.10889Y37.26518
G01 X111.05247Y37.34126
G01 X111.00377Y37.42251
G01 X110.96327Y37.50813
G01 X110.93136Y37.59732
G01 X110.90835Y37.6892
G01 X110.89445Y37.78289
G01 X110.8898Y37.8775
G01 X110.89445Y37.97211
G01 X110.90835Y38.0658
G01 X110.93136Y38.15768
G01 X110.96327Y38.24687
G01 X111.00377Y38.33249
G01 X111.05247Y38.41374
G01 X111.10889Y38.48982
G01 X111.1725Y38.56
G01 X111.24268Y38.62361
G01 X111.31876Y38.68003
G01 X111.40001Y38.72873
G01 X111.48563Y38.76923
G01 X111.57482Y38.80114
G01 X111.6667Y38.82415
G01 X111.76039Y38.83805
G01 X111.855Y38.8427
G01 X111.94961Y38.83805
G01 X112.0433Y38.82415
G01 X112.13518Y38.80114
G01 X112.22437Y38.76923
G01 X112.30999Y38.72873
G01 X112.39124Y38.68003
G01 X112.46732Y38.62361
G01 X112.5375Y38.56
G01 X112.60111Y38.48982
G01 X112.65753Y38.41374
G01 X112.67446Y38.3855
G01 X118.5225Y38.3855
G01 X118.57229Y38.38305
G01 X118.62161Y38.37574
G01 X118.66996Y38.36363
G01 X118.7169Y38.34683
G01 X118.76197Y38.32552
G01 X118.80473Y38.29989
G01 X118.84477Y38.27019
G01 X118.88171Y38.23671
G01 X120.46921Y36.64921
G01 X120.50269Y36.61227
G01 X120.53239Y36.57223
G01 X120.55802Y36.52947
G01 X120.57933Y36.4844
G01 X120.59613Y36.43746
G01 X120.60824Y36.38911
G01 X120.61555Y36.33979
G01 X120.618Y36.29
G01 X120.618Y31.845
G01 X120.61555Y31.79521
G01 X120.60824Y31.74589
G01 X120.59613Y31.69754
G01 X120.57933Y31.6506
G01 X120.55802Y31.60553
G01 X120.53239Y31.56277
G01 X120.50269Y31.52273
G01 X120.46921Y31.48579
G01 X117.61171Y28.62829
G01 X117.57477Y28.59481
G01 X117.53473Y28.56511
G01 X117.49197Y28.53948
G01 X117.4469Y28.51817
G01 X117.39996Y28.50137
G01 X117.35161Y28.48926
G01 X117.30229Y28.48195
G01 X117.2525Y28.4795
G01 X110.0769Y28.4795
G01 X110.0769Y4.8575
G01 X110.0765Y4.8515
G01 X110.0767Y4.8495
G01 X110.0763Y4.8475
G01 X110.0759Y4.8414
G01 X110.0729Y4.8299
G01 X110.0707Y4.8182
G01 X110.069Y4.8146
G01 X110.068Y4.8106
G01 X110.0622Y4.8002
G01 X110.0571Y4.7894
G01 X110.0546Y4.7863
G01 X110.0526Y4.7828
G01 X110.0445Y4.7741
G01 X110.0369Y4.7649
G01 X110.0336Y4.7626
G01 X110.0308Y4.7596
G01 X110.0207Y4.7533
G01 X110.0111Y4.7463
G01 X110.0074Y4.7448
G01 X110.0039Y4.7426
G01 X109.9926Y4.7389
G01 X109.9816Y4.7346
G01 X109.9775Y4.7341
G01 X109.9737Y4.7328
G01 X109.9618Y4.7321
G01 X109.95Y4.7306
G01 X81.8049Y4.7306
G01 X81.7948Y4.7312
G01 X81.7928Y4.7312
G01 X81.7916Y4.7314
G01 X81.7888Y4.7316
G01 X81.7754Y4.7351
G01 X81.7618Y4.7381
G01 X81.76Y4.739
G01 X81.758Y4.7395
G01 X81.7458Y4.7463
G01 X81.7334Y4.7526
G01 X81.7319Y4.7539
G01 X81.7302Y4.7549
G01 X81.72Y4.7644
G01 X81.7096Y4.7736
G01 X81.7085Y4.7753
G01 X81.707Y4.7767
G01 X81.6996Y4.7884
G01 X81.6917Y4.7999
G01 X81.6911Y4.8018
G01 X81.69Y4.8036
G01 X81.6857Y4.8167
G01 X81.681Y4.8299
G01 X81.6808Y4.8319
G01 X81.6802Y4.8338
G01 X81.6793Y4.8476
G01 X81.678Y4.8615
G01 X81.6783Y4.8635
G01 X81.6782Y4.8656
G01 X81.6808Y4.8791
G01 X81.683Y4.8929
G01 X81.6838Y4.8948
G01 X81.6842Y4.8968
G01 X81.6901Y4.9093
G01 X81.6956Y4.9221
G01 X81.6969Y4.9237
G01 X81.6977Y4.9256
G01 X81.7066Y4.9363
G01 X81.7151Y4.9473
G01 X85.4616Y8.6938
G01 X85.4637Y8.6956
G01 X85.4645Y8.6966
G01 X85.4662Y8.6978
G01 X85.4737Y8.7044
G01 X85.4822Y8.7094
G01 X85.4902Y8.7152
G01 X85.4959Y8.7175
G01 X85.5011Y8.7205
G01 X85.5106Y8.7233
G01 X85.5198Y8.7269
G01 X85.5258Y8.7277
G01 X85.5316Y8.7294
G01 X85.5415Y8.7297
G01 X85.5514Y8.7309
G01 X101.9982Y8.7309
G01 X102.5583Y8.963
G01 X104.892Y11.2967
G01 X105.1241Y11.8568
G01 X105.1241Y12.555
G01 X105.1243Y12.5578
G01 X105.1241Y12.559
G01 X105.1245Y12.561
G01 X105.1251Y12.571
G01 X105.1276Y12.5806
G01 X105.1291Y12.5904
G01 X105.1315Y12.596
G01 X105.133Y12.6018
G01 X105.1378Y12.6105
G01 X105.1418Y12.6196
G01 X105.1455Y12.6244
G01 X105.1484Y12.6297
G01 X105.1552Y12.6369
G01 X105.1612Y12.6447
G01 X105.7083Y13.1917
G01 X105.7083Y14.9383
G01 X104.4733Y16.1733
G01 X102.7267Y16.1733
G01 X101.4917Y14.9383
G01 X101.4917Y13.1917
G01 X101.8943Y12.7892
G01 X101.8983Y12.7846
G01 X101.8998Y12.7833
G01 X101.901Y12.7816
G01 X101.9049Y12.7771
G01 X101.911Y12.7668
G01 X101.9177Y12.757
G01 X101.919Y12.7532
G01 X101.9211Y12.7497
G01 X101.9244Y12.7383
G01 X101.9284Y12.727
G01 X101.9288Y12.723
G01 X101.9299Y12.7191
G01 X101.9303Y12.7072
G01 X101.9314Y12.6954
G01 X101.9308Y12.6914
G01 X101.9309Y12.6873
G01 X101.9283Y12.6758
G01 X101.9264Y12.664
G01 X101.9248Y12.6603
G01 X101.9239Y12.6563
G01 X101.9185Y12.6457
G01 X101.9138Y12.6348
G01 X101.9113Y12.6316
G01 X101.9095Y12.628
G01 X101.9016Y12.6191
G01 X101.8943Y12.6097
G01 X101.1009Y11.8162
G01 X101.0988Y11.8144
G01 X101.098Y11.8134
G01 X101.0963Y11.8122
G01 X101.0888Y11.8056
G01 X101.0803Y11.8006
G01 X101.0723Y11.7948
G01 X101.0666Y11.7925
G01 X101.0614Y11.7895
G01 X101.0519Y11.7867
G01 X101.0427Y11.7831
G01 X101.0367Y11.7823
G01 X101.0309Y11.7806
G01 X101.021Y11.7803
G01 X101.0111Y11.7791
G01 X99.522Y11.7791
G01 X99.512Y11.7797
G01 X99.51Y11.7796
G01 X99.5088Y11.7799
G01 X99.506Y11.7801
G01 X99.4925Y11.7836
G01 X99.4789Y11.7866
G01 X99.4771Y11.7875
G01 X99.4752Y11.788
G01 X99.463Y11.7947
G01 X99.4506Y11.8011
G01 X99.4491Y11.8024
G01 X99.4473Y11.8034
G01 X99.4372Y11.8129
G01 X99.4268Y11.8221
G01 X99.4256Y11.8238
G01 X99.4242Y11.8252
G01 X99.4167Y11.8369
G01 X99.4089Y11.8484
G01 X99.4082Y11.8503
G01 X99.4072Y11.8521
G01 X99.4029Y11.8652
G01 X99.3982Y11.8784
G01 X99.398Y11.8804
G01 X99.3973Y11.8823
G01 X99.3965Y11.8961
G01 X99.3952Y11.91
G01 X99.3955Y11.912
G01 X99.3954Y11.914
G01 X99.398Y11.9276
G01 X99.4002Y11.9414
G01 X99.401Y11.9433
G01 X99.4014Y11.9453
G01 X99.4073Y11.9578
G01 X99.4128Y11.9706
G01 X99.414Y11.9722
G01 X99.4149Y11.9741
G01 X99.4238Y11.9848
G01 X99.4323Y11.9957
G01 X100.6283Y13.1917
G01 X100.6283Y14.9383
G01 X99.3933Y16.1733
G01 X97.6467Y16.1733
G01 X96.4117Y14.9383
G01 X96.4117Y13.1917
G01 X97.6077Y11.9957
G01 X97.6143Y11.9882
G01 X97.6158Y11.9868
G01 X97.6165Y11.9858
G01 X97.6183Y11.9837
G01 X97.6254Y11.9717
G01 X97.6328Y11.9599
G01 X97.6335Y11.958
G01 X97.6345Y11.9563
G01 X97.6384Y11.9429
G01 X97.6427Y11.9297
G01 X97.6428Y11.9277
G01 X97.6433Y11.9257
G01 X97.6438Y11.9118
G01 X97.6446Y11.8979
G01 X97.6442Y11.896
G01 X97.6443Y11.8939
G01 X97.6413Y11.8803
G01 X97.6386Y11.8667
G01 X97.6378Y11.8649
G01 X97.6373Y11.8629
G01 X97.631Y11.8505
G01 X97.6251Y11.8379
G01 X97.6238Y11.8364
G01 X97.6229Y11.8346
G01 X97.6137Y11.8242
G01 X97.6048Y11.8134
G01 X97.6032Y11.8123
G01 X97.6018Y11.8107
G01 X97.5903Y11.8029
G01 X97.5791Y11.7948
G01 X97.5772Y11.794
G01 X97.5755Y11.7929
G01 X97.5624Y11.7882
G01 X97.5495Y11.7831
G01 X97.5475Y11.7828
G01 X97.5456Y11.7821
G01 X97.5317Y11.7808
G01 X97.518Y11.7791
G01 X94.442Y11.7791
G01 X94.432Y11.7797
G01 X94.43Y11.7796
G01 X94.4288Y11.7799
G01 X94.426Y11.7801
G01 X94.4125Y11.7836
G01 X94.3989Y11.7866
G01 X94.3971Y11.7875
G01 X94.3952Y11.788
G01 X94.383Y11.7947
G01 X94.3706Y11.8011
G01 X94.3691Y11.8024
G01 X94.3673Y11.8034
G01 X94.3572Y11.8129
G01 X94.3468Y11.8221
G01 X94.3456Y11.8238
G01 X94.3442Y11.8252
G01 X94.3367Y11.8369
G01 X94.3289Y11.8484
G01 X94.3282Y11.8503
G01 X94.3272Y11.8521
G01 X94.3229Y11.8652
G01 X94.3182Y11.8784
G01 X94.318Y11.8804
G01 X94.3173Y11.8823
G01 X94.3165Y11.8961
G01 X94.3152Y11.91
G01 X94.3155Y11.912
G01 X94.3154Y11.914
G01 X94.318Y11.9276
G01 X94.3202Y11.9414
G01 X94.321Y11.9433
G01 X94.3214Y11.9453
G01 X94.3273Y11.9578
G01 X94.3328Y11.9706
G01 X94.334Y11.9722
G01 X94.3349Y11.9741
G01 X94.3438Y11.9848
G01 X94.3523Y11.9957
G01 X95.5483Y13.1917
G01 X95.5483Y14.9383
G01 X95.1282Y15.3583
G01 X95.1264Y15.3604
G01 X95.1254Y15.3612
G01 X95.1242Y15.3628
G01 X95.1176Y15.3704
G01 X95.1126Y15.3789
G01 X95.1068Y15.3869
G01 X95.1045Y15.3926
G01 X95.1015Y15.3978
G01 X95.0987Y15.4073
G01 X95.0951Y15.4165
G01 X95.0943Y15.4225
G01 X95.0926Y15.4283
G01 X95.0923Y15.4382
G01 X95.0911Y15.448
G01 X95.0911Y20.302
G01 X95.0913Y20.3048
G01 X95.0911Y20.306
G01 X95.0915Y20.308
G01 X95.0921Y20.318
G01 X95.0946Y20.3276
G01 X95.0961Y20.3374
G01 X95.0985Y20.343
G01 X95.1Y20.3488
G01 X95.1048Y20.3575
G01 X95.1088Y20.3666
G01 X95.1125Y20.3714
G01 X95.1154Y20.3767
G01 X95.1222Y20.3839
G01 X95.1282Y20.3917
G01 X95.5483Y20.8117
G01 X95.5483Y22.5583
G01 X94.3133Y23.7933
G01 X92.5667Y23.7933
G01 X91.3317Y22.5583
G01 X91.3317Y20.8117
G01 X91.7518Y20.3917
G01 X91.7536Y20.3896
G01 X91.7546Y20.3888
G01 X91.7558Y20.3872
G01 X91.7624Y20.3796
G01 X91.7674Y20.3711
G01 X91.7732Y20.3631
G01 X91.7755Y20.3574
G01 X91.7785Y20.3522
G01 X91.7813Y20.3427
G01 X91.7849Y20.3335
G01 X91.7857Y20.3275
G01 X91.7874Y20.3217
G01 X91.7877Y20.3118
G01 X91.7889Y20.302
G01 X91.7889Y15.843
G01 X91.7885Y15.837
G01 X91.7887Y15.8349
G01 X91.7883Y15.8329
G01 X91.7879Y15.8269
G01 X91.7849Y15.8154
G01 X91.7827Y15.8037
G01 X91.781Y15.8001
G01 X91.78Y15.7961
G01 X91.7742Y15.7857
G01 X91.7691Y15.7749
G01 X91.7666Y15.7718
G01 X91.7646Y15.7683
G01 X91.7565Y15.7596
G01 X91.7489Y15.7504
G01 X91.7456Y15.7481
G01 X91.7428Y15.7451
G01 X91.7327Y15.7387
G01 X91.7231Y15.7318
G01 X91.7194Y15.7303
G01 X91.7159Y15.7281
G01 X91.7046Y15.7244
G01 X91.6936Y15.7201
G01 X91.6895Y15.7196
G01 X91.6857Y15.7183
G01 X91.6738Y15.7176
G01 X91.662Y15.7161
G01 X87.203Y15.7161
G01 X87.2002Y15.7163
G01 X87.199Y15.7161
G01 X87.197Y15.7165
G01 X87.187Y15.7171
G01 X87.1774Y15.7196
G01 X87.1676Y15.7211
G01 X87.162Y15.7235
G01 X87.1562Y15.725
G01 X87.1475Y15.7298
G01 X87.1384Y15.7338
G01 X87.1336Y15.7375
G01 X87.1283Y15.7404
G01 X87.1211Y15.7472
G01 X87.1133Y15.7532
G01 X86.6933Y16.1733
G01 X84.9467Y16.1733
G01 X84.5267Y15.7532
G01 X84.5246Y15.7514
G01 X84.5238Y15.7504
G01 X84.5222Y15.7492
G01 X84.5146Y15.7426
G01 X84.5061Y15.7376
G01 X84.4981Y15.7318
G01 X84.4924Y15.7295
G01 X84.4872Y15.7265
G01 X84.4777Y15.7237
G01 X84.4685Y15.7201
G01 X84.4625Y15.7193
G01 X84.4567Y15.7176
G01 X84.4468Y15.7173
G01 X84.437Y15.7161
G01 X83.2134Y15.7161
G01 X83.2106Y15.7163
G01 X83.2094Y15.7161
G01 X83.2074Y15.7165
G01 X83.1974Y15.7171
G01 X83.1878Y15.7196
G01 X83.178Y15.7211
G01 X83.1724Y15.7235
G01 X83.1666Y15.725
G01 X83.1579Y15.7298
G01 X83.1488Y15.7338
G01 X83.144Y15.7375
G01 X83.1387Y15.7404
G01 X83.1357Y15.7432
G01 X82.4041Y16.0463
G01 X81.6159Y16.0463
G01 X80.8877Y15.7446
G01 X80.3304Y15.1873
G01 X80.0287Y14.4591
G01 X80.0287Y13.6709
G01 X80.3304Y12.9427
G01 X80.4488Y12.8243
G01 X80.4506Y12.8222
G01 X80.4516Y12.8214
G01 X80.4528Y12.8198
G01 X80.4594Y12.8122
G01 X80.4644Y12.8037
G01 X80.4702Y12.7957
G01 X80.4725Y12.7901
G01 X80.4755Y12.7848
G01 X80.4783Y12.7753
G01 X80.4819Y12.7661
G01 X80.4827Y12.7601
G01 X80.4844Y12.7543
G01 X80.4847Y12.7444
G01 X80.4859Y12.7346
G01 X80.4859Y10.9389
G01 X80.4857Y10.9361
G01 X80.4859Y10.9348
G01 X80.4855Y10.9328
G01 X80.4849Y10.9228
G01 X80.4824Y10.9132
G01 X80.4809Y10.9034
G01 X80.4785Y10.8979
G01 X80.477Y10.892
G01 X80.4722Y10.8833
G01 X80.4682Y10.8742
G01 X80.4645Y10.8695
G01 X80.4616Y10.8642
G01 X80.4548Y10.8569
G01 X80.4488Y10.8491
G01 X77.2884Y7.6887
G01 X77.2863Y7.6869
G01 X77.2855Y7.6859
G01 X77.2838Y7.6847
G01 X77.2763Y7.6781
G01 X77.2678Y7.6731
G01 X77.2598Y7.6673
G01 X77.2541Y7.665
G01 X77.2489Y7.662
G01 X77.2394Y7.6592
G01 X77.2302Y7.6556
G01 X77.2242Y7.6548
G01 X77.2184Y7.6531
G01 X77.2085Y7.6528
G01 X77.1986Y7.6516
G01 X40.7839Y7.6516
G01 X40.7811Y7.6518
G01 X40.7798Y7.6516
G01 X40.7778Y7.652
G01 X40.7678Y7.6526
G01 X40.7582Y7.6551
G01 X40.7484Y7.6566
G01 X40.7429Y7.659
G01 X40.737Y7.6605
G01 X40.7283Y7.6653
G01 X40.7192Y7.6693
G01 X40.7145Y7.673
G01 X40.7092Y7.6759
G01 X40.7019Y7.6827
G01 X40.6941Y7.6887
G01 X39.7562Y8.6266
G01 X39.7544Y8.6287
G01 X39.7544Y8.6287
M5
G01 X41.7002Y18.51
M3
G01 X41.69555Y18.41539
G01 X41.68165Y18.3217
G01 X41.65864Y18.22982
G01 X41.62673Y18.14063
G01 X41.58623Y18.05501
G01 X41.53753Y17.97376
G01 X41.48111Y17.89768
G01 X41.4175Y17.8275
G01 X41.37Y17.78445
G01 X41.37Y16.9225
G01 X41.36694Y16.86026
G01 X41.3578Y16.79862
G01 X41.34266Y16.73817
G01 X41.32166Y16.6795
G01 X41.29502Y16.62316
G01 X41.26298Y16.56971
G01 X41.22586Y16.51966
G01 X41.18401Y16.47349
G01 X39.91401Y15.20349
G01 X39.91401Y15.20349
G01 X39.86784Y15.16164
G01 X39.81779Y15.12452
G01 X39.76434Y15.09248
G01 X39.708Y15.06584
G01 X39.64933Y15.04484
G01 X39.58888Y15.0297
G01 X39.52724Y15.02056
G01 X39.465Y15.0175
G01 X38.83Y15.0175
G01 X38.83Y11.61555
G01 X38.8775Y11.5725
G01 X38.94111Y11.50232
G01 X38.99753Y11.42624
G01 X39.04623Y11.34499
G01 X39.08673Y11.25937
G01 X39.11864Y11.17018
G01 X39.14165Y11.0783
G01 X39.15555Y10.98461
G01 X39.1602Y10.89
G01 X39.15555Y10.79539
G01 X39.14165Y10.7017
G01 X39.11864Y10.60982
G01 X39.08673Y10.52063
G01 X39.04623Y10.43501
G01 X38.99753Y10.35376
G01 X38.94111Y10.27768
G01 X38.8775Y10.2075
G01 X38.80732Y10.14389
G01 X38.73124Y10.08747
G01 X38.703Y10.07054
G01 X38.703Y8.24292
G01 X40.31042Y6.6355
G01 X77.67208Y6.6355
G01 X81.502Y10.46542
G01 X81.502Y13.24554
G01 X81.47376Y13.26247
G01 X81.39768Y13.31889
G01 X81.3275Y13.3825
G01 X81.26389Y13.45268
G01 X81.20747Y13.52876
G01 X81.15877Y13.61001
G01 X81.11827Y13.69563
G01 X81.08636Y13.78482
G01 X81.06335Y13.8767
G01 X81.04945Y13.97039
G01 X81.0448Y14.065
G01 X81.04945Y14.15961
G01 X81.06335Y14.2533
G01 X81.08636Y14.34518
G01 X81.11827Y14.43437
G01 X81.15877Y14.51999
G01 X81.20747Y14.60124
G01 X81.26389Y14.67732
G01 X81.3275Y14.7475
G01 X81.39768Y14.81111
G01 X81.47376Y14.86753
G01 X81.55501Y14.91623
G01 X81.64063Y14.95673
G01 X81.72982Y14.98864
G01 X81.8217Y15.01165
G01 X81.91539Y15.02555
G01 X82.01Y15.0302
G01 X82.10461Y15.02555
G01 X82.1983Y15.01165
G01 X82.29018Y14.98864
G01 X82.37937Y14.95673
G01 X82.46499Y14.91623
G01 X82.54624Y14.86753
G01 X82.62232Y14.81111
G01 X82.6925Y14.7475
G01 X82.73555Y14.7
G01 X84.9104Y14.7
G01 X85.3676Y15.1572
G01 X86.2724Y15.1572
G01 X86.7296Y14.7
G01 X92.5304Y14.7
G01 X92.805Y14.9746
G01 X92.805Y20.7754
G01 X92.3478Y21.2326
G01 X92.3478Y22.1374
G01 X92.9876Y22.7772
G01 X93.8924Y22.7772
G01 X94.5322Y22.1374
G01 X94.5322Y21.2326
G01 X94.075Y20.7754
G01 X94.075Y14.9746
G01 X94.5322Y14.5174
G01 X94.5322Y13.6126
G01 X93.8924Y12.9728
G01 X92.9876Y12.9728
G01 X92.5304Y13.43
G01 X86.7296Y13.43
G01 X86.2724Y12.9728
G01 X85.3676Y12.9728
G01 X84.9104Y13.43
G01 X82.73555Y13.43
G01 X82.6925Y13.3825
G01 X82.62232Y13.31889
G01 X82.54624Y13.26247
G01 X82.518Y13.24554
G01 X82.518Y10.255
G01 X82.51555Y10.20521
G01 X82.50824Y10.15589
G01 X82.49613Y10.10754
G01 X82.47933Y10.0606
G01 X82.45802Y10.01553
G01 X82.43239Y9.97277
G01 X82.40269Y9.93273
G01 X82.36921Y9.89579
G01 X78.24171Y5.76829
G01 X78.20477Y5.73481
G01 X78.16473Y5.70511
G01 X78.12197Y5.67948
G01 X78.0769Y5.65817
G01 X78.02996Y5.64137
G01 X77.98161Y5.62926
G01 X77.93229Y5.62195
G01 X77.8825Y5.6195
G01 X40.1Y5.6195
G01 X40.05021Y5.62195
G01 X40.00089Y5.62926
G01 X39.95254Y5.64137
G01 X39.9056Y5.65817
G01 X39.89617Y5.66263
G01 X39.86053Y5.67948
G01 X39.82515Y5.70069
G01 X39.81777Y5.70511
G01 X39.77773Y5.73481
G01 X39.74079Y5.76829
G01 X37.83579Y7.67329
G01 X37.80231Y7.71023
G01 X37.77261Y7.75027
G01 X37.74698Y7.79303
G01 X37.72567Y7.8381
G01 X37.70887Y7.88504
G01 X37.69676Y7.93339
G01 X37.68945Y7.98271
G01 X37.687Y8.0325
G01 X37.687Y10.07054
G01 X37.65876Y10.08747
G01 X37.58268Y10.14389
G01 X37.5125Y10.2075
G01 X37.44889Y10.27768
G01 X37.39247Y10.35376
G01 X37.34377Y10.43501
G01 X37.30327Y10.52063
G01 X37.27136Y10.60982
G01 X37.24835Y10.7017
G01 X37.23445Y10.79539
G01 X37.2298Y10.89
G01 X37.23445Y10.98461
G01 X37.24835Y11.0783
G01 X37.27136Y11.17018
G01 X37.30327Y11.25937
G01 X37.34377Y11.34499
G01 X37.39247Y11.42624
G01 X37.44889Y11.50232
G01 X37.5125Y11.5725
G01 X37.56Y11.61555
G01 X37.56Y15.0175
G01 X14.7Y15.0175
G01 X14.63776Y15.02056
G01 X14.57612Y15.0297
G01 X14.51567Y15.04484
G01 X14.457Y15.06584
G01 X14.40066Y15.09248
G01 X14.34721Y15.12452
G01 X14.29716Y15.16164
G01 X14.25099Y15.20349
G01 X11.26197Y18.1925
G01 X6.7625Y18.1925
G01 X6.70026Y18.19556
G01 X6.63862Y18.2047
G01 X6.57817Y18.21984
G01 X6.5195Y18.24084
G01 X6.46316Y18.26748
G01 X6.40971Y18.29952
G01 X6.35966Y18.33664
G01 X6.31349Y18.37849
G01 X4.09099Y20.60099
G01 X4.04914Y20.64716
G01 X4.01202Y20.69721
G01 X3.97998Y20.75066
G01 X3.95334Y20.807
G01 X3.93234Y20.86567
G01 X3.9172Y20.92612
G01 X3.90806Y20.98776
G01 X3.905Y21.05
G01 X3.905Y31.4006
G01 X3.899Y31.401
G01 X3.8969Y31.4008
G01 X3.8949Y31.4012
G01 X3.8889Y31.4016
G01 X3.8774Y31.4046
G01 X3.8657Y31.4068
G01 X3.8621Y31.4085
G01 X3.8581Y31.4095
G01 X3.8477Y31.4153
G01 X3.8369Y31.4204
G01 X3.8338Y31.4229
G01 X3.8303Y31.4249
G01 X3.8216Y31.4331
G01 X3.8124Y31.4406
G01 X3.8101Y31.4439
G01 X3.8071Y31.4467
G01 X3.8007Y31.4568
G01 X3.7938Y31.4664
G01 X3.7923Y31.4701
G01 X3.7901Y31.4736
G01 X3.7864Y31.4849
G01 X3.7821Y31.4959
G01 X3.7816Y31.5
G01 X3.7803Y31.5038
G01 X3.7796Y31.5157
G01 X3.7781Y31.5275
G01 X3.7781Y75.66
G01 X3.7783Y75.6628
G01 X3.7781Y75.664
G01 X3.7785Y75.6661
G01 X3.7791Y75.6761
G01 X3.7816Y75.6856
G01 X3.7831Y75.6954
G01 X3.7855Y75.701
G01 X3.787Y75.7069
G01 X3.7918Y75.7155
G01 X3.7958Y75.7246
G01 X3.7995Y75.7294
G01 X3.8024Y75.7347
G01 X3.8092Y75.7419
G01 X3.8152Y75.7498
G01 X14.9278Y86.8623
G01 X14.9299Y86.8641
G01 X14.9306Y86.8651
G01 X14.9323Y86.8663
G01 X14.9398Y86.8729
G01 X14.9484Y86.8779
G01 X14.9564Y86.8837
G01 X14.962Y86.886
G01 X14.9672Y86.889
G01 X14.9767Y86.8918
G01 X14.9859Y86.8954
G01 X14.992Y86.8962
G01 X14.9978Y86.8979
G01 X15.0077Y86.8982
G01 X15.0175Y86.8994
G01 X134.715Y86.8994
G01 X134.721Y86.899
G01 X134.7231Y86.8992
G01 X134.7251Y86.8988
G01 X134.7311Y86.8984
G01 X134.7426Y86.8954
G01 X134.7543Y86.8932
G01 X134.7579Y86.8915
G01 X134.7619Y86.8905
G01 X134.7723Y86.8847
G01 X134.7831Y86.8796
G01 X134.7862Y86.8771
G01 X134.7897Y86.8751
G01 X134.7984Y86.867
G01 X134.8076Y86.8594
G01 X134.8099Y86.8561
G01 X134.8129Y86.8533
G01 X134.8193Y86.8432
G01 X134.8262Y86.8336
G01 X134.8277Y86.8299
G01 X134.8299Y86.8264
G01 X134.8336Y86.8151
G01 X134.8379Y86.8041
G01 X134.8384Y86.8
G01 X134.8397Y86.7962
G01 X134.8404Y86.7843
G01 X134.8419Y86.7725
G01 X134.8419Y73.41759
G01 X134.84944Y73.36675
G01 X134.8547Y73.2597
G01 X134.8547Y71.0753
G01 X134.84944Y70.96825
G01 X134.8419Y70.91741
G01 X134.8419Y70.8975
G01 X134.8415Y70.8915
G01 X134.8417Y70.8895
G01 X134.8413Y70.8875
G01 X134.8409Y70.8814
G01 X134.8379Y70.8699
G01 X134.8357Y70.8582
G01 X134.834Y70.8546
G01 X134.833Y70.8506
G01 X134.82901Y70.84345
G01 X134.80767Y70.75825
G01 X134.77156Y70.65733
G01 X134.72573Y70.56044
G01 X134.67063Y70.46851
G01 X134.60678Y70.38242
G01 X134.5348Y70.303
G01 X134.45538Y70.23102
G01 X134.3975Y70.18809
G01 X134.3975Y65.44553
G01 X136.88303Y62.96
G01 X138.2075Y62.96
G01 X138.26974Y62.95694
G01 X138.33138Y62.9478
G01 X138.39183Y62.93266
G01 X138.4505Y62.91166
G01 X138.50684Y62.88502
G01 X138.56029Y62.85298
G01 X138.61034Y62.81586
G01 X138.65651Y62.77401
G01 X140.87901Y60.55151
G01 X140.92086Y60.50534
G01 X140.95798Y60.45529
G01 X140.99002Y60.40184
G01 X141.01666Y60.3455
G01 X141.03766Y60.28683
G01 X141.0528Y60.22638
G01 X141.06194Y60.16474
G01 X141.065Y60.1025
G01 X141.065Y54.3875
G01 X141.065Y54.3875
G01 X141.06194Y54.32526
G01 X141.0616Y54.32297
G01 X141.0528Y54.26362
G01 X141.03861Y54.20695
G01 X141.03766Y54.20317
G01 X141.01666Y54.1445
G01 X140.99002Y54.08816
G01 X140.95798Y54.03471
G01 X140.92086Y53.98466
G01 X140.87901Y53.93849
G01 X139.29151Y52.35099
G01 X139.24534Y52.30914
G01 X139.19529Y52.27202
G01 X139.14184Y52.23998
G01 X139.11528Y52.22742
G01 X139.0855Y52.21334
G01 X139.02683Y52.19234
G01 X138.96638Y52.1772
G01 X138.90474Y52.16806
G01 X138.8425Y52.165
G01 X119.73803Y52.165
G01 X117.8875Y50.31447
G01 X117.8875Y43.9227
G01 X118.2177Y43.9227
G01 X118.31231Y43.91805
G01 X118.406Y43.90415
G01 X118.49788Y43.88114
G01 X118.58707Y43.84923
G01 X118.67269Y43.80873
G01 X118.75394Y43.76003
G01 X118.83002Y43.70361
G01 X118.9002Y43.64
G01 X118.96381Y43.56982
G01 X119.02023Y43.49374
G01 X119.06893Y43.41249
G01 X119.10943Y43.32687
G01 X119.14134Y43.23768
G01 X119.16435Y43.1458
G01 X119.17825Y43.05211
G01 X119.1829Y42.9575
G01 X119.17825Y42.86289
G01 X119.16435Y42.7692
G01 X119.14134Y42.67732
G01 X119.10943Y42.58813
G01 X119.06893Y42.50251
G01 X119.02023Y42.42126
G01 X118.96381Y42.34518
G01 X118.9002Y42.275
G01 X118.83002Y42.21139
G01 X118.75394Y42.15497
G01 X118.67269Y42.10627
G01 X118.58707Y42.06577
G01 X118.49788Y42.03386
G01 X118.406Y42.01085
G01 X118.31231Y41.99695
G01 X118.2177Y41.9923
G01 X116.2873Y41.9923
G01 X116.19269Y41.99695
G01 X116.099Y42.01085
G01 X116.00712Y42.03386
G01 X115.91793Y42.06577
G01 X115.83231Y42.10627
G01 X115.75106Y42.15497
G01 X115.67498Y42.21139
G01 X115.6048Y42.275
G01 X115.54119Y42.34518
G01 X115.48477Y42.42126
G01 X115.43607Y42.50251
G01 X115.39557Y42.58813
G01 X115.36366Y42.67732
G01 X115.34065Y42.7692
G01 X115.32675Y42.86289
G01 X115.3221Y42.9575
G01 X115.32675Y43.05211
G01 X115.34065Y43.1458
G01 X115.36366Y43.23768
G01 X115.39557Y43.32687
G01 X115.43607Y43.41249
G01 X115.48477Y43.49374
G01 X115.54119Y43.56982
G01 X115.6048Y43.64
G01 X115.67498Y43.70361
G01 X115.75106Y43.76003
G01 X115.83231Y43.80873
G01 X115.91793Y43.84923
G01 X116.00712Y43.88114
G01 X116.099Y43.90415
G01 X116.19269Y43.91805
G01 X116.2873Y43.9227
G01 X116.6175Y43.9227
G01 X116.6175Y50.5775
G01 X116.62056Y50.63974
G01 X116.6297Y50.70138
G01 X116.64484Y50.76183
G01 X116.66584Y50.8205
G01 X116.69248Y50.87684
G01 X116.72452Y50.93029
G01 X116.76164Y50.98034
G01 X116.80349Y51.02651
G01 X119.02599Y53.24901
G01 X119.07216Y53.29086
G01 X119.12221Y53.32798
G01 X119.17566Y53.36002
G01 X119.232Y53.38666
G01 X119.29067Y53.40766
G01 X119.35112Y53.4228
G01 X119.41276Y53.43194
G01 X119.475Y53.435
G01 X138.57947Y53.435
G01 X139.795Y54.65053
G01 X139.795Y59.83947
G01 X137.94447Y61.69
G01 X136.62Y61.69
G01 X136.55776Y61.69306
G01 X136.49612Y61.7022
G01 X136.43567Y61.71734
G01 X136.377Y61.73834
G01 X136.32066Y61.76498
G01 X136.26721Y61.79702
G01 X136.21716Y61.83414
G01 X136.17099Y61.87599
G01 X133.31349Y64.73349
G01 X133.27164Y64.77966
G01 X133.23452Y64.82971
G01 X133.20248Y64.88316
G01 X133.17584Y64.9395
G01 X133.15484Y64.99817
G01 X133.1397Y65.05862
G01 X133.13056Y65.12026
G01 X133.1275Y65.1825
G01 X133.1275Y70.18809
G01 X133.06962Y70.23102
G01 X132.9902Y70.303
G01 X132.91822Y70.38242
G01 X132.85437Y70.46851
G01 X132.79927Y70.56044
G01 X132.75344Y70.65733
G01 X132.71733Y70.75825
G01 X132.69651Y70.84135
G01 X132.6951Y70.8436
G01 X132.6914Y70.8549
G01 X132.6871Y70.8659
G01 X132.6866Y70.87
G01 X132.6853Y70.8738
G01 X132.6846Y70.8857
G01 X132.6831Y70.8975
G01 X132.6831Y70.91741
G01 X132.67556Y70.96825
G01 X132.6703Y71.0753
G01 X132.6703Y73.2597
G01 X132.67556Y73.36675
G01 X132.6831Y73.41759
G01 X132.6831Y75.2156
G01 X121.4326Y75.2156
G01 X120.2369Y74.0199
G01 X120.2369Y73.41759
G01 X120.24444Y73.36675
G01 X120.2497Y73.2597
G01 X120.2497Y71.0753
G01 X120.24444Y70.96825
G01 X120.22871Y70.86222
G01 X120.20267Y70.75825
G01 X120.16656Y70.65733
G01 X120.12073Y70.56044
G01 X120.06563Y70.46851
G01 X120.00178Y70.38242
G01 X119.9298Y70.303
G01 X119.85038Y70.23102
G01 X119.76429Y70.16717
G01 X119.67236Y70.11207
G01 X119.57547Y70.06624
G01 X119.47455Y70.03013
G01 X119.37058Y70.00409
G01 X119.26455Y69.98836
G01 X119.1575Y69.9831
G01 X119.05045Y69.98836
G01 X118.94442Y70.00409
G01 X118.84045Y70.03013
G01 X118.73953Y70.06624
G01 X118.64264Y70.11207
G01 X118.55071Y70.16717
G01 X118.46462Y70.23102
G01 X118.3852Y70.303
G01 X118.31322Y70.38242
G01 X118.24937Y70.46851
G01 X118.19427Y70.56044
G01 X118.14844Y70.65733
G01 X118.11233Y70.75825
G01 X118.08629Y70.86222
G01 X118.07056Y70.96825
G01 X118.0653Y71.0753
G01 X118.0653Y73.2597
G01 X118.07056Y73.36675
G01 X118.0781Y73.41759
G01 X118.0781Y75.9249
G01 X113.7074Y80.2956
G01 X89.0476Y80.2956
G01 X86.5819Y77.8299
G01 X86.5819Y75.3425
G01 X86.5815Y75.3365
G01 X86.5817Y75.3345
G01 X86.5813Y75.3325
G01 X86.5809Y75.3264
G01 X86.5779Y75.3149
G01 X86.5757Y75.3032
G01 X86.574Y75.2996
G01 X86.573Y75.2956
G01 X86.5672Y75.2852
G01 X86.5621Y75.2744
G01 X86.5596Y75.2713
G01 X86.5576Y75.2678
G01 X86.5495Y75.2591
G01 X86.5419Y75.2499
G01 X86.5386Y75.2476
G01 X86.5358Y75.2446
G01 X86.5257Y75.2383
G01 X86.5161Y75.2313
G01 X86.5124Y75.2298
G01 X86.5089Y75.2276
G01 X86.4976Y75.2239
G01 X86.4866Y75.2196
G01 X86.4825Y75.2191
G01 X86.4787Y75.2178
G01 X86.4668Y75.2171
G01 X86.455Y75.2156
G01 X76.0301Y75.2156
G01 X74.8344Y74.0199
G01 X74.8344Y73.41759
G01 X74.84194Y73.36675
G01 X74.8472Y73.2597
G01 X74.8472Y71.0753
G01 X74.84194Y70.96825
G01 X74.8344Y70.91741
G01 X74.8344Y70.8975
G01 X74.834Y70.8915
G01 X74.8342Y70.8895
G01 X74.8338Y70.8875
G01 X74.8334Y70.8814
G01 X74.8304Y70.8699
G01 X74.8282Y70.8582
G01 X74.8265Y70.8546
G01 X74.8255Y70.8506
G01 X74.82151Y70.84345
G01 X74.80017Y70.75825
G01 X74.76406Y70.65733
G01 X74.71823Y70.56044
G01 X74.66313Y70.46851
G01 X74.59928Y70.38242
G01 X74.5273Y70.303
G01 X74.44788Y70.23102
G01 X74.36179Y70.16717
G01 X74.26986Y70.11207
G01 X74.17297Y70.06624
G01 X74.07205Y70.03013
G01 X73.96808Y70.00409
G01 X73.86205Y69.98836
G01 X73.755Y69.9831
G01 X73.64795Y69.98836
G01 X73.54192Y70.00409
G01 X73.43795Y70.03013
G01 X73.33703Y70.06624
G01 X73.24014Y70.11207
G01 X73.14821Y70.16717
G01 X73.06212Y70.23102
G01 X72.9827Y70.303
G01 X72.91072Y70.38242
G01 X72.84687Y70.46851
G01 X72.79177Y70.56044
G01 X72.74594Y70.65733
G01 X72.70983Y70.75825
G01 X72.68901Y70.84135
G01 X72.6876Y70.8436
G01 X72.6839Y70.8549
G01 X72.6796Y70.8659
G01 X72.6791Y70.87
G01 X72.6778Y70.8738
G01 X72.6771Y70.8857
G01 X72.6756Y70.8975
G01 X72.6756Y70.91741
G01 X72.66806Y70.96825
G01 X72.6628Y71.0753
G01 X72.6628Y73.2597
G01 X72.66806Y73.36675
G01 X72.6756Y73.41759
G01 X72.6756Y75.2156
G01 X61.4251Y75.2156
G01 X60.2294Y74.0199
G01 X60.2294Y73.41759
G01 X60.23694Y73.36675
G01 X60.2422Y73.2597
G01 X60.2422Y71.0753
G01 X60.23694Y70.96825
G01 X60.22121Y70.86222
G01 X60.19517Y70.75825
G01 X60.15906Y70.65733
G01 X60.11323Y70.56044
G01 X60.05813Y70.46851
G01 X59.99428Y70.38242
G01 X59.9223Y70.303
G01 X59.84288Y70.23102
G01 X59.75679Y70.16717
G01 X59.66486Y70.11207
G01 X59.56797Y70.06624
G01 X59.46705Y70.03013
G01 X59.36308Y70.00409
G01 X59.25705Y69.98836
G01 X59.15Y69.9831
G01 X59.04295Y69.98836
G01 X58.93692Y70.00409
G01 X58.83295Y70.03013
G01 X58.73203Y70.06624
G01 X58.63514Y70.11207
G01 X58.54321Y70.16717
G01 X58.45712Y70.23102
G01 X58.3777Y70.303
G01 X58.30572Y70.38242
G01 X58.24187Y70.46851
G01 X58.18677Y70.56044
G01 X58.14094Y70.65733
G01 X58.10483Y70.75825
G01 X58.07879Y70.86222
G01 X58.06306Y70.96825
G01 X58.0578Y71.0753
G01 X58.0578Y73.2597
G01 X58.06306Y73.36675
G01 X58.0706Y73.41759
G01 X58.0706Y75.6074
G01 X53.3824Y80.2956
G01 X24.9126Y80.2956
G01 X13.5569Y68.9399
G01 X13.5569Y48.4076
G01 X15.3876Y46.5769
G01 X18.51Y46.5769
G01 X18.5128Y46.5767
G01 X18.514Y46.5769
G01 X18.5161Y46.5765
G01 X18.5261Y46.5759
G01 X18.5356Y46.5734
G01 X18.5454Y46.5719
G01 X18.551Y46.5695
G01 X18.5569Y46.568
G01 X18.5655Y46.5632
G01 X18.5746Y46.5592
G01 X18.5794Y46.5555
G01 X18.5847Y46.5526
G01 X18.5919Y46.5458
G01 X18.5998Y46.5398
G01 X22.7273Y42.4123
G01 X22.7291Y42.4101
G01 X22.7301Y42.4094
G01 X22.7313Y42.4077
G01 X22.7379Y42.4002
G01 X22.7429Y42.3916
G01 X22.7487Y42.3836
G01 X22.751Y42.378
G01 X22.754Y42.3728
G01 X22.7568Y42.3633
G01 X22.7604Y42.3541
G01 X22.7612Y42.348
G01 X22.7629Y42.3422
G01 X22.7632Y42.3323
G01 X22.7644Y42.3225
G01 X22.7644Y33.75
G01 X22.7642Y33.7472
G01 X22.7644Y33.746
G01 X22.764Y33.7439
G01 X22.7634Y33.7339
G01 X22.7609Y33.7244
G01 X22.7594Y33.7146
G01 X22.757Y33.709
G01 X22.7555Y33.7031
G01 X22.7507Y33.6945
G01 X22.7467Y33.6854
G01 X22.743Y33.6806
G01 X22.7401Y33.6753
G01 X22.7333Y33.6681
G01 X22.7273Y33.6603
G01 X20.5048Y31.4378
G01 X20.5026Y31.4359
G01 X20.5019Y31.4349
G01 X20.5002Y31.4337
G01 X20.4927Y31.4271
G01 X20.4841Y31.4221
G01 X20.4761Y31.4163
G01 X20.4705Y31.414
G01 X20.4653Y31.411
G01 X20.4558Y31.4082
G01 X20.4466Y31.4046
G01 X20.4405Y31.4038
G01 X20.4347Y31.4021
G01 X20.4248Y31.4018
G01 X20.415Y31.4006
G01 X5.175Y31.4006
G01 X5.175Y21.31303
G01 X7.02553Y19.4625
G01 X11.525Y19.4625
G01 X11.58724Y19.45944
G01 X11.64888Y19.4503
G01 X11.70933Y19.43516
G01 X11.768Y19.41416
G01 X11.82434Y19.38752
G01 X11.87779Y19.35548
G01 X11.92784Y19.31836
G01 X11.97401Y19.27651
G01 X14.96303Y16.2875
G01 X38.195Y16.2875
G01 X39.20197Y16.2875
G01 X40.1Y17.18553
G01 X40.1Y17.78445
G01 X40.0525Y17.8275
G01 X39.98889Y17.89768
G01 X39.93247Y17.97376
G01 X39.88377Y18.05501
G01 X39.84327Y18.14063
G01 X39.81136Y18.22982
G01 X39.78835Y18.3217
G01 X39.77445Y18.41539
G01 X39.7698Y18.51
G01 X39.77445Y18.60461
G01 X39.78835Y18.6983
G01 X39.81136Y18.79018
G01 X39.84327Y18.87937
G01 X39.88377Y18.96499
G01 X39.93247Y19.04624
G01 X39.98889Y19.12232
G01 X40.0525Y19.1925
G01 X40.12268Y19.25611
G01 X40.19876Y19.31253
G01 X40.28001Y19.36123
G01 X40.36563Y19.40173
G01 X40.45482Y19.43364
G01 X40.5467Y19.45665
G01 X40.64039Y19.47055
G01 X40.735Y19.4752
G01 X40.82961Y19.47055
G01 X40.9233Y19.45665
G01 X41.01518Y19.43364
G01 X41.10437Y19.40173
G01 X41.18999Y19.36123
G01 X41.27124Y19.31253
G01 X41.34732Y19.25611
G01 X41.4175Y19.1925
G01 X41.48111Y19.12232
G01 X41.53753Y19.04624
G01 X41.58623Y18.96499
G01 X41.62673Y18.87937
G01 X41.65864Y18.79018
G01 X41.68165Y18.6983
G01 X41.69555Y18.60461
G01 X41.7002Y18.51
G01 X41.7002Y18.51
M5
G01 X26.23705Y74.34664
M3
G01 X26.34308Y74.33091
G01 X26.44705Y74.30487
G01 X26.54797Y74.26876
G01 X26.64486Y74.22293
G01 X26.68412Y74.1994
G01 X27.0825Y74.1994
G01 X27.0885Y74.199
G01 X27.0906Y74.1992
G01 X27.0926Y74.1988
G01 X27.0986Y74.1984
G01 X27.1101Y74.1954
G01 X27.1218Y74.1932
G01 X27.1254Y74.1915
G01 X27.1294Y74.1905
G01 X27.1398Y74.1847
G01 X27.1506Y74.1796
G01 X27.1537Y74.1771
G01 X27.1572Y74.1751
G01 X27.1659Y74.167
G01 X27.1751Y74.1594
G01 X27.1774Y74.1561
G01 X27.1804Y74.1533
G01 X27.1868Y74.1432
G01 X27.1937Y74.1336
G01 X27.1952Y74.1299
G01 X27.1974Y74.1264
G01 X27.2011Y74.1151
G01 X27.2054Y74.1041
G01 X27.2059Y74.1
G01 X27.2072Y74.0962
G01 X27.2079Y74.0843
G01 X27.2094Y74.0725
G01 X27.2094Y73.41759
G01 X27.21694Y73.36675
G01 X27.2222Y73.2597
G01 X27.2222Y71.0753
G01 X27.21694Y70.96825
G01 X27.2094Y70.91741
G01 X27.2094Y65.6269
G01 X34.2581Y65.6269
G01 X34.2581Y74.0725
G01 X34.2585Y74.0785
G01 X34.2583Y74.0806
G01 X34.2587Y74.0826
G01 X34.2591Y74.0886
G01 X34.2621Y74.1001
G01 X34.2643Y74.1118
G01 X34.266Y74.1154
G01 X34.267Y74.1194
G01 X34.2728Y74.1298
G01 X34.2779Y74.1406
G01 X34.2804Y74.1437
G01 X34.2824Y74.1472
G01 X34.2906Y74.1559
G01 X34.2981Y74.1651
G01 X34.3014Y74.1674
G01 X34.3042Y74.1704
G01 X34.3143Y74.1768
G01 X34.3239Y74.1837
G01 X34.3276Y74.1852
G01 X34.3311Y74.1874
G01 X34.3424Y74.1911
G01 X34.3534Y74.1954
G01 X34.3575Y74.1959
G01 X34.3613Y74.1972
G01 X34.3732Y74.1979
G01 X34.385Y74.1994
G01 X40.18088Y74.1994
G01 X40.22014Y74.22293
G01 X40.31703Y74.26876
G01 X40.41795Y74.30487
G01 X40.52192Y74.33091
G01 X40.62795Y74.34664
G01 X40.735Y74.3519
G01 X40.84205Y74.34664
G01 X40.94808Y74.33091
G01 X41.05205Y74.30487
G01 X41.15297Y74.26876
G01 X41.24986Y74.22293
G01 X41.28912Y74.1994
G01 X41.6875Y74.1994
G01 X41.6935Y74.199
G01 X41.6956Y74.1992
G01 X41.6976Y74.1988
G01 X41.7036Y74.1984
G01 X41.7151Y74.1954
G01 X41.7268Y74.1932
G01 X41.7304Y74.1915
G01 X41.7344Y74.1905
G01 X41.7448Y74.1847
G01 X41.7556Y74.1796
G01 X41.7587Y74.1771
G01 X41.7622Y74.1751
G01 X41.7709Y74.167
G01 X41.7801Y74.1594
G01 X41.7824Y74.1561
G01 X41.7854Y74.1533
G01 X41.7918Y74.1432
G01 X41.7987Y74.1336
G01 X41.8002Y74.1299
G01 X41.8024Y74.1264
G01 X41.8061Y74.1151
G01 X41.8104Y74.1041
G01 X41.8109Y74.1
G01 X41.8122Y74.0962
G01 X41.8129Y74.0843
G01 X41.8144Y74.0725
G01 X41.8144Y73.41759
G01 X41.82194Y73.36675
G01 X41.8272Y73.2597
G01 X41.8272Y71.0753
G01 X41.82194Y70.96825
G01 X41.8144Y70.91741
G01 X41.8144Y68.4101
G01 X48.0901Y62.1344
G01 X70.8449Y62.1344
G01 X73.3478Y64.6373
G01 X73.3499Y64.6391
G01 X73.3506Y64.6401
G01 X73.3523Y64.6413
G01 X73.3598Y64.6479
G01 X73.3684Y64.6529
G01 X73.3764Y64.6587
G01 X73.382Y64.661
G01 X73.3872Y64.664
G01 X73.3967Y64.6668
G01 X73.4059Y64.6704
G01 X73.412Y64.6712
G01 X73.4178Y64.6729
G01 X73.4277Y64.6732
G01 X73.4375Y64.6744
G01 X77.5124Y64.6744
G01 X79.0256Y66.1876
G01 X79.0256Y74.0725
G01 X79.026Y74.0785
G01 X79.0258Y74.0806
G01 X79.0262Y74.0826
G01 X79.0266Y74.0886
G01 X79.0296Y74.1001
G01 X79.0318Y74.1118
G01 X79.0335Y74.1154
G01 X79.0345Y74.1194
G01 X79.0403Y74.1298
G01 X79.0454Y74.1406
G01 X79.0479Y74.1437
G01 X79.0499Y74.1472
G01 X79.0581Y74.1559
G01 X79.0656Y74.1651
G01 X79.0689Y74.1674
G01 X79.0717Y74.1704
G01 X79.0818Y74.1768
G01 X79.0914Y74.1837
G01 X79.0951Y74.1852
G01 X79.0986Y74.1874
G01 X79.1099Y74.1911
G01 X79.1209Y74.1954
G01 X79.125Y74.1959
G01 X79.1288Y74.1972
G01 X79.1407Y74.1979
G01 X79.1525Y74.1994
G01 X85.90088Y74.1994
G01 X85.94014Y74.22293
G01 X86.03703Y74.26876
G01 X86.13795Y74.30487
G01 X86.24192Y74.33091
G01 X86.34795Y74.34664
G01 X86.455Y74.3519
G01 X86.56205Y74.34664
G01 X86.66808Y74.33091
G01 X86.77205Y74.30487
G01 X86.87297Y74.26876
G01 X86.96986Y74.22293
G01 X87.00912Y74.1994
G01 X87.4075Y74.1994
G01 X87.4135Y74.199
G01 X87.4156Y74.1992
G01 X87.4176Y74.1988
G01 X87.4236Y74.1984
G01 X87.4351Y74.1954
G01 X87.4468Y74.1932
G01 X87.4504Y74.1915
G01 X87.4544Y74.1905
G01 X87.4648Y74.1847
G01 X87.4756Y74.1796
G01 X87.4787Y74.1771
G01 X87.4822Y74.1751
G01 X87.4909Y74.167
G01 X87.5001Y74.1594
G01 X87.5024Y74.1561
G01 X87.5054Y74.1533
G01 X87.5118Y74.1432
G01 X87.5187Y74.1336
G01 X87.5202Y74.1299
G01 X87.5224Y74.1264
G01 X87.5261Y74.1151
G01 X87.5304Y74.1041
G01 X87.5309Y74.1
G01 X87.5322Y74.0962
G01 X87.5329Y74.0843
G01 X87.5344Y74.0725
G01 X87.5344Y73.41759
G01 X87.54194Y73.36675
G01 X87.5472Y73.2597
G01 X87.5472Y71.0753
G01 X87.54194Y70.96825
G01 X87.5344Y70.91741
G01 X87.5344Y65.6269
G01 X94.5831Y65.6269
G01 X94.5831Y74.0725
G01 X94.5835Y74.0785
G01 X94.5833Y74.0806
G01 X94.5837Y74.0826
G01 X94.5841Y74.0886
G01 X94.5871Y74.1001
G01 X94.5893Y74.1118
G01 X94.591Y74.1154
G01 X94.592Y74.1194
G01 X94.5978Y74.1298
G01 X94.6029Y74.1406
G01 X94.6054Y74.1437
G01 X94.6074Y74.1472
G01 X94.6156Y74.1559
G01 X94.6231Y74.1651
G01 X94.6264Y74.1674
G01 X94.6292Y74.1704
G01 X94.6393Y74.1768
G01 X94.6489Y74.1837
G01 X94.6526Y74.1852
G01 X94.6561Y74.1874
G01 X94.6674Y74.1911
G01 X94.6784Y74.1954
G01 X94.6825Y74.1959
G01 X94.6863Y74.1972
G01 X94.6982Y74.1979
G01 X94.71Y74.1994
G01 X100.50588Y74.1994
G01 X100.54514Y74.22293
G01 X100.64203Y74.26876
G01 X100.74295Y74.30487
G01 X100.84692Y74.33091
G01 X100.95295Y74.34664
G01 X101.06Y74.3519
G01 X101.16705Y74.34664
G01 X101.27308Y74.33091
G01 X101.37705Y74.30487
G01 X101.47797Y74.26876
G01 X101.57486Y74.22293
G01 X101.61412Y74.1994
G01 X102.0125Y74.1994
G01 X102.0185Y74.199
G01 X102.0206Y74.1992
G01 X102.0226Y74.1988
G01 X102.0286Y74.1984
G01 X102.0401Y74.1954
G01 X102.0518Y74.1932
G01 X102.0554Y74.1915
G01 X102.0594Y74.1905
G01 X102.0698Y74.1847
G01 X102.0806Y74.1796
G01 X102.0837Y74.1771
G01 X102.0872Y74.1751
G01 X102.0959Y74.167
G01 X102.1051Y74.1594
G01 X102.1074Y74.1561
G01 X102.1104Y74.1533
G01 X102.1168Y74.1432
G01 X102.1237Y74.1336
G01 X102.1252Y74.1299
G01 X102.1274Y74.1264
G01 X102.1311Y74.1151
G01 X102.1354Y74.1041
G01 X102.1359Y74.1
G01 X102.1372Y74.0962
G01 X102.1379Y74.0843
G01 X102.1394Y74.0725
G01 X102.1394Y73.41759
G01 X102.14694Y73.36675
G01 X102.1522Y73.2597
G01 X102.1522Y71.0753
G01 X102.14694Y70.96825
G01 X102.1394Y70.91741
G01 X102.1394Y58.8325
G01 X102.139Y58.8265
G01 X102.1392Y58.8245
G01 X102.1388Y58.8225
G01 X102.1384Y58.8164
G01 X102.1354Y58.8049
G01 X102.1332Y58.7932
G01 X102.1315Y58.7896
G01 X102.1305Y58.7856
G01 X102.1247Y58.7752
G01 X102.1196Y58.7644
G01 X102.1171Y58.7613
G01 X102.1151Y58.7578
G01 X102.107Y58.7491
G01 X102.0994Y58.7399
G01 X102.0961Y58.7376
G01 X102.0933Y58.7346
G01 X102.0832Y58.7283
G01 X102.0736Y58.7213
G01 X102.0699Y58.7198
G01 X102.0664Y58.7176
G01 X102.0551Y58.7139
G01 X102.0441Y58.7096
G01 X102.04Y58.7091
G01 X102.0362Y58.7078
G01 X102.0243Y58.7071
G01 X102.0125Y58.7056
G01 X23.1455Y58.7056
G01 X23.1455Y56.50292
G01 X24.43542Y55.213
G01 X45.815Y55.213
G01 X45.86479Y55.21055
G01 X45.91411Y55.20324
G01 X45.96246Y55.19113
G01 X46.0094Y55.17433
G01 X46.05447Y55.15302
G01 X46.09723Y55.12739
G01 X46.13727Y55.09769
G01 X46.17421Y55.06421
G01 X49.03171Y52.20671
G01 X49.06519Y52.16977
G01 X49.09489Y52.12973
G01 X49.12052Y52.08697
G01 X49.14183Y52.0419
G01 X49.15863Y51.99496
G01 X49.17074Y51.94661
G01 X49.17805Y51.89729
G01 X49.1805Y51.8475
G01 X49.1805Y40.65125
G01 X49.20425Y40.63364
G01 X49.2652Y40.5784
G01 X49.32044Y40.51745
G01 X49.36944Y40.45138
G01 X49.41173Y40.38082
G01 X49.4469Y40.30647
G01 X49.47461Y40.22902
G01 X49.49459Y40.14922
G01 X49.50666Y40.06786
G01 X49.5107Y39.9857
G01 X49.5107Y38.3093
G01 X49.50666Y38.22714
G01 X49.49459Y38.14578
G01 X49.47461Y38.06598
G01 X49.4469Y37.98853
G01 X49.41173Y37.91418
G01 X49.36944Y37.84362
G01 X49.32044Y37.77755
G01 X49.2652Y37.7166
G01 X49.20425Y37.66136
G01 X49.13818Y37.61236
G01 X49.06762Y37.57007
G01 X48.99327Y37.5349
G01 X48.91582Y37.50719
G01 X48.83602Y37.48721
G01 X48.75466Y37.47514
G01 X48.6725Y37.4711
G01 X48.59034Y37.47514
G01 X48.50898Y37.48721
G01 X48.42918Y37.50719
G01 X48.35173Y37.5349
G01 X48.27738Y37.57007
G01 X48.20682Y37.61236
G01 X48.14075Y37.66136
G01 X48.0798Y37.7166
G01 X48.02456Y37.77755
G01 X47.97556Y37.84362
G01 X47.93327Y37.91418
G01 X47.8981Y37.98853
G01 X47.87039Y38.06598
G01 X47.85041Y38.14578
G01 X47.83834Y38.22714
G01 X47.8343Y38.3093
G01 X47.8343Y39.9857
G01 X47.83834Y40.06786
G01 X47.85041Y40.14922
G01 X47.87039Y40.22902
G01 X47.8981Y40.30647
G01 X47.93327Y40.38082
G01 X47.97556Y40.45138
G01 X48.02456Y40.51745
G01 X48.0798Y40.5784
G01 X48.14075Y40.63364
G01 X48.1645Y40.65125
G01 X48.1645Y51.63708
G01 X45.60458Y54.197
G01 X24.225Y54.197
G01 X24.17521Y54.19945
G01 X24.12589Y54.20676
G01 X24.07754Y54.21887
G01 X24.0306Y54.23567
G01 X23.98553Y54.25698
G01 X23.94277Y54.28261
G01 X23.90273Y54.31231
G01 X23.86579Y54.34579
G01 X22.27829Y55.93329
G01 X22.24481Y55.97023
G01 X22.21511Y56.01027
G01 X22.19374Y56.04593
G01 X22.18948Y56.05303
G01 X22.18948Y56.05303
G01 X22.16817Y56.0981
G01 X22.15137Y56.14504
G01 X22.13926Y56.19339
G01 X22.13195Y56.24271
G01 X22.1295Y56.2925
G01 X22.1295Y58.7056
G01 X15.6525Y58.7056
G01 X15.6465Y58.706
G01 X15.6445Y58.7058
G01 X15.6425Y58.7062
G01 X15.6364Y58.7066
G01 X15.6249Y58.7096
G01 X15.6132Y58.7118
G01 X15.6096Y58.7135
G01 X15.6056Y58.7145
G01 X15.5952Y58.7203
G01 X15.5844Y58.7254
G01 X15.5813Y58.7279
G01 X15.5778Y58.7299
G01 X15.5691Y58.7381
G01 X15.5599Y58.7456
G01 X15.5576Y58.7489
G01 X15.5546Y58.7517
G01 X15.5483Y58.7618
G01 X15.5413Y58.7714
G01 X15.5398Y58.7751
G01 X15.5376Y58.7786
G01 X15.5339Y58.7899
G01 X15.5296Y58.8009
G01 X15.5291Y58.805
G01 X15.5278Y58.8088
G01 X15.5271Y58.8207
G01 X15.5256Y58.8325
G01 X15.5256Y68.3575
G01 X15.5258Y68.3603
G01 X15.5256Y68.3615
G01 X15.526Y68.3636
G01 X15.5266Y68.3736
G01 X15.5291Y68.3831
G01 X15.5306Y68.3929
G01 X15.533Y68.3985
G01 X15.5345Y68.4044
G01 X15.5393Y68.413
G01 X15.5433Y68.4221
G01 X15.547Y68.4269
G01 X15.5499Y68.4322
G01 X15.5567Y68.4394
G01 X15.5628Y68.4473
G01 X21.2778Y74.1623
G01 X21.2799Y74.1641
G01 X21.2806Y74.1651
G01 X21.2823Y74.1663
G01 X21.2898Y74.1729
G01 X21.2984Y74.1779
G01 X21.3064Y74.1837
G01 X21.312Y74.186
G01 X21.3172Y74.189
G01 X21.3267Y74.1918
G01 X21.3359Y74.1954
G01 X21.342Y74.1962
G01 X21.3478Y74.1979
G01 X21.3577Y74.1982
G01 X21.3675Y74.1994
G01 X25.57588Y74.1994
G01 X25.61514Y74.22293
G01 X25.71203Y74.26876
G01 X25.81295Y74.30487
G01 X25.91692Y74.33091
G01 X26.02295Y74.34664
G01 X26.13Y74.3519
G01 X26.23705Y74.34664
G01 X26.23705Y74.34664
M5
G01 X104.88073Y70.56044
M3
G01 X104.82563Y70.46851
G01 X104.76178Y70.38242
G01 X104.6898Y70.303
G01 X104.61038Y70.23102
G01 X104.52429Y70.16717
G01 X104.43236Y70.11207
G01 X104.33547Y70.06624
G01 X104.23455Y70.03013
G01 X104.13058Y70.00409
G01 X104.02455Y69.98836
G01 X103.9175Y69.9831
G01 X103.81045Y69.98836
G01 X103.70442Y70.00409
G01 X103.60045Y70.03013
G01 X103.49953Y70.06624
G01 X103.40264Y70.11207
G01 X103.31071Y70.16717
G01 X103.22462Y70.23102
G01 X103.1452Y70.303
G01 X103.07322Y70.38242
G01 X103.00937Y70.46851
G01 X102.95427Y70.56044
G01 X102.90844Y70.65733
G01 X102.87233Y70.75825
G01 X102.84629Y70.86222
G01 X102.83056Y70.96825
G01 X102.8253Y71.0753
G01 X102.8253Y73.2597
G01 X102.83056Y73.36675
G01 X102.8381Y73.41759
G01 X102.8381Y74.0199
G01 X101.6424Y75.2156
G01 X91.5876Y75.2156
G01 X90.3919Y74.0199
G01 X90.3919Y73.41759
G01 X90.39944Y73.36675
G01 X90.4047Y73.2597
G01 X90.4047Y71.0753
G01 X90.39944Y70.96825
G01 X90.38371Y70.86222
G01 X90.35767Y70.75825
G01 X90.32156Y70.65733
G01 X90.27573Y70.56044
G01 X90.22063Y70.46851
G01 X90.15678Y70.38242
G01 X90.0848Y70.303
G01 X90.00538Y70.23102
G01 X89.91929Y70.16717
G01 X89.82736Y70.11207
G01 X89.73047Y70.06624
G01 X89.62955Y70.03013
G01 X89.52558Y70.00409
G01 X89.41955Y69.98836
G01 X89.3125Y69.9831
G01 X89.20545Y69.98836
G01 X89.09942Y70.00409
G01 X88.99545Y70.03013
G01 X88.89453Y70.06624
G01 X88.79764Y70.11207
G01 X88.70571Y70.16717
G01 X88.61962Y70.23102
G01 X88.5402Y70.303
G01 X88.46822Y70.38242
G01 X88.40437Y70.46851
G01 X88.34927Y70.56044
G01 X88.30344Y70.65733
G01 X88.26733Y70.75825
G01 X88.24129Y70.86222
G01 X88.22556Y70.96825
G01 X88.2203Y71.0753
G01 X88.2203Y73.2597
G01 X88.22556Y73.36675
G01 X88.2331Y73.41759
G01 X88.2331Y77.8825
G01 X88.2333Y77.8853
G01 X88.2331Y77.8865
G01 X88.2335Y77.8886
G01 X88.2341Y77.8986
G01 X88.2366Y77.9081
G01 X88.2381Y77.9179
G01 X88.2405Y77.9235
G01 X88.242Y77.9294
G01 X88.2468Y77.938
G01 X88.2508Y77.9471
G01 X88.2545Y77.9519
G01 X88.2574Y77.9572
G01 X88.2642Y77.9644
G01 X88.2703Y77.9723
G01 X89.5403Y79.2423
G01 X89.5424Y79.2441
G01 X89.5431Y79.2451
G01 X89.5448Y79.2463
G01 X89.5523Y79.2529
G01 X89.5609Y79.2579
G01 X89.5689Y79.2637
G01 X89.5745Y79.266
G01 X89.5797Y79.269
G01 X89.5892Y79.2718
G01 X89.5984Y79.2754
G01 X89.6045Y79.2762
G01 X89.6103Y79.2779
G01 X89.6202Y79.2782
G01 X89.63Y79.2794
G01 X113.4425Y79.2794
G01 X113.4453Y79.2792
G01 X113.4465Y79.2794
G01 X113.4486Y79.279
G01 X113.4586Y79.2784
G01 X113.4681Y79.2759
G01 X113.4779Y79.2744
G01 X113.4835Y79.272
G01 X113.4894Y79.2705
G01 X113.498Y79.2657
G01 X113.5071Y79.2617
G01 X113.5119Y79.258
G01 X113.5172Y79.2551
G01 X113.5244Y79.2483
G01 X113.5323Y79.2423
G01 X117.0248Y75.7498
G01 X117.0266Y75.7476
G01 X117.0276Y75.7469
G01 X117.0288Y75.7452
G01 X117.0354Y75.7377
G01 X117.0404Y75.7291
G01 X117.0462Y75.7211
G01 X117.0485Y75.7155
G01 X117.0515Y75.7103
G01 X117.0543Y75.7008
G01 X117.0579Y75.6916
G01 X117.0587Y75.6855
G01 X117.0604Y75.6797
G01 X117.0607Y75.6698
G01 X117.0619Y75.66
G01 X117.0619Y74.04143
G01 X117.0723Y74.032
G01 X117.14428Y73.95258
G01 X117.20813Y73.86649
G01 X117.26323Y73.77456
G01 X117.30906Y73.67767
G01 X117.34517Y73.57675
G01 X117.36599Y73.49365
G01 X117.3674Y73.4914
G01 X117.3711Y73.4801
G01 X117.3754Y73.4691
G01 X117.3759Y73.465
G01 X117.3772Y73.4612
G01 X117.3779Y73.4493
G01 X117.3794Y73.4375
G01 X117.3794Y73.41759
G01 X117.38694Y73.36675
G01 X117.3922Y73.2597
G01 X117.3922Y71.0753
G01 X117.38694Y70.96825
G01 X117.3794Y70.91741
G01 X117.3794Y67.4576
G01 X118.8926Y65.9444
G01 X123.8674Y65.9444
G01 X125.3806Y67.4576
G01 X125.3806Y74.39
G01 X125.381Y74.396
G01 X125.3808Y74.3981
G01 X125.3812Y74.4001
G01 X125.3816Y74.4061
G01 X125.3846Y74.4176
G01 X125.3868Y74.4293
G01 X125.3885Y74.4329
G01 X125.3895Y74.4369
G01 X125.3953Y74.4473
G01 X125.4004Y74.4581
G01 X125.4029Y74.4612
G01 X125.4049Y74.4647
G01 X125.4131Y74.4734
G01 X125.4206Y74.4826
G01 X125.4239Y74.4849
G01 X125.4267Y74.4879
G01 X125.4368Y74.4943
G01 X125.4464Y74.5012
G01 X125.4501Y74.5027
G01 X125.4536Y74.5049
G01 X125.4649Y74.5086
G01 X125.4759Y74.5129
G01 X125.48Y74.5134
G01 X125.4838Y74.5147
G01 X125.4957Y74.5154
G01 X125.5075Y74.5169
G01 X131.8575Y74.5169
G01 X131.8635Y74.5165
G01 X131.8656Y74.5167
G01 X131.8676Y74.5163
G01 X131.8736Y74.5159
G01 X131.8851Y74.5129
G01 X131.8968Y74.5107
G01 X131.9004Y74.509
G01 X131.9044Y74.508
G01 X131.9148Y74.5022
G01 X131.9256Y74.4971
G01 X131.9287Y74.4946
G01 X131.9322Y74.4926
G01 X131.9409Y74.4845
G01 X131.9501Y74.4769
G01 X131.9524Y74.4736
G01 X131.9554Y74.4708
G01 X131.9618Y74.4607
G01 X131.9687Y74.4511
G01 X131.9702Y74.4474
G01 X131.9724Y74.4439
G01 X131.9761Y74.4326
G01 X131.9804Y74.4216
G01 X131.9809Y74.4175
G01 X131.9822Y74.4137
G01 X131.9829Y74.4018
G01 X131.9844Y74.39
G01 X131.9844Y73.41759
G01 X131.99194Y73.36675
G01 X131.9972Y73.2597
G01 X131.9972Y71.0753
G01 X131.99194Y70.96825
G01 X131.9844Y70.91741
G01 X131.9844Y60.42
G01 X131.9842Y60.4172
G01 X131.9844Y60.416
G01 X131.984Y60.4139
G01 X131.9834Y60.4039
G01 X131.9809Y60.3944
G01 X131.9794Y60.3846
G01 X131.977Y60.379
G01 X131.9755Y60.3731
G01 X131.9707Y60.3645
G01 X131.9667Y60.3554
G01 X131.963Y60.3506
G01 X131.9601Y60.3453
G01 X131.9533Y60.3381
G01 X131.9473Y60.3303
G01 X130.3598Y58.7428
G01 X130.3576Y58.7409
G01 X130.3569Y58.7399
G01 X130.3552Y58.7387
G01 X130.3477Y58.7321
G01 X130.3391Y58.7271
G01 X130.3311Y58.7213
G01 X130.3255Y58.719
G01 X130.3203Y58.716
G01 X130.3108Y58.7132
G01 X130.3016Y58.7096
G01 X130.2955Y58.7088
G01 X130.2897Y58.7071
G01 X130.2798Y58.7068
G01 X130.27Y58.7056
G01 X110.458Y58.7056
G01 X110.458Y56.9275
G01 X110.45555Y56.87771
G01 X110.44824Y56.82839
G01 X110.43613Y56.78004
G01 X110.41933Y56.7331
G01 X110.39802Y56.68803
G01 X110.37239Y56.64527
G01 X110.34269Y56.60523
G01 X110.30921Y56.56829
G01 X108.08671Y54.34579
G01 X108.04977Y54.31231
G01 X108.00973Y54.28261
G01 X107.96697Y54.25698
G01 X107.9219Y54.23567
G01 X107.87496Y54.21887
G01 X107.82661Y54.20676
G01 X107.77729Y54.19945
G01 X107.7275Y54.197
G01 X83.80792Y54.197
G01 X81.73421Y52.12329
G01 X81.69727Y52.08981
G01 X81.65723Y52.06011
G01 X81.61447Y52.03448
G01 X81.5694Y52.01317
G01 X81.52246Y51.99637
G01 X81.47411Y51.98426
G01 X81.42479Y51.97695
G01 X81.375Y51.9745
G01 X70.79042Y51.9745
G01 X69.5005Y50.68458
G01 X69.5005Y40.65125
G01 X69.52425Y40.63364
G01 X69.5852Y40.5784
G01 X69.64044Y40.51745
G01 X69.68944Y40.45138
G01 X69.73173Y40.38082
G01 X69.7669Y40.30647
G01 X69.79461Y40.22902
G01 X69.81459Y40.14922
G01 X69.82666Y40.06786
G01 X69.8307Y39.9857
G01 X69.8307Y38.3093
G01 X69.82666Y38.22714
G01 X69.81459Y38.14578
G01 X69.79461Y38.06598
G01 X69.7669Y37.98853
G01 X69.73173Y37.91418
G01 X69.68944Y37.84362
G01 X69.64044Y37.77755
G01 X69.5852Y37.7166
G01 X69.52425Y37.66136
G01 X69.45818Y37.61236
G01 X69.38762Y37.57007
G01 X69.31327Y37.5349
G01 X69.23582Y37.50719
G01 X69.15602Y37.48721
G01 X69.07466Y37.47514
G01 X68.9925Y37.4711
G01 X68.91034Y37.47514
G01 X68.82898Y37.48721
G01 X68.74918Y37.50719
G01 X68.67173Y37.5349
G01 X68.59738Y37.57007
G01 X68.52682Y37.61236
G01 X68.46075Y37.66136
G01 X68.3998Y37.7166
G01 X68.34456Y37.77755
G01 X68.29556Y37.84362
G01 X68.25327Y37.91418
G01 X68.2181Y37.98853
G01 X68.19039Y38.06598
G01 X68.17041Y38.14578
G01 X68.15834Y38.22714
G01 X68.1543Y38.3093
G01 X68.1543Y39.9857
G01 X68.15834Y40.06786
G01 X68.17041Y40.14922
G01 X68.19039Y40.22902
G01 X68.2181Y40.30647
G01 X68.25327Y40.38082
G01 X68.29556Y40.45138
G01 X68.34456Y40.51745
G01 X68.3998Y40.5784
G01 X68.46075Y40.63364
G01 X68.4845Y40.65125
G01 X68.4845Y50.895
G01 X68.48695Y50.94479
G01 X68.49426Y50.99411
G01 X68.50637Y51.04246
G01 X68.52317Y51.0894
G01 X68.54448Y51.13447
G01 X68.57011Y51.17723
G01 X68.59981Y51.21727
G01 X68.63329Y51.25421
G01 X70.22079Y52.84171
G01 X70.25773Y52.87519
G01 X70.29777Y52.90489
G01 X70.34053Y52.93052
G01 X70.3856Y52.95183
G01 X70.43254Y52.96863
G01 X70.48089Y52.98074
G01 X70.53021Y52.98805
G01 X70.58Y52.9905
G01 X81.16458Y52.9905
G01 X83.23829Y55.06421
G01 X83.27523Y55.09769
G01 X83.31527Y55.12739
G01 X83.35803Y55.15302
G01 X83.4031Y55.17433
G01 X83.45004Y55.19113
G01 X83.49839Y55.20324
G01 X83.54771Y55.21055
G01 X83.5975Y55.213
G01 X107.51708Y55.213
G01 X109.442Y57.13792
G01 X109.442Y58.7056
G01 X109.315Y58.7056
G01 X109.309Y58.706
G01 X109.307Y58.7058
G01 X109.305Y58.7062
G01 X109.2989Y58.7066
G01 X109.2874Y58.7096
G01 X109.2757Y58.7118
G01 X109.2721Y58.7135
G01 X109.2681Y58.7145
G01 X109.2577Y58.7203
G01 X109.2469Y58.7254
G01 X109.2438Y58.7279
G01 X109.2403Y58.7299
G01 X109.2316Y58.7381
G01 X109.2224Y58.7456
G01 X109.2201Y58.7489
G01 X109.2171Y58.7517
G01 X109.2108Y58.7618
G01 X109.2038Y58.7714
G01 X109.2023Y58.7751
G01 X109.2001Y58.7786
G01 X109.1964Y58.7899
G01 X109.1921Y58.8009
G01 X109.1916Y58.805
G01 X109.1903Y58.8088
G01 X109.1896Y58.8207
G01 X109.1881Y58.8325
G01 X109.1881Y74.0199
G01 X107.9924Y75.2156
G01 X106.1926Y75.2156
G01 X104.9969Y74.0199
G01 X104.9969Y73.41759
G01 X105.00444Y73.36675
G01 X105.0097Y73.2597
G01 X105.0097Y71.0753
G01 X105.00444Y70.96825
G01 X104.98871Y70.86222
G01 X104.96267Y70.75825
G01 X104.92656Y70.65733
G01 X104.88073Y70.56044
G01 X104.88073Y70.56044
M5
G01 X57.0387Y75.7211
M3
G01 X57.041Y75.7155
G01 X57.044Y75.7103
G01 X57.0468Y75.7008
G01 X57.0504Y75.6916
G01 X57.0512Y75.6855
G01 X57.0529Y75.6797
G01 X57.0532Y75.6698
G01 X57.0544Y75.66
G01 X57.0544Y74.04143
G01 X57.0648Y74.032
G01 X57.13678Y73.95258
G01 X57.20063Y73.86649
G01 X57.25573Y73.77456
G01 X57.30156Y73.67767
G01 X57.33767Y73.57675
G01 X57.35849Y73.49365
G01 X57.3599Y73.4914
G01 X57.3636Y73.4801
G01 X57.3679Y73.4691
G01 X57.3684Y73.465
G01 X57.3697Y73.4612
G01 X57.3704Y73.4493
G01 X57.3719Y73.4375
G01 X57.3719Y73.41759
G01 X57.37944Y73.36675
G01 X57.3847Y73.2597
G01 X57.3847Y71.0753
G01 X57.37944Y70.96825
G01 X57.3719Y70.91741
G01 X57.3719Y67.4576
G01 X58.8851Y65.9444
G01 X63.8599Y65.9444
G01 X65.3731Y67.4576
G01 X65.3731Y74.39
G01 X65.3735Y74.396
G01 X65.3733Y74.3981
G01 X65.3737Y74.4001
G01 X65.3741Y74.4061
G01 X65.3771Y74.4176
G01 X65.3793Y74.4293
G01 X65.381Y74.4329
G01 X65.382Y74.4369
G01 X65.3878Y74.4473
G01 X65.3929Y74.4581
G01 X65.3954Y74.4612
G01 X65.3974Y74.4647
G01 X65.4056Y74.4734
G01 X65.4131Y74.4826
G01 X65.4164Y74.4849
G01 X65.4192Y74.4879
G01 X65.4293Y74.4943
G01 X65.4389Y74.5012
G01 X65.4426Y74.5027
G01 X65.4461Y74.5049
G01 X65.4574Y74.5086
G01 X65.4684Y74.5129
G01 X65.4725Y74.5134
G01 X65.4763Y74.5147
G01 X65.4882Y74.5154
G01 X65.5Y74.5169
G01 X71.85Y74.5169
G01 X71.856Y74.5165
G01 X71.8581Y74.5167
G01 X71.8601Y74.5163
G01 X71.8661Y74.5159
G01 X71.8776Y74.5129
G01 X71.8893Y74.5107
G01 X71.8929Y74.509
G01 X71.8969Y74.508
G01 X71.9073Y74.5022
G01 X71.9181Y74.4971
G01 X71.9212Y74.4946
G01 X71.9247Y74.4926
G01 X71.9334Y74.4845
G01 X71.9426Y74.4769
G01 X71.9449Y74.4736
G01 X71.9479Y74.4708
G01 X71.9543Y74.4607
G01 X71.9612Y74.4511
G01 X71.9627Y74.4474
G01 X71.9649Y74.4439
G01 X71.9686Y74.4326
G01 X71.9729Y74.4216
G01 X71.9734Y74.4175
G01 X71.9747Y74.4137
G01 X71.9754Y74.4018
G01 X71.9769Y74.39
G01 X71.9769Y73.41759
G01 X71.98444Y73.36675
G01 X71.9897Y73.2597
G01 X71.9897Y71.0753
G01 X71.98444Y70.96825
G01 X71.9769Y70.91741
G01 X71.9769Y64.5475
G01 X71.9767Y64.5447
G01 X71.9769Y64.5435
G01 X71.9765Y64.5414
G01 X71.9759Y64.5314
G01 X71.9734Y64.5219
G01 X71.9719Y64.5121
G01 X71.9695Y64.5065
G01 X71.968Y64.5006
G01 X71.9632Y64.492
G01 X71.9592Y64.4829
G01 X71.9555Y64.4781
G01 X71.9526Y64.4728
G01 X71.9458Y64.4656
G01 X71.9398Y64.4578
G01 X70.3523Y62.8703
G01 X70.3501Y62.8684
G01 X70.3494Y62.8674
G01 X70.3477Y62.8662
G01 X70.3402Y62.8596
G01 X70.3316Y62.8546
G01 X70.3236Y62.8488
G01 X70.318Y62.8465
G01 X70.3128Y62.8435
G01 X70.3033Y62.8407
G01 X70.2941Y62.8371
G01 X70.288Y62.8363
G01 X70.2822Y62.8346
G01 X70.2723Y62.8343
G01 X70.2625Y62.8331
G01 X50.5775Y62.8331
G01 X50.5747Y62.8333
G01 X50.5735Y62.8331
G01 X50.5714Y62.8335
G01 X50.5614Y62.8341
G01 X50.5519Y62.8366
G01 X50.5421Y62.8381
G01 X50.5365Y62.8405
G01 X50.5306Y62.842
G01 X50.522Y62.8468
G01 X50.5129Y62.8508
G01 X50.5081Y62.8545
G01 X50.5028Y62.8574
G01 X50.4956Y62.8642
G01 X50.4878Y62.8703
G01 X48.9003Y64.4578
G01 X48.8984Y64.4599
G01 X48.8974Y64.4606
G01 X48.8962Y64.4623
G01 X48.8896Y64.4698
G01 X48.8846Y64.4784
G01 X48.8788Y64.4864
G01 X48.8765Y64.492
G01 X48.8735Y64.4972
G01 X48.8707Y64.5067
G01 X48.8671Y64.5159
G01 X48.8663Y64.522
G01 X48.8646Y64.5278
G01 X48.8643Y64.5377
G01 X48.8631Y64.5475
G01 X48.8631Y74.0199
G01 X47.6674Y75.2156
G01 X45.8676Y75.2156
G01 X44.6719Y74.0199
G01 X44.6719Y73.41759
G01 X44.67944Y73.36675
G01 X44.6847Y73.2597
G01 X44.6847Y71.0753
G01 X44.67944Y70.96825
G01 X44.66371Y70.86222
G01 X44.63767Y70.75825
G01 X44.60156Y70.65733
G01 X44.55573Y70.56044
G01 X44.50063Y70.46851
G01 X44.43678Y70.38242
G01 X44.3648Y70.303
G01 X44.28538Y70.23102
G01 X44.19929Y70.16717
G01 X44.10736Y70.11207
G01 X44.01047Y70.06624
G01 X43.90955Y70.03013
G01 X43.80558Y70.00409
G01 X43.69955Y69.98836
G01 X43.5925Y69.9831
G01 X43.48545Y69.98836
G01 X43.37942Y70.00409
G01 X43.27545Y70.03013
G01 X43.17453Y70.06624
G01 X43.07764Y70.11207
G01 X42.98571Y70.16717
G01 X42.89962Y70.23102
G01 X42.8202Y70.303
G01 X42.74822Y70.38242
G01 X42.68437Y70.46851
G01 X42.62927Y70.56044
G01 X42.58344Y70.65733
G01 X42.54733Y70.75825
G01 X42.52129Y70.86222
G01 X42.50556Y70.96825
G01 X42.5003Y71.0753
G01 X42.5003Y73.2597
G01 X42.50556Y73.36675
G01 X42.5131Y73.41759
G01 X42.5131Y74.0199
G01 X41.3174Y75.2156
G01 X31.2626Y75.2156
G01 X30.0669Y74.0199
G01 X30.0669Y73.41759
G01 X30.07444Y73.36675
G01 X30.0797Y73.2597
G01 X30.0797Y71.0753
G01 X30.07444Y70.96825
G01 X30.05871Y70.86222
G01 X30.03267Y70.75825
G01 X29.99656Y70.65733
G01 X29.95073Y70.56044
G01 X29.89563Y70.46851
G01 X29.83178Y70.38242
G01 X29.7598Y70.303
G01 X29.68038Y70.23102
G01 X29.59429Y70.16717
G01 X29.50236Y70.11207
G01 X29.40547Y70.06624
G01 X29.30455Y70.03013
G01 X29.20058Y70.00409
G01 X29.09455Y69.98836
G01 X28.9875Y69.9831
G01 X28.88045Y69.98836
G01 X28.77442Y70.00409
G01 X28.67045Y70.03013
G01 X28.56953Y70.06624
G01 X28.47264Y70.11207
G01 X28.38071Y70.16717
G01 X28.29462Y70.23102
G01 X28.2152Y70.303
G01 X28.14322Y70.38242
G01 X28.07937Y70.46851
G01 X28.02427Y70.56044
G01 X27.97844Y70.65733
G01 X27.94233Y70.75825
G01 X27.91629Y70.86222
G01 X27.90056Y70.96825
G01 X27.8953Y71.0753
G01 X27.8953Y73.2597
G01 X27.90056Y73.36675
G01 X27.9081Y73.41759
G01 X27.9081Y77.8825
G01 X27.9083Y77.8853
G01 X27.9081Y77.8865
G01 X27.9085Y77.8886
G01 X27.9091Y77.8986
G01 X27.9116Y77.9081
G01 X27.9131Y77.9179
G01 X27.9155Y77.9235
G01 X27.917Y77.9294
G01 X27.9218Y77.938
G01 X27.9258Y77.9471
G01 X27.9295Y77.9519
G01 X27.9324Y77.9572
G01 X27.9392Y77.9644
G01 X27.9453Y77.9723
G01 X29.2153Y79.2423
G01 X29.2174Y79.2441
G01 X29.2181Y79.2451
G01 X29.2198Y79.2463
G01 X29.2273Y79.2529
G01 X29.2359Y79.2579
G01 X29.2439Y79.2637
G01 X29.2495Y79.266
G01 X29.2547Y79.269
G01 X29.2642Y79.2718
G01 X29.2734Y79.2754
G01 X29.2795Y79.2762
G01 X29.2853Y79.2779
G01 X29.2952Y79.2782
G01 X29.305Y79.2794
G01 X53.435Y79.2794
G01 X53.4378Y79.2792
G01 X53.439Y79.2794
G01 X53.4411Y79.279
G01 X53.4511Y79.2784
G01 X53.4606Y79.2759
G01 X53.4704Y79.2744
G01 X53.476Y79.272
G01 X53.4819Y79.2705
G01 X53.4905Y79.2657
G01 X53.4996Y79.2617
G01 X53.5044Y79.258
G01 X53.5097Y79.2551
G01 X53.5169Y79.2483
G01 X53.5248Y79.2423
G01 X57.0173Y75.7498
G01 X57.0191Y75.7476
G01 X57.0201Y75.7469
G01 X57.0213Y75.7452
G01 X57.0279Y75.7377
G01 X57.0329Y75.7291
G01 X57.0387Y75.7211
G01 X57.0387Y75.7211
M5
G01 X8.0325Y20.9231
M3
G01 X8.0297Y20.9233
G01 X8.0285Y20.9231
G01 X8.0264Y20.9235
G01 X8.0164Y20.9241
G01 X8.0069Y20.9266
G01 X7.9971Y20.9281
G01 X7.9915Y20.9305
G01 X7.9856Y20.932
G01 X7.977Y20.9368
G01 X7.9679Y20.9408
G01 X7.9631Y20.9445
G01 X7.9578Y20.9474
G01 X7.9506Y20.9542
G01 X7.9427Y20.9603
G01 X6.9902Y21.9128
G01 X6.9884Y21.9149
G01 X6.9874Y21.9156
G01 X6.9862Y21.9173
G01 X6.9842Y21.9196
G01 X6.984Y21.9198
G01 X6.9839Y21.9199
G01 X6.9796Y21.9248
G01 X6.9746Y21.9334
G01 X6.9688Y21.9414
G01 X6.9665Y21.947
G01 X6.9635Y21.9522
G01 X6.9607Y21.9617
G01 X6.9571Y21.9709
G01 X6.9563Y21.977
G01 X6.9546Y21.9828
G01 X6.9543Y21.9927
G01 X6.9531Y22.0025
G01 X6.9531Y27.4
G01 X6.9533Y27.4028
G01 X6.9531Y27.404
G01 X6.9535Y27.4061
G01 X6.9541Y27.4161
G01 X6.9566Y27.4256
G01 X6.9581Y27.4354
G01 X6.9605Y27.441
G01 X6.962Y27.4469
G01 X6.9668Y27.4555
G01 X6.9708Y27.4646
G01 X6.9745Y27.4694
G01 X6.9774Y27.4747
G01 X6.9842Y27.4819
G01 X6.9902Y27.4898
G01 X8.5777Y29.0773
G01 X8.5799Y29.0791
G01 X8.5806Y29.0801
G01 X8.5823Y29.0813
G01 X8.5898Y29.0879
G01 X8.5984Y29.0929
G01 X8.6064Y29.0987
G01 X8.612Y29.101
G01 X8.6172Y29.104
G01 X8.6267Y29.1068
G01 X8.6359Y29.1104
G01 X8.642Y29.1112
G01 X8.6478Y29.1129
G01 X8.6577Y29.1132
G01 X8.6675Y29.1144
G01 X20.415Y29.1144
G01 X20.4178Y29.1142
G01 X20.419Y29.1144
G01 X20.4211Y29.114
G01 X20.4311Y29.1134
G01 X20.4406Y29.1109
G01 X20.4504Y29.1094
G01 X20.456Y29.107
G01 X20.4619Y29.1055
G01 X20.4705Y29.1007
G01 X20.4796Y29.0967
G01 X20.4844Y29.093
G01 X20.4897Y29.0901
G01 X20.4969Y29.0833
G01 X20.5048Y29.0773
G01 X22.7273Y26.8548
G01 X22.7291Y26.8526
G01 X22.7301Y26.8519
G01 X22.7313Y26.8502
G01 X22.7379Y26.8427
G01 X22.7429Y26.8341
G01 X22.7487Y26.8261
G01 X22.751Y26.8205
G01 X22.754Y26.8153
G01 X22.7568Y26.8058
G01 X22.7604Y26.7966
G01 X22.7612Y26.7905
G01 X22.7629Y26.7847
G01 X22.7632Y26.7748
G01 X22.7644Y26.765
G01 X22.7644Y21.05
G01 X22.7642Y21.0472
G01 X22.7644Y21.046
