; This gcode is generated by my specialised python script for my PCB manufacturer project :))

; Machine Initialization Sequence...

G21 ; to set metric units
G90 ; to set absolute mode , G91 for incremental mode
G94 ; To set the active feed rate mode to units per minute mode

M5 ; disabling spindle PWM
C0 ; Choosing the empty tool slot in the multiplexer circuits

B1 ; Turn ON Machine

$H ; Homing :)
G10 P0 L20 X0.0Y0.0Z0.0 ; Force Reset current coordinates after homing


; The following gcode is the PCB trace laser marking gcode

M5 ; Being extra sure it won't light up before activation

; Getting and Activating Tool-1, The Tool.Laser
G00X165.0Y0.0Z10.5 ; Go to Tool-1 Home Pos
G00X188 ; Enter Female Kinematic Mount Home Pos
A1 ; Latch on Kinematic Mount
G4 P5 ; Wait for Kinematic Mount to fully attach
G00X92 ; Exit Female Kinematic Mount Home Pos
#TODO X0.0Y0.0Z0.0 ;  ;Add tool offset coordinate
C1 ; Choosing tool 1 in the choose demultiplexer circuits

F400 ; setting default feedrate

G00Z16 ; Moving to correct focal length Z position

S200 ; Setting Laser Power

; Number of passes: 1

; Pass number: 1
G01 X18.96537Y8.40607
M3
G01 X18.98445Y8.48223
G01 X19.0109Y8.55615
G01 X19.04446Y8.62712
G01 X19.08482Y8.69446
G01 X19.13159Y8.75751
G01 X19.18431Y8.81569
G01 X19.24249Y8.86841
G01 X19.30554Y8.91518
G01 X19.37288Y8.95554
G01 X19.44385Y8.9891
G01 X19.51777Y9.01555
G01 X19.59393Y9.03463
G01 X19.67159Y9.04615
G01 X19.75Y9.05
G01 X19.82841Y9.04615
G01 X19.90607Y9.03463
G01 X19.95635Y9.02203
G01 X19.97Y9.03569
G01 X19.97Y10.05818
G01 X19.92554Y10.08482
G01 X19.86249Y10.13159
G01 X19.80431Y10.18431
G01 X19.75159Y10.24249
G01 X19.70482Y10.30554
G01 X19.66446Y10.37288
G01 X19.6309Y10.44385
G01 X19.60445Y10.51777
G01 X19.58537Y10.59393
G01 X19.57385Y10.67159
G01 X19.57Y10.75
G01 X19.57385Y10.82841
G01 X19.58537Y10.90607
G01 X19.60445Y10.98223
G01 X19.6309Y11.05615
G01 X19.66446Y11.12712
G01 X19.70482Y11.19446
G01 X19.75159Y11.25751
G01 X19.80431Y11.31569
G01 X19.86249Y11.36841
G01 X19.92554Y11.41518
G01 X19.97Y11.44182
G01 X19.97Y13.05818
G01 X19.92554Y13.08482
G01 X19.86249Y13.13159
G01 X19.80431Y13.18431
G01 X19.75159Y13.24249
G01 X19.70482Y13.30554
G01 X19.66446Y13.37288
G01 X19.6309Y13.44385
G01 X19.60445Y13.51777
G01 X19.58537Y13.59393
G01 X19.57385Y13.67159
G01 X19.57Y13.75
G01 X19.57385Y13.82841
G01 X19.58537Y13.90607
G01 X19.60445Y13.98223
G01 X19.6309Y14.05615
G01 X19.66446Y14.12712
G01 X19.70482Y14.19446
G01 X19.75159Y14.25751
G01 X19.80431Y14.31569
G01 X19.86249Y14.36841
G01 X19.92554Y14.41518
G01 X19.99288Y14.45554
G01 X20.06385Y14.4891
G01 X20.13777Y14.51555
G01 X20.21393Y14.53463
G01 X20.29159Y14.54615
G01 X20.37Y14.55
G01 X20.44841Y14.54615
G01 X20.52607Y14.53463
G01 X20.57635Y14.52203
G01 X20.90316Y14.84884
G01 X20.93224Y14.8752
G01 X20.96377Y14.89859
G01 X20.99744Y14.91877
G01 X21.03293Y14.93555
G01 X21.06989Y14.94878
G01 X21.10796Y14.95831
G01 X21.14679Y14.96407
G01 X21.186Y14.966
G01 X21.81018Y14.966
G01 X21.83682Y15.01046
G01 X21.88359Y15.07351
G01 X21.93631Y15.13169
G01 X21.99449Y15.18441
G01 X22.05754Y15.23118
G01 X22.12488Y15.27154
G01 X22.19585Y15.3051
G01 X22.26977Y15.33155
G01 X22.34593Y15.35063
G01 X22.42359Y15.36215
G01 X22.502Y15.366
G01 X22.58041Y15.36215
G01 X22.65807Y15.35063
G01 X22.73423Y15.33155
G01 X22.80815Y15.3051
G01 X22.87912Y15.27154
G01 X22.94646Y15.23118
G01 X23.00951Y15.18441
G01 X23.06769Y15.13169
G01 X23.12041Y15.07351
G01 X23.16718Y15.01046
G01 X23.20754Y14.94312
G01 X23.2411Y14.87215
G01 X23.26755Y14.79823
G01 X23.28663Y14.72207
G01 X23.29815Y14.64441
G01 X23.302Y14.566
G01 X23.29815Y14.48759
G01 X23.28663Y14.40993
G01 X23.26755Y14.33377
G01 X23.2411Y14.25985
G01 X23.20754Y14.18888
G01 X23.16718Y14.12154
G01 X23.12041Y14.05849
G01 X23.06769Y14.00031
G01 X23.00951Y13.94759
G01 X22.94646Y13.90082
G01 X22.87912Y13.86046
G01 X22.80815Y13.8269
G01 X22.73423Y13.80045
G01 X22.65807Y13.78137
G01 X22.58041Y13.76985
G01 X22.502Y13.766
G01 X22.42359Y13.76985
G01 X22.34593Y13.78137
G01 X22.26977Y13.80045
G01 X22.19585Y13.8269
G01 X22.12488Y13.86046
G01 X22.05754Y13.90082
G01 X21.99449Y13.94759
G01 X21.93631Y14.00031
G01 X21.88359Y14.05849
G01 X21.83682Y14.12154
G01 X21.81018Y14.166
G01 X21.35169Y14.166
G01 X21.14203Y13.95635
G01 X21.15463Y13.90607
G01 X21.16615Y13.82841
G01 X21.17Y13.75
G01 X21.16615Y13.67159
G01 X21.15463Y13.59393
G01 X21.13555Y13.51777
G01 X21.1091Y13.44385
G01 X21.07554Y13.37288
G01 X21.03518Y13.30554
G01 X20.98841Y13.24249
G01 X20.93569Y13.18431
G01 X20.87751Y13.13159
G01 X20.81446Y13.08482
G01 X20.77Y13.05818
G01 X20.77Y11.44182
G01 X20.81446Y11.41518
G01 X20.87751Y11.36841
G01 X20.93569Y11.31569
G01 X20.98841Y11.25751
G01 X21.03518Y11.19446
G01 X21.07554Y11.12712
G01 X21.1091Y11.05615
G01 X21.13555Y10.98223
G01 X21.15463Y10.90607
G01 X21.16615Y10.82841
G01 X21.17Y10.75
G01 X21.16615Y10.67159
G01 X21.15463Y10.59393
G01 X21.13555Y10.51777
G01 X21.1091Y10.44385
G01 X21.07554Y10.37288
G01 X21.03518Y10.30554
G01 X20.98841Y10.24249
G01 X20.93569Y10.18431
G01 X20.87751Y10.13159
G01 X20.81446Y10.08482
G01 X20.77Y10.05818
G01 X20.77Y8.87
G01 X20.77Y8.87
G01 X20.76807Y8.83079
G01 X20.76231Y8.79196
G01 X20.75278Y8.75389
G01 X20.75041Y8.74728
G01 X20.73955Y8.71693
G01 X20.72673Y8.68982
G01 X20.72277Y8.68144
G01 X20.70259Y8.64777
G01 X20.6792Y8.61624
G01 X20.65284Y8.58716
G01 X20.52203Y8.45635
G01 X20.53463Y8.40607
G01 X20.54615Y8.32841
G01 X20.55Y8.25
G01 X20.54615Y8.17159
G01 X20.53463Y8.09393
G01 X20.51555Y8.01777
G01 X20.4891Y7.94385
G01 X20.45554Y7.87288
G01 X20.41518Y7.80554
G01 X20.36841Y7.74249
G01 X20.31569Y7.68431
G01 X20.25751Y7.63159
G01 X20.19446Y7.58482
G01 X20.12712Y7.54446
G01 X20.05615Y7.5109
G01 X19.98223Y7.48445
G01 X19.90607Y7.46537
G01 X19.82841Y7.45385
G01 X19.75Y7.45
G01 X19.67159Y7.45385
G01 X19.59393Y7.46537
G01 X19.54365Y7.47797
G01 X17.63284Y5.56716
G01 X17.6183Y5.55398
G01 X17.60376Y5.5408
G01 X17.60376Y5.5408
G01 X17.60376Y5.5408
G01 X17.58799Y5.5291
G01 X17.57223Y5.51741
G01 X17.57223Y5.51741
G01 X17.57223Y5.51741
G01 X17.55539Y5.50732
G01 X17.53856Y5.49723
G01 X17.53856Y5.49723
G01 X17.53856Y5.49723
G01 X17.52082Y5.48884
G01 X17.50307Y5.48045
G01 X17.50307Y5.48045
G01 X17.50307Y5.48045
G01 X17.48459Y5.47384
G01 X17.46611Y5.46722
G01 X17.46611Y5.46722
G01 X17.46611Y5.46722
G01 X17.44708Y5.46245
G01 X17.42804Y5.45769
G01 X17.42804Y5.45769
G01 X17.42804Y5.45769
G01 X17.40862Y5.45481
G01 X17.38921Y5.45193
G01 X17.38921Y5.45193
G01 X17.38921Y5.45193
G01 X17.3696Y5.45096
G01 X17.35Y5.45
G01 X10.81018Y5.45
G01 X10.81018Y5.45
G01 X10.81018Y5.45
G01 X10.79057Y5.45096
G01 X10.77097Y5.45193
G01 X10.77097Y5.45193
G01 X10.77097Y5.45193
G01 X10.75156Y5.4548
G01 X10.73214Y5.45768
G01 X10.73214Y5.45768
G01 X10.73214Y5.45768
G01 X10.7131Y5.46245
G01 X10.69406Y5.46722
G01 X10.69406Y5.46722
G01 X10.69406Y5.46722
G01 X10.67558Y5.47384
G01 X10.6571Y5.48045
G01 X10.6571Y5.48045
G01 X10.6571Y5.48045
G01 X10.63936Y5.48884
G01 X10.62162Y5.49723
G01 X10.62162Y5.49723
G01 X10.62162Y5.49723
G01 X10.60478Y5.50732
G01 X10.58795Y5.51741
G01 X10.58795Y5.51741
G01 X10.58795Y5.51741
G01 X10.57218Y5.5291
G01 X10.55642Y5.54079
G01 X10.55642Y5.54079
G01 X10.55642Y5.54079
G01 X10.54188Y5.55398
G01 X10.52733Y5.56716
G01 X10.52733Y5.56716
G01 X10.52733Y5.56716
G01 X6.64216Y9.45233
G01 X6.6158Y9.48142
G01 X6.59241Y9.51295
G01 X6.57223Y9.54662
G01 X6.55545Y9.5821
G01 X6.54222Y9.61906
G01 X6.53269Y9.65714
G01 X6.52693Y9.69597
G01 X6.525Y9.73518
G01 X6.525Y13.175
G01 X6.52693Y13.21421
G01 X6.53269Y13.25304
G01 X6.54222Y13.29111
G01 X6.55545Y13.32807
G01 X6.57223Y13.36356
G01 X6.59241Y13.39723
G01 X6.6158Y13.42876
G01 X6.64216Y13.45784
G01 X6.64216Y13.45784
G01 X8.775Y15.59069
G01 X8.775Y16.35
G01 X10.225Y16.35
G01 X10.225Y15.15
G01 X9.46569Y15.15
G01 X7.325Y13.00931
G01 X7.325Y9.90086
G01 X10.97586Y6.25
G01 X17.18431Y6.25
G01 X18.97797Y8.04365
G01 X18.96537Y8.09393
G01 X18.95385Y8.17159
G01 X18.95Y8.25
G01 X18.95385Y8.32841
G01 X18.96537Y8.40607
G01 X18.96537Y8.40607
M5
G01 X9.95028Y14.0353
M3
G01 X10.02569Y13.99963
G01 X10.09723Y13.95675
G01 X10.16423Y13.90706
G01 X10.22604Y13.85104
G01 X10.28206Y13.78923
G01 X10.33175Y13.72223
G01 X10.37463Y13.65069
G01 X10.4103Y13.57528
G01 X10.4384Y13.49674
G01 X10.45867Y13.41583
G01 X10.47091Y13.33331
G01 X10.475Y13.25
G01 X10.47091Y13.16669
G01 X10.45867Y13.08417
G01 X10.4384Y13.00326
G01 X10.4103Y12.92472
G01 X10.37463Y12.84931
G01 X10.33175Y12.77777
G01 X10.28206Y12.71077
G01 X10.22604Y12.64896
G01 X10.16423Y12.59294
G01 X10.09723Y12.54325
G01 X10.02569Y12.50037
G01 X9.95028Y12.4647
G01 X9.87174Y12.4366
G01 X9.79083Y12.41633
G01 X9.70831Y12.40409
G01 X9.375Y12.4
G01 X9.29169Y12.40409
G01 X9.22907Y12.41338
G01 X8.325Y11.50931
G01 X8.325Y10.31508
G01 X11.39008Y7.25
G01 X15.18431Y7.25
G01 X15.97797Y8.04365
G01 X15.96537Y8.09393
G01 X15.95385Y8.17159
G01 X15.95Y8.25
G01 X15.95385Y8.32841
G01 X15.96537Y8.40607
G01 X15.98445Y8.48223
G01 X16.0109Y8.55615
G01 X16.04446Y8.62712
G01 X16.08482Y8.69446
G01 X16.13159Y8.75751
G01 X16.18431Y8.81569
G01 X16.24249Y8.86841
G01 X16.30554Y8.91518
G01 X16.35Y8.94182
G01 X16.35Y16.25
G01 X16.35193Y16.28921
G01 X16.35769Y16.32804
G01 X16.36722Y16.36611
G01 X16.38045Y16.40307
G01 X16.39723Y16.43856
G01 X16.41741Y16.47223
G01 X16.4408Y16.50376
G01 X16.46716Y16.53284
G01 X16.96716Y17.03284
G01 X16.99624Y17.0592
G01 X17.02777Y17.08259
G01 X17.06144Y17.10277
G01 X17.09693Y17.11955
G01 X17.13389Y17.13278
G01 X17.17196Y17.14231
G01 X17.21079Y17.14807
G01 X17.25Y17.15
G01 X19.67818Y17.15
G01 X19.70482Y17.19446
G01 X19.75159Y17.25751
G01 X19.80431Y17.31569
G01 X19.86249Y17.36841
G01 X19.92554Y17.41518
G01 X19.97Y17.44182
G01 X19.97Y19.05818
G01 X19.92554Y19.08482
G01 X19.86249Y19.13159
G01 X19.80431Y19.18431
G01 X19.75159Y19.24249
G01 X19.70482Y19.30554
G01 X19.66446Y19.37288
G01 X19.6309Y19.44385
G01 X19.60445Y19.51777
G01 X19.58537Y19.59393
G01 X19.57385Y19.67159
G01 X19.57Y19.75
G01 X19.57385Y19.82841
G01 X19.58537Y19.90607
G01 X19.60445Y19.98223
G01 X19.6309Y20.05615
G01 X19.66446Y20.12712
G01 X19.70482Y20.19446
G01 X19.75159Y20.25751
G01 X19.80431Y20.31569
G01 X19.86249Y20.36841
G01 X19.92554Y20.41518
G01 X19.99288Y20.45554
G01 X20.06385Y20.4891
G01 X20.13777Y20.51555
G01 X20.21393Y20.53463
G01 X20.29159Y20.54615
G01 X20.37Y20.55
G01 X20.44841Y20.54615
G01 X20.52607Y20.53463
G01 X20.60223Y20.51555
G01 X20.60324Y20.51519
G01 X20.62093Y20.52355
G01 X20.65789Y20.53678
G01 X20.69596Y20.54631
G01 X20.73479Y20.55207
G01 X20.774Y20.554
G01 X21.81018Y20.554
G01 X21.83682Y20.59846
G01 X21.88359Y20.66151
G01 X21.93631Y20.71969
G01 X21.99449Y20.77241
G01 X22.05754Y20.81918
G01 X22.12488Y20.85954
G01 X22.19585Y20.8931
G01 X22.26977Y20.91955
G01 X22.34593Y20.93863
G01 X22.42359Y20.95015
G01 X22.502Y20.954
G01 X22.58041Y20.95015
G01 X22.65807Y20.93863
G01 X22.73423Y20.91955
G01 X22.80815Y20.8931
G01 X22.87912Y20.85954
G01 X22.94646Y20.81918
G01 X23.00951Y20.77241
G01 X23.06769Y20.71969
G01 X23.12041Y20.66151
G01 X23.16718Y20.59846
G01 X23.20754Y20.53112
G01 X23.2411Y20.46015
G01 X23.26755Y20.38623
G01 X23.28663Y20.31007
G01 X23.29815Y20.23241
G01 X23.302Y20.154
G01 X23.29815Y20.07559
G01 X23.28663Y19.99793
G01 X23.26755Y19.92177
G01 X23.2411Y19.84785
G01 X23.20754Y19.77688
G01 X23.16718Y19.70954
G01 X23.12041Y19.64649
G01 X23.06769Y19.58831
G01 X23.00951Y19.53559
G01 X22.94646Y19.48882
G01 X22.87912Y19.44846
G01 X22.80815Y19.4149
G01 X22.73423Y19.38845
G01 X22.65807Y19.36937
G01 X22.58041Y19.35785
G01 X22.502Y19.354
G01 X22.42359Y19.35785
G01 X22.34593Y19.36937
G01 X22.26977Y19.38845
G01 X22.19585Y19.4149
G01 X22.12488Y19.44846
G01 X22.05754Y19.48882
G01 X21.99449Y19.53559
G01 X21.93631Y19.58831
G01 X21.88359Y19.64649
G01 X21.83682Y19.70954
G01 X21.81018Y19.754
G01 X21.1698Y19.754
G01 X21.17Y19.75
G01 X21.16615Y19.67159
G01 X21.15463Y19.59393
G01 X21.13555Y19.51777
G01 X21.1091Y19.44385
G01 X21.07554Y19.37288
G01 X21.03518Y19.30554
G01 X20.98841Y19.24249
G01 X20.93569Y19.18431
G01 X20.87751Y19.13159
G01 X20.81446Y19.08482
G01 X20.77Y19.05818
G01 X20.77Y17.44182
G01 X20.81446Y17.41518
G01 X20.87751Y17.36841
G01 X20.93569Y17.31569
G01 X20.98841Y17.25751
G01 X21.03518Y17.19446
G01 X21.07554Y17.12712
G01 X21.1091Y17.05615
G01 X21.13555Y16.98223
G01 X21.15463Y16.90607
G01 X21.16615Y16.82841
G01 X21.17Y16.75
G01 X21.16615Y16.67159
G01 X21.15463Y16.59393
G01 X21.13555Y16.51777
G01 X21.1091Y16.44385
G01 X21.07554Y16.37288
G01 X21.03518Y16.30554
G01 X20.98841Y16.24249
G01 X20.93569Y16.18431
G01 X20.87751Y16.13159
G01 X20.81446Y16.08482
G01 X20.74712Y16.04446
G01 X20.67615Y16.0109
G01 X20.60223Y15.98445
G01 X20.52607Y15.96537
G01 X20.44841Y15.95385
G01 X20.37Y15.95
G01 X20.29159Y15.95385
G01 X20.21393Y15.96537
G01 X20.13777Y15.98445
G01 X20.06385Y16.0109
G01 X19.99288Y16.04446
G01 X19.92554Y16.08482
G01 X19.86249Y16.13159
G01 X19.80431Y16.18431
G01 X19.75159Y16.24249
G01 X19.70482Y16.30554
G01 X19.67818Y16.35
G01 X17.41569Y16.35
G01 X17.15Y16.08431
G01 X17.15Y8.94182
G01 X17.19446Y8.91518
G01 X17.25751Y8.86841
G01 X17.31569Y8.81569
G01 X17.36841Y8.75751
G01 X17.41518Y8.69446
G01 X17.45554Y8.62712
G01 X17.4891Y8.55615
G01 X17.51555Y8.48223
G01 X17.53463Y8.40607
G01 X17.54615Y8.32841
G01 X17.55Y8.25
G01 X17.54615Y8.17159
G01 X17.53463Y8.09393
G01 X17.51555Y8.01777
G01 X17.4891Y7.94385
G01 X17.45554Y7.87288
G01 X17.41518Y7.80554
G01 X17.36841Y7.74249
G01 X17.31569Y7.68431
G01 X17.25751Y7.63159
G01 X17.19446Y7.58482
G01 X17.12712Y7.54446
G01 X17.05615Y7.5109
G01 X16.98223Y7.48445
G01 X16.90607Y7.46537
G01 X16.82841Y7.45385
G01 X16.75Y7.45
G01 X16.67159Y7.45385
G01 X16.59393Y7.46537
G01 X16.54365Y7.47797
G01 X15.63284Y6.56716
G01 X15.63284Y6.56716
G01 X15.60376Y6.5408
G01 X15.57223Y6.51741
G01 X15.53856Y6.49723
G01 X15.50307Y6.48045
G01 X15.46611Y6.46722
G01 X15.42804Y6.45769
G01 X15.38921Y6.45193
G01 X15.35Y6.45
G01 X11.22439Y6.45
G01 X11.18518Y6.45193
G01 X11.14635Y6.45769
G01 X11.10828Y6.46722
G01 X11.07132Y6.48045
G01 X11.03583Y6.49723
G01 X11.00216Y6.51741
G01 X10.97063Y6.5408
G01 X10.94155Y6.56716
G01 X7.64216Y9.86655
G01 X7.6158Y9.89563
G01 X7.59241Y9.92716
G01 X7.57223Y9.96083
G01 X7.55545Y9.99632
G01 X7.54222Y10.03328
G01 X7.53269Y10.07135
G01 X7.52693Y10.11018
G01 X7.525Y10.14939
G01 X7.525Y11.675
G01 X7.52693Y11.71421
G01 X7.53137Y11.74415
G01 X7.53269Y11.75304
G01 X7.54222Y11.79111
G01 X7.55545Y11.82807
G01 X7.57223Y11.86356
G01 X7.59241Y11.89723
G01 X7.6158Y11.92876
G01 X7.64216Y11.95784
G01 X8.59591Y12.9116
G01 X8.5897Y12.92472
G01 X8.5616Y13.00326
G01 X8.54133Y13.08417
G01 X8.52909Y13.16669
G01 X8.525Y13.25
G01 X8.52909Y13.33331
G01 X8.54133Y13.41583
G01 X8.5616Y13.49674
G01 X8.5897Y13.57528
G01 X8.62537Y13.65069
G01 X8.66825Y13.72223
G01 X8.71794Y13.78923
G01 X8.77396Y13.85104
G01 X8.83577Y13.90706
G01 X8.90277Y13.95675
G01 X8.97431Y13.99963
G01 X9.04972Y14.0353
G01 X9.12826Y14.0634
G01 X9.20917Y14.08367
G01 X9.29169Y14.09591
G01 X9.625Y14.1
G01 X9.70831Y14.09591
G01 X9.79083Y14.08367
G01 X9.87174Y14.0634
G01 X9.95028Y14.0353
G01 X9.95028Y14.0353
M5
G01 X9.29169Y11.59591
M3
G01 X9.625Y11.6
G01 X9.70831Y11.59591
G01 X9.79083Y11.58367
G01 X9.87174Y11.5634
G01 X9.95028Y11.5353
G01 X10.02569Y11.49963
G01 X10.09723Y11.45675
G01 X10.16423Y11.40706
G01 X10.22604Y11.35104
G01 X10.28206Y11.28923
G01 X10.33175Y11.22223
G01 X10.37463Y11.15069
G01 X10.4103Y11.07528
G01 X10.4384Y10.99674
G01 X10.45867Y10.91583
G01 X10.47091Y10.83331
G01 X10.475Y10.75
G01 X10.47091Y10.66669
G01 X10.45867Y10.58417
G01 X10.4384Y10.50326
G01 X10.4103Y10.42472
G01 X10.40409Y10.4116
G01 X12.16569Y8.65
G01 X13.05818Y8.65
G01 X13.08482Y8.69446
G01 X13.13159Y8.75751
G01 X13.18431Y8.81569
G01 X13.24249Y8.86841
G01 X13.30554Y8.91518
G01 X13.37288Y8.95554
G01 X13.44385Y8.9891
G01 X13.51777Y9.01555
G01 X13.59393Y9.03463
G01 X13.67159Y9.04615
G01 X13.75Y9.05
G01 X13.82841Y9.04615
G01 X13.90607Y9.03463
G01 X13.95635Y9.02203
G01 X14.9Y9.96569
G01 X14.9Y17.68
G01 X14.90193Y17.71921
G01 X14.90769Y17.75804
G01 X14.91722Y17.79611
G01 X14.93045Y17.83307
G01 X14.94723Y17.86856
G01 X14.96741Y17.90223
G01 X14.9908Y17.93376
G01 X15.01716Y17.96284
G01 X19.59797Y22.54365
G01 X19.58537Y22.59393
G01 X19.57385Y22.67159
G01 X19.57Y22.75
G01 X19.57385Y22.82841
G01 X19.58537Y22.90607
G01 X19.60445Y22.98223
G01 X19.6309Y23.05615
G01 X19.66446Y23.12712
G01 X19.70482Y23.19446
G01 X19.75159Y23.25751
G01 X19.80431Y23.31569
G01 X19.86249Y23.36841
G01 X19.92554Y23.41518
G01 X19.97Y23.44182
G01 X19.97Y25.05818
G01 X19.92554Y25.08482
G01 X19.86249Y25.13159
G01 X19.80431Y25.18431
G01 X19.75159Y25.24249
G01 X19.70482Y25.30554
G01 X19.66446Y25.37288
G01 X19.6309Y25.44385
G01 X19.60445Y25.51777
G01 X19.58537Y25.59393
G01 X19.57385Y25.67159
G01 X19.57Y25.75
G01 X19.57385Y25.82841
G01 X19.58537Y25.90607
G01 X19.60445Y25.98223
G01 X19.6309Y26.05615
G01 X19.66446Y26.12712
G01 X19.70482Y26.19446
G01 X19.75159Y26.25751
G01 X19.80431Y26.31569
G01 X19.86249Y26.36841
G01 X19.92554Y26.41518
G01 X19.99288Y26.45554
G01 X20.06385Y26.4891
G01 X20.13777Y26.51555
G01 X20.21393Y26.53463
G01 X20.29159Y26.54615
G01 X20.37Y26.55
G01 X20.44841Y26.54615
G01 X20.52607Y26.53463
G01 X20.60223Y26.51555
G01 X20.67615Y26.4891
G01 X20.74712Y26.45554
G01 X20.81446Y26.41518
G01 X20.87751Y26.36841
G01 X20.93569Y26.31569
G01 X20.98841Y26.25751
G01 X21.03518Y26.19446
G01 X21.06182Y26.15
G01 X21.81497Y26.15
G01 X21.83682Y26.18646
G01 X21.88359Y26.24951
G01 X21.93631Y26.30769
G01 X21.99449Y26.36041
G01 X22.05754Y26.40718
G01 X22.12488Y26.44754
G01 X22.19585Y26.4811
G01 X22.26977Y26.50755
G01 X22.34593Y26.52663
G01 X22.42359Y26.53815
G01 X22.502Y26.542
G01 X22.58041Y26.53815
G01 X22.65807Y26.52663
G01 X22.73423Y26.50755
G01 X22.80815Y26.4811
G01 X22.87912Y26.44754
G01 X22.94646Y26.40718
G01 X23.00951Y26.36041
G01 X23.06769Y26.30769
G01 X23.12041Y26.24951
G01 X23.16718Y26.18646
G01 X23.20754Y26.11912
G01 X23.2411Y26.04815
G01 X23.26755Y25.97423
G01 X23.28663Y25.89807
G01 X23.29815Y25.82041
G01 X23.302Y25.742
G01 X23.29815Y25.66359
G01 X23.28663Y25.58593
G01 X23.26755Y25.50977
G01 X23.2411Y25.43585
G01 X23.20754Y25.36488
G01 X23.16718Y25.29754
G01 X23.12041Y25.23449
G01 X23.06769Y25.17631
G01 X23.00951Y25.12359
G01 X22.94646Y25.07682
G01 X22.87912Y25.03646
G01 X22.80815Y25.0029
G01 X22.73423Y24.97645
G01 X22.65807Y24.95737
G01 X22.58041Y24.94585
G01 X22.502Y24.942
G01 X22.42359Y24.94585
G01 X22.34593Y24.95737
G01 X22.26977Y24.97645
G01 X22.19585Y25.0029
G01 X22.12488Y25.03646
G01 X22.05754Y25.07682
G01 X21.99449Y25.12359
G01 X21.93631Y25.17631
G01 X21.88359Y25.23449
G01 X21.83682Y25.29754
G01 X21.80538Y25.35
G01 X21.06182Y25.35
G01 X21.03518Y25.30554
G01 X20.98841Y25.24249
G01 X20.93569Y25.18431
G01 X20.87751Y25.13159
G01 X20.81446Y25.08482
G01 X20.77Y25.05818
G01 X20.77Y23.44182
G01 X20.81446Y23.41518
G01 X20.87751Y23.36841
G01 X20.93569Y23.31569
G01 X20.98841Y23.25751
G01 X21.03518Y23.19446
G01 X21.07554Y23.12712
G01 X21.1091Y23.05615
G01 X21.13555Y22.98223
G01 X21.15463Y22.90607
G01 X21.16615Y22.82841
G01 X21.17Y22.75
G01 X21.16615Y22.67159
G01 X21.15463Y22.59393
G01 X21.13555Y22.51777
G01 X21.1091Y22.44385
G01 X21.07554Y22.37288
G01 X21.03518Y22.30554
G01 X20.98841Y22.24249
G01 X20.93569Y22.18431
G01 X20.87751Y22.13159
G01 X20.81446Y22.08482
G01 X20.74712Y22.04446
G01 X20.67615Y22.0109
G01 X20.60223Y21.98445
G01 X20.52607Y21.96537
G01 X20.44841Y21.95385
G01 X20.37Y21.95
G01 X20.29159Y21.95385
G01 X20.21393Y21.96537
G01 X20.16365Y21.97797
G01 X15.7Y17.51431
G01 X15.7Y9.8
G01 X15.69807Y9.76079
G01 X15.69231Y9.72196
G01 X15.68278Y9.68389
G01 X15.66955Y9.64693
G01 X15.65277Y9.61144
G01 X15.63259Y9.57777
G01 X15.6092Y9.54624
G01 X15.58284Y9.51716
G01 X14.52203Y8.45635
G01 X14.53463Y8.40607
G01 X14.54615Y8.32841
G01 X14.55Y8.25
G01 X14.54615Y8.17159
G01 X14.53463Y8.09393
G01 X14.51555Y8.01777
G01 X14.4891Y7.94385
G01 X14.45554Y7.87288
G01 X14.41518Y7.80554
G01 X14.36841Y7.74249
G01 X14.31569Y7.68431
G01 X14.25751Y7.63159
G01 X14.19446Y7.58482
G01 X14.12712Y7.54446
G01 X14.05615Y7.5109
G01 X13.98223Y7.48445
G01 X13.90607Y7.46537
G01 X13.82841Y7.45385
G01 X13.75Y7.45
G01 X13.67159Y7.45385
G01 X13.59393Y7.46537
G01 X13.51777Y7.48445
G01 X13.44385Y7.5109
G01 X13.37288Y7.54446
G01 X13.30554Y7.58482
G01 X13.24249Y7.63159
G01 X13.18431Y7.68431
G01 X13.13159Y7.74249
G01 X13.08482Y7.80554
G01 X13.05818Y7.85
G01 X12.0Y7.85
G01 X11.96079Y7.85193
G01 X11.92196Y7.85769
G01 X11.88389Y7.86722
G01 X11.84693Y7.88045
G01 X11.81144Y7.89723
G01 X11.77777Y7.91741
G01 X11.74624Y7.9408
G01 X11.71716Y7.96716
G01 X9.77093Y9.91338
G01 X9.70831Y9.90409
G01 X9.375Y9.9
G01 X9.29169Y9.90409
G01 X9.20917Y9.91633
G01 X9.12826Y9.9366
G01 X9.04972Y9.9647
G01 X8.97431Y10.00037
G01 X8.90277Y10.04325
G01 X8.83577Y10.09294
G01 X8.77396Y10.14896
G01 X8.71794Y10.21077
G01 X8.66825Y10.27777
G01 X8.62537Y10.34931
G01 X8.5897Y10.42472
G01 X8.5616Y10.50326
G01 X8.54133Y10.58417
G01 X8.52909Y10.66669
G01 X8.525Y10.75
G01 X8.52909Y10.83331
G01 X8.54133Y10.91583
G01 X8.5616Y10.99674
G01 X8.5897Y11.07528
G01 X8.62537Y11.15069
G01 X8.66825Y11.22223
G01 X8.71794Y11.28923
G01 X8.77396Y11.35104
G01 X8.83577Y11.40706
G01 X8.90277Y11.45675
G01 X8.97431Y11.49963
G01 X9.04972Y11.5353
G01 X9.12826Y11.5634
G01 X9.20917Y11.58367
G01 X9.29169Y11.59591
G01 X9.29169Y11.59591
M5
G01 X22.73423Y16.84845
M3
G01 X22.65807Y16.82937
G01 X22.58041Y16.81785
G01 X22.502Y16.814
G01 X22.42359Y16.81785
G01 X22.34593Y16.82937
G01 X22.26977Y16.84845
G01 X22.19585Y16.8749
G01 X22.12488Y16.90846
G01 X22.05754Y16.94882
G01 X21.99449Y16.99559
G01 X21.93631Y17.04831
G01 X21.88359Y17.10649
G01 X21.83682Y17.16954
G01 X21.79646Y17.23688
G01 X21.7629Y17.30785
G01 X21.73645Y17.38177
G01 X21.71737Y17.45793
G01 X21.70585Y17.53559
G01 X21.702Y17.614
G01 X21.70585Y17.69241
G01 X21.71737Y17.77007
G01 X21.73645Y17.84623
G01 X21.7629Y17.92015
G01 X21.79646Y17.99112
G01 X21.83682Y18.05846
G01 X21.88359Y18.12151
G01 X21.93631Y18.17969
G01 X21.99449Y18.23241
G01 X22.05754Y18.27918
G01 X22.12488Y18.31954
G01 X22.19585Y18.3531
G01 X22.26977Y18.37955
G01 X22.34593Y18.39863
G01 X22.42359Y18.41015
G01 X22.502Y18.414
G01 X22.58041Y18.41015
G01 X22.65807Y18.39863
G01 X22.70835Y18.38603
G01 X23.502Y19.17969
G01 X23.502Y21.63631
G01 X22.70835Y22.42997
G01 X22.65807Y22.41737
G01 X22.58041Y22.40585
G01 X22.502Y22.402
G01 X22.42359Y22.40585
G01 X22.34593Y22.41737
G01 X22.26977Y22.43645
G01 X22.19585Y22.4629
G01 X22.12488Y22.49646
G01 X22.05754Y22.53682
G01 X21.99449Y22.58359
G01 X21.93631Y22.63631
G01 X21.88359Y22.69449
G01 X21.83682Y22.75754
G01 X21.79646Y22.82488
G01 X21.7629Y22.89585
G01 X21.73645Y22.96977
G01 X21.71737Y23.04593
G01 X21.70585Y23.12359
G01 X21.702Y23.202
G01 X21.70585Y23.28041
G01 X21.71737Y23.35807
G01 X21.73645Y23.43423
G01 X21.7629Y23.50815
G01 X21.79646Y23.57912
G01 X21.83682Y23.64646
G01 X21.88359Y23.70951
G01 X21.93631Y23.76769
G01 X21.99449Y23.82041
G01 X22.05754Y23.86718
G01 X22.12488Y23.90754
G01 X22.19585Y23.9411
G01 X22.26977Y23.96755
G01 X22.34593Y23.98663
G01 X22.42359Y23.99815
G01 X22.502Y24.002
G01 X22.58041Y23.99815
G01 X22.65807Y23.98663
G01 X22.73423Y23.96755
G01 X22.80815Y23.9411
G01 X22.87912Y23.90754
G01 X22.94646Y23.86718
G01 X23.00951Y23.82041
G01 X23.06769Y23.76769
G01 X23.12041Y23.70951
G01 X23.16718Y23.64646
G01 X23.20754Y23.57912
G01 X23.2411Y23.50815
G01 X23.26755Y23.43423
G01 X23.28663Y23.35807
G01 X23.29815Y23.28041
G01 X23.302Y23.202
G01 X23.29815Y23.12359
G01 X23.28663Y23.04593
G01 X23.27403Y22.99565
G01 X24.18484Y22.08484
G01 X24.2112Y22.05576
G01 X24.23459Y22.02423
G01 X24.25477Y21.99056
G01 X24.27155Y21.95507
G01 X24.28478Y21.91811
G01 X24.29431Y21.88004
G01 X24.30007Y21.84121
G01 X24.302Y21.802
G01 X24.302Y19.014
G01 X24.302Y13.426
G01 X24.30007Y13.38679
G01 X24.29431Y13.34796
G01 X24.28478Y13.30989
G01 X24.27155Y13.27293
G01 X24.25477Y13.23744
G01 X24.23459Y13.20377
G01 X24.2112Y13.17224
G01 X24.18484Y13.14316
G01 X23.27403Y12.23235
G01 X23.28663Y12.18207
G01 X23.29815Y12.10441
G01 X23.302Y12.026
G01 X23.29815Y11.94759
G01 X23.28663Y11.86993
G01 X23.26755Y11.79377
G01 X23.2411Y11.71985
G01 X23.20754Y11.64888
G01 X23.16718Y11.58154
G01 X23.12041Y11.51849
G01 X23.06769Y11.46031
G01 X23.00951Y11.40759
G01 X22.94646Y11.36082
G01 X22.902Y11.33418
G01 X22.902Y6.002
G01 X22.90007Y5.96279
G01 X22.89431Y5.92396
G01 X22.88478Y5.88589
G01 X22.87155Y5.84893
G01 X22.85477Y5.81344
G01 X22.83459Y5.77977
G01 X22.8112Y5.74824
G01 X22.78484Y5.71916
G01 X20.52203Y3.45635
G01 X20.53463Y3.40607
G01 X20.54615Y3.32841
G01 X20.55Y3.25
G01 X20.54615Y3.17159
G01 X20.53463Y3.09393
G01 X20.51555Y3.01777
G01 X20.4891Y2.94385
G01 X20.45554Y2.87288
G01 X20.41518Y2.80554
G01 X20.36841Y2.74249
G01 X20.31569Y2.68431
G01 X20.25751Y2.63159
G01 X20.19446Y2.58482
G01 X20.12712Y2.54446
G01 X20.05615Y2.5109
G01 X19.98223Y2.48445
G01 X19.90607Y2.46537
G01 X19.82841Y2.45385
G01 X19.75Y2.45
G01 X19.67159Y2.45385
G01 X19.59393Y2.46537
G01 X19.51777Y2.48445
G01 X19.44385Y2.5109
G01 X19.37288Y2.54446
G01 X19.30554Y2.58482
G01 X19.24249Y2.63159
G01 X19.18431Y2.68431
G01 X19.13159Y2.74249
G01 X19.08482Y2.80554
G01 X19.05818Y2.85
G01 X17.44182Y2.85
G01 X17.41518Y2.80554
G01 X17.36841Y2.74249
G01 X17.31569Y2.68431
G01 X17.25751Y2.63159
G01 X17.19446Y2.58482
G01 X17.12712Y2.54446
G01 X17.05615Y2.5109
G01 X16.98223Y2.48445
G01 X16.90607Y2.46537
G01 X16.82841Y2.45385
G01 X16.75Y2.45
G01 X16.67159Y2.45385
G01 X16.59393Y2.46537
G01 X16.51777Y2.48445
G01 X16.44385Y2.5109
G01 X16.37288Y2.54446
G01 X16.30554Y2.58482
G01 X16.24249Y2.63159
G01 X16.18431Y2.68431
G01 X16.13159Y2.74249
G01 X16.08482Y2.80554
G01 X16.05818Y2.85
G01 X14.44182Y2.85
G01 X14.41518Y2.80554
G01 X14.36841Y2.74249
G01 X14.31569Y2.68431
G01 X14.25751Y2.63159
G01 X14.19446Y2.58482
G01 X14.12712Y2.54446
G01 X14.05615Y2.5109
G01 X13.98223Y2.48445
G01 X13.90607Y2.46537
G01 X13.82841Y2.45385
G01 X13.75Y2.45
G01 X13.67159Y2.45385
G01 X13.59393Y2.46537
G01 X13.51777Y2.48445
G01 X13.44385Y2.5109
G01 X13.37288Y2.54446
G01 X13.30554Y2.58482
G01 X13.24249Y2.63159
G01 X13.18431Y2.68431
G01 X13.13159Y2.74249
G01 X13.08482Y2.80554
G01 X13.05818Y2.85
G01 X11.99596Y2.85
G01 X11.95676Y2.85193
G01 X11.91793Y2.85769
G01 X11.87985Y2.86722
G01 X11.84289Y2.88045
G01 X11.8074Y2.89723
G01 X11.77373Y2.91741
G01 X11.7422Y2.9408
G01 X11.71312Y2.96716
G01 X5.64216Y9.03812
G01 X5.6158Y9.0672
G01 X5.59241Y9.09873
G01 X5.57223Y9.1324
G01 X5.55545Y9.16789
G01 X5.54222Y9.20485
G01 X5.53269Y9.24293
G01 X5.52693Y9.28176
G01 X5.525Y9.32096
G01 X5.525Y18.175
G01 X5.52693Y18.21421
G01 X5.53269Y18.25304
G01 X5.54222Y18.29111
G01 X5.55545Y18.32807
G01 X5.57223Y18.36356
G01 X5.59241Y18.39723
G01 X5.6158Y18.42876
G01 X5.64216Y18.45784
G01 X5.64216Y18.45784
G01 X8.57894Y21.39462
G01 X8.5647Y21.42472
G01 X8.5366Y21.50326
G01 X8.51633Y21.58417
G01 X8.50409Y21.66669
G01 X8.5Y21.75
G01 X8.50409Y21.83331
G01 X8.51633Y21.91583
G01 X8.5366Y21.99674
G01 X8.5647Y22.07528
G01 X8.60037Y22.15069
G01 X8.64325Y22.22223
G01 X8.69294Y22.28923
G01 X8.74896Y22.35104
G01 X8.81077Y22.40706
G01 X8.87777Y22.45675
G01 X8.94931Y22.49963
G01 X9.02472Y22.5353
G01 X9.10326Y22.5634
G01 X9.18417Y22.58367
G01 X9.26669Y22.59591
G01 X9.65Y22.6
G01 X9.73331Y22.59591
G01 X9.81583Y22.58367
G01 X9.89674Y22.5634
G01 X9.97528Y22.5353
G01 X10.05069Y22.49963
G01 X10.12223Y22.45675
G01 X10.18923Y22.40706
G01 X10.25104Y22.35104
G01 X10.30706Y22.28923
G01 X10.35675Y22.22223
G01 X10.39963Y22.15069
G01 X10.4353Y22.07528
G01 X10.4634Y21.99674
G01 X10.48367Y21.91583
G01 X10.49591Y21.83331
G01 X10.5Y21.75
G01 X10.49591Y21.66669
G01 X10.48367Y21.58417
G01 X10.4634Y21.50326
G01 X10.4353Y21.42472
G01 X10.39963Y21.34931
G01 X10.35675Y21.27777
G01 X10.30706Y21.21077
G01 X10.25104Y21.14896
G01 X10.18923Y21.09294
G01 X10.12223Y21.04325
G01 X10.05069Y21.00037
G01 X9.97528Y20.9647
G01 X9.89674Y20.9366
G01 X9.81583Y20.91633
G01 X9.73331Y20.90409
G01 X9.35Y20.9
G01 X9.26669Y20.90409
G01 X9.22584Y20.91015
G01 X6.325Y18.00931
G01 X6.325Y9.48665
G01 X12.16165Y3.65
G01 X13.05818Y3.65
G01 X13.08482Y3.69446
G01 X13.13159Y3.75751
G01 X13.18431Y3.81569
G01 X13.24249Y3.86841
G01 X13.30554Y3.91518
G01 X13.37288Y3.95554
G01 X13.44385Y3.9891
G01 X13.51777Y4.01555
G01 X13.59393Y4.03463
G01 X13.67159Y4.04615
G01 X13.75Y4.05
G01 X13.82841Y4.04615
G01 X13.90607Y4.03463
G01 X13.98223Y4.01555
G01 X14.05615Y3.9891
G01 X14.12712Y3.95554
G01 X14.19446Y3.91518
G01 X14.25751Y3.86841
G01 X14.31569Y3.81569
G01 X14.36841Y3.75751
G01 X14.41518Y3.69446
G01 X14.44182Y3.65
G01 X16.05818Y3.65
G01 X16.08482Y3.69446
G01 X16.13159Y3.75751
G01 X16.18431Y3.81569
G01 X16.24249Y3.86841
G01 X16.30554Y3.91518
G01 X16.37288Y3.95554
G01 X16.44385Y3.9891
G01 X16.51777Y4.01555
G01 X16.59393Y4.03463
G01 X16.67159Y4.04615
G01 X16.75Y4.05
G01 X16.82841Y4.04615
G01 X16.90607Y4.03463
G01 X16.98223Y4.01555
G01 X17.05615Y3.9891
G01 X17.12712Y3.95554
G01 X17.19446Y3.91518
G01 X17.25751Y3.86841
G01 X17.31569Y3.81569
G01 X17.36841Y3.75751
G01 X17.41518Y3.69446
G01 X17.44182Y3.65
G01 X19.05818Y3.65
G01 X19.08482Y3.69446
G01 X19.13159Y3.75751
G01 X19.18431Y3.81569
G01 X19.24249Y3.86841
G01 X19.30554Y3.91518
G01 X19.37288Y3.95554
G01 X19.44385Y3.9891
G01 X19.51777Y4.01555
G01 X19.59393Y4.03463
G01 X19.67159Y4.04615
G01 X19.75Y4.05
G01 X19.82841Y4.04615
G01 X19.90607Y4.03463
G01 X19.95635Y4.02203
G01 X22.102Y6.16769
G01 X22.102Y11.33418
G01 X22.05754Y11.36082
G01 X21.99449Y11.40759
G01 X21.93631Y11.46031
G01 X21.88359Y11.51849
G01 X21.83682Y11.58154
G01 X21.79646Y11.64888
G01 X21.7629Y11.71985
G01 X21.73645Y11.79377
G01 X21.71737Y11.86993
G01 X21.70585Y11.94759
G01 X21.702Y12.026
G01 X21.70585Y12.10441
G01 X21.71737Y12.18207
G01 X21.73645Y12.25823
G01 X21.7629Y12.33215
G01 X21.79646Y12.40312
G01 X21.83682Y12.47046
G01 X21.88359Y12.53351
G01 X21.93631Y12.59169
G01 X21.99449Y12.64441
G01 X22.05754Y12.69118
G01 X22.12488Y12.73154
G01 X22.19585Y12.7651
G01 X22.26977Y12.79155
G01 X22.34593Y12.81063
G01 X22.42359Y12.82215
G01 X22.502Y12.826
G01 X22.58041Y12.82215
G01 X22.65807Y12.81063
G01 X22.70835Y12.79803
G01 X23.502Y13.59169
G01 X23.502Y18.04831
G01 X23.27403Y17.82035
G01 X23.28663Y17.77007
G01 X23.29815Y17.69241
G01 X23.302Y17.614
G01 X23.29815Y17.53559
G01 X23.28663Y17.45793
G01 X23.26755Y17.38177
G01 X23.2411Y17.30785
G01 X23.20754Y17.23688
G01 X23.16718Y17.16954
G01 X23.12041Y17.10649
G01 X23.06769Y17.04831
G01 X23.00951Y16.99559
G01 X22.94646Y16.94882
G01 X22.87912Y16.90846
G01 X22.80815Y16.8749
G01 X22.73423Y16.84845
G01 X22.73423Y16.84845
M5
G01 X39.24582Y15.64046
M3
G01 X39.29259Y15.70351
G01 X39.34531Y15.76169
G01 X39.40349Y15.81441
G01 X39.46654Y15.86118
G01 X39.511Y15.88782
G01 X39.511Y19.45718
G01 X39.46654Y19.48382
G01 X39.40349Y19.53059
G01 X39.34531Y19.58331
G01 X39.29259Y19.64149
G01 X39.24582Y19.70454
G01 X39.20546Y19.77188
G01 X39.1719Y19.84285
G01 X39.14545Y19.91677
G01 X39.12637Y19.99293
G01 X39.11485Y20.07059
G01 X39.111Y20.149
G01 X39.11485Y20.22741
G01 X39.12637Y20.30507
G01 X39.14545Y20.38123
G01 X39.1719Y20.45515
G01 X39.20546Y20.52612
G01 X39.24582Y20.59346
G01 X39.29259Y20.65651
G01 X39.34531Y20.71469
G01 X39.40349Y20.76741
G01 X39.46654Y20.81418
G01 X39.511Y20.84082
G01 X39.511Y25.04518
G01 X39.46654Y25.07182
G01 X39.40349Y25.11859
G01 X39.34531Y25.17131
G01 X39.29259Y25.22949
G01 X39.24582Y25.29254
G01 X39.20546Y25.35988
G01 X39.1719Y25.43085
G01 X39.14545Y25.50477
G01 X39.12637Y25.58093
G01 X39.11485Y25.65859
G01 X39.111Y25.737
G01 X39.11485Y25.81541
G01 X39.12637Y25.89307
G01 X39.14545Y25.96923
G01 X39.1719Y26.04315
G01 X39.20546Y26.11412
G01 X39.24582Y26.18146
G01 X39.29259Y26.24451
G01 X39.34531Y26.30269
G01 X39.40349Y26.35541
G01 X39.46654Y26.40218
G01 X39.53388Y26.44254
G01 X39.60485Y26.4761
G01 X39.67877Y26.50255
G01 X39.75493Y26.52163
G01 X39.83259Y26.53315
G01 X39.911Y26.537
G01 X39.98941Y26.53315
G01 X40.06707Y26.52163
G01 X40.14323Y26.50255
G01 X40.21715Y26.4761
G01 X40.28812Y26.44254
G01 X40.35546Y26.40218
G01 X40.41851Y26.35541
G01 X40.47669Y26.30269
G01 X40.52941Y26.24451
G01 X40.57618Y26.18146
G01 X40.60282Y26.137
G01 X41.513Y26.137
G01 X41.55221Y26.13507
G01 X41.59104Y26.12931
G01 X41.62911Y26.11978
G01 X41.66607Y26.10655
G01 X41.70156Y26.08977
G01 X41.73523Y26.06959
G01 X41.76676Y26.0462
G01 X41.79584Y26.01984
G01 X42.72584Y25.08985
G01 X42.76669Y25.09591
G01 X43.15Y25.1
G01 X43.23331Y25.09591
G01 X43.31583Y25.08367
G01 X43.39674Y25.0634
G01 X43.47528Y25.0353
G01 X43.55069Y24.99963
G01 X43.62223Y24.95675
G01 X43.68923Y24.90706
G01 X43.75104Y24.85104
G01 X43.80706Y24.78923
G01 X43.85675Y24.72223
G01 X43.89963Y24.65069
G01 X43.9353Y24.57528
G01 X43.9634Y24.49674
G01 X43.98367Y24.41583
G01 X43.99591Y24.33331
G01 X44.0Y24.25
G01 X43.99591Y24.16669
G01 X43.98367Y24.08417
G01 X43.9634Y24.00326
G01 X43.9353Y23.92472
G01 X43.89963Y23.84931
G01 X43.85675Y23.77777
G01 X43.80706Y23.71077
G01 X43.75104Y23.64896
G01 X43.68923Y23.59294
G01 X43.62223Y23.54325
G01 X43.55069Y23.50037
G01 X43.47528Y23.4647
G01 X43.39674Y23.4366
G01 X43.31583Y23.41633
G01 X43.23331Y23.40409
G01 X42.85Y23.4
G01 X42.76669Y23.40409
G01 X42.68417Y23.41633
G01 X42.60326Y23.4366
G01 X42.52472Y23.4647
G01 X42.44931Y23.50037
G01 X42.37777Y23.54325
G01 X42.31077Y23.59294
G01 X42.24896Y23.64896
G01 X42.19294Y23.71077
G01 X42.14325Y23.77777
G01 X42.10037Y23.84931
G01 X42.0647Y23.92472
G01 X42.0366Y24.00326
G01 X42.01633Y24.08417
G01 X42.00409Y24.16669
G01 X42.0Y24.25
G01 X42.00409Y24.33331
G01 X42.01633Y24.41583
G01 X42.0366Y24.49674
G01 X42.0647Y24.57528
G01 X42.07894Y24.60538
G01 X41.34731Y25.337
G01 X40.60282Y25.337
G01 X40.57618Y25.29254
G01 X40.52941Y25.22949
G01 X40.47669Y25.17131
G01 X40.41851Y25.11859
G01 X40.35546Y25.07182
G01 X40.311Y25.04518
G01 X40.311Y20.84082
G01 X40.35546Y20.81418
G01 X40.41851Y20.76741
G01 X40.47669Y20.71469
G01 X40.52941Y20.65651
G01 X40.57618Y20.59346
G01 X40.61654Y20.52612
G01 X40.6501Y20.45515
G01 X40.67655Y20.38123
G01 X40.69563Y20.30507
G01 X40.70715Y20.22741
G01 X40.711Y20.149
G01 X40.70715Y20.07059
G01 X40.69563Y19.99293
G01 X40.67655Y19.91677
G01 X40.6501Y19.84285
G01 X40.61654Y19.77188
G01 X40.57618Y19.70454
G01 X40.52941Y19.64149
G01 X40.47669Y19.58331
G01 X40.41851Y19.53059
G01 X40.35546Y19.48382
G01 X40.311Y19.45718
G01 X40.311Y15.88782
G01 X40.35546Y15.86118
G01 X40.41851Y15.81441
G01 X40.47669Y15.76169
G01 X40.52941Y15.70351
G01 X40.57618Y15.64046
G01 X40.61654Y15.57312
G01 X40.6501Y15.50215
G01 X40.67655Y15.42823
G01 X40.69563Y15.35207
G01 X40.70715Y15.27441
G01 X40.711Y15.196
G01 X40.70715Y15.11759
G01 X40.69563Y15.03993
G01 X40.67655Y14.96377
G01 X40.6501Y14.88985
G01 X40.61654Y14.81888
G01 X40.57618Y14.75154
G01 X40.52941Y14.68849
G01 X40.47669Y14.63031
G01 X40.41851Y14.57759
G01 X40.35546Y14.53082
G01 X40.28812Y14.49046
G01 X40.21715Y14.4569
G01 X40.14323Y14.43045
G01 X40.06707Y14.41137
G01 X39.98941Y14.39985
G01 X39.911Y14.396
G01 X39.83259Y14.39985
G01 X39.75493Y14.41137
G01 X39.67877Y14.43045
G01 X39.60485Y14.4569
G01 X39.53388Y14.49046
G01 X39.46654Y14.53082
G01 X39.40349Y14.57759
G01 X39.34531Y14.63031
G01 X39.29259Y14.68849
G01 X39.24582Y14.75154
G01 X39.20546Y14.81888
G01 X39.1719Y14.88985
G01 X39.14545Y14.96377
G01 X39.12637Y15.03993
G01 X39.11485Y15.11759
G01 X39.111Y15.196
G01 X39.11485Y15.27441
G01 X39.12637Y15.35207
G01 X39.14545Y15.42823
G01 X39.1719Y15.50215
G01 X39.20546Y15.57312
G01 X39.24582Y15.64046
G01 X39.24582Y15.64046
M5
G01 X32.291Y20.949
M3
G01 X32.36941Y20.94515
G01 X32.44707Y20.93363
G01 X32.52323Y20.91455
G01 X32.59715Y20.8881
G01 X32.66812Y20.85454
G01 X32.73546Y20.81418
G01 X32.79851Y20.76741
G01 X32.85669Y20.71469
G01 X32.90941Y20.65651
G01 X32.95618Y20.59346
G01 X32.99654Y20.52612
G01 X33.0301Y20.45515
G01 X33.05655Y20.38123
G01 X33.07563Y20.30507
G01 X33.08715Y20.22741
G01 X33.091Y20.149
G01 X33.08715Y20.07059
G01 X33.07563Y19.99293
G01 X33.05655Y19.91677
G01 X33.0301Y19.84285
G01 X32.99654Y19.77188
G01 X32.95618Y19.70454
G01 X32.90941Y19.64149
G01 X32.85669Y19.58331
G01 X32.79851Y19.53059
G01 X32.73546Y19.48382
G01 X32.66812Y19.44346
G01 X32.59715Y19.4099
G01 X32.52323Y19.38345
G01 X32.44707Y19.36437
G01 X32.36941Y19.35285
G01 X32.291Y19.349
G01 X32.21259Y19.35285
G01 X32.13493Y19.36437
G01 X32.05877Y19.38345
G01 X31.98485Y19.4099
G01 X31.91388Y19.44346
G01 X31.84654Y19.48382
G01 X31.78349Y19.53059
G01 X31.72531Y19.58331
G01 X31.67259Y19.64149
G01 X31.62582Y19.70454
G01 X31.59918Y19.749
G01 X30.922Y19.749
G01 X30.922Y19.354
G01 X29.322Y19.354
G01 X29.322Y20.954
G01 X30.922Y20.954
G01 X30.922Y20.549
G01 X31.59918Y20.549
G01 X31.62582Y20.59346
G01 X31.67259Y20.65651
G01 X31.72531Y20.71469
G01 X31.78349Y20.76741
G01 X31.84654Y20.81418
G01 X31.91388Y20.85454
G01 X31.98485Y20.8881
G01 X32.05877Y20.91455
G01 X32.13493Y20.93363
G01 X32.21259Y20.94515
G01 X32.291Y20.949
G01 X32.291Y20.949
M5
G01 X39.49329Y4.35193
M3
G01 X39.45446Y4.35769
G01 X39.41639Y4.36722
G01 X39.37943Y4.38045
G01 X39.34394Y4.39723
G01 X39.31027Y4.41741
G01 X39.27874Y4.4408
G01 X39.24966Y4.46716
G01 X35.68431Y8.0325
G01 X34.9Y8.0325
G01 X34.9Y9.5325
G01 X36.1Y9.5325
G01 X36.1Y8.74819
G01 X39.69819Y5.15
G01 X42.3825Y5.15
G01 X42.3825Y5.35
G01 X43.16681Y5.35
G01 X44.3325Y6.51569
G01 X44.3325Y13.91681
G01 X43.85Y13.43431
G01 X43.85Y12.65
G01 X42.35Y12.65
G01 X42.35Y13.85
G01 X43.13431Y13.85
G01 X44.3Y15.01569
G01 X44.3Y19.88431
G01 X43.03431Y21.15
G01 X42.25Y21.15
G01 X42.25Y22.35
G01 X43.75Y22.35
G01 X43.75Y21.56569
G01 X44.98284Y20.33284
G01 X45.0092Y20.30376
G01 X45.03259Y20.27223
G01 X45.05277Y20.23856
G01 X45.06955Y20.20307
G01 X45.08278Y20.16611
G01 X45.09231Y20.12804
G01 X45.09807Y20.08921
G01 X45.1Y20.05
G01 X45.1Y14.97491
G01 X45.10205Y14.97057
G01 X45.10205Y14.97057
G01 X45.10443Y14.96393
G01 X45.11528Y14.93361
G01 X45.11528Y14.93361
G01 X45.11528Y14.93361
G01 X45.11765Y14.92415
G01 X45.12481Y14.89554
G01 X45.12748Y14.87759
G01 X45.13057Y14.85671
G01 X45.13221Y14.82335
G01 X45.1325Y14.8175
G01 X45.1325Y14.8175
G01 X45.1325Y6.35
G01 X45.13057Y6.31079
G01 X45.12481Y6.27196
G01 X45.11528Y6.23389
G01 X45.10205Y6.19693
G01 X45.08527Y6.16144
G01 X45.06509Y6.12777
G01 X45.0417Y6.09624
G01 X45.01534Y6.06716
G01 X43.8825Y4.93431
G01 X43.8825Y4.15
G01 X42.3825Y4.15
G01 X42.3825Y4.35
G01 X39.5325Y4.35
G01 X39.49329Y4.35193
G01 X39.49329Y4.35193
M5
G01 X30.56646Y16.94882
M3
G01 X30.49912Y16.90846
G01 X30.42815Y16.8749
G01 X30.35423Y16.84845
G01 X30.27807Y16.82937
G01 X30.20041Y16.81785
G01 X30.122Y16.814
G01 X30.04359Y16.81785
G01 X29.96593Y16.82937
G01 X29.88977Y16.84845
G01 X29.81585Y16.8749
G01 X29.74488Y16.90846
G01 X29.67754Y16.94882
G01 X29.61449Y16.99559
G01 X29.55631Y17.04831
G01 X29.50359Y17.10649
G01 X29.45682Y17.16954
G01 X29.41646Y17.23688
G01 X29.3829Y17.30785
G01 X29.35645Y17.38177
G01 X29.33737Y17.45793
G01 X29.32585Y17.53559
G01 X29.322Y17.614
G01 X29.32585Y17.69241
G01 X29.33737Y17.77007
G01 X29.35645Y17.84623
G01 X29.3829Y17.92015
G01 X29.41646Y17.99112
G01 X29.45682Y18.05846
G01 X29.50359Y18.12151
G01 X29.55631Y18.17969
G01 X29.61449Y18.23241
G01 X29.67754Y18.27918
G01 X29.74488Y18.31954
G01 X29.81585Y18.3531
G01 X29.88977Y18.37955
G01 X29.96593Y18.39863
G01 X30.04359Y18.41015
G01 X30.122Y18.414
G01 X30.20041Y18.41015
G01 X30.27807Y18.39863
G01 X30.35423Y18.37955
G01 X30.42815Y18.3531
G01 X30.49912Y18.31954
G01 X30.56646Y18.27918
G01 X30.62951Y18.23241
G01 X30.68769Y18.17969
G01 X30.74041Y18.12151
G01 X30.78718Y18.05846
G01 X30.81382Y18.014
G01 X31.8529Y18.014
G01 X31.89211Y18.01207
G01 X31.93094Y18.00631
G01 X31.96901Y17.99678
G01 X32.00597Y17.98355
G01 X32.04146Y17.96677
G01 X32.07513Y17.94659
G01 X32.10666Y17.9232
G01 X32.13574Y17.89684
G01 X42.29048Y7.7421
G01 X42.32544Y7.78923
G01 X42.38146Y7.85104
G01 X42.44327Y7.90706
G01 X42.51027Y7.95675
G01 X42.58181Y7.99963
G01 X42.65722Y8.0353
G01 X42.73576Y8.0634
G01 X42.81667Y8.08367
G01 X42.89919Y8.09591
G01 X43.2825Y8.1
G01 X43.36581Y8.09591
G01 X43.44833Y8.08367
G01 X43.52924Y8.0634
G01 X43.60778Y8.0353
G01 X43.68319Y7.99963
G01 X43.75473Y7.95675
G01 X43.82173Y7.90706
G01 X43.88354Y7.85104
G01 X43.93956Y7.78923
G01 X43.98925Y7.72223
G01 X44.03213Y7.65069
G01 X44.0678Y7.57528
G01 X44.0959Y7.49674
G01 X44.11617Y7.41583
G01 X44.12841Y7.33331
G01 X44.1325Y7.25
G01 X44.12841Y7.16669
G01 X44.11617Y7.08417
G01 X44.0959Y7.00326
G01 X44.0678Y6.92472
G01 X44.03213Y6.84931
G01 X43.98925Y6.77777
G01 X43.93956Y6.71077
G01 X43.88354Y6.64896
G01 X43.82173Y6.59294
G01 X43.75473Y6.54325
G01 X43.68319Y6.50037
G01 X43.60778Y6.4647
G01 X43.52924Y6.4366
G01 X43.44833Y6.41633
G01 X43.36581Y6.40409
G01 X42.9825Y6.4
G01 X42.89919Y6.40409
G01 X42.81667Y6.41633
G01 X42.73576Y6.4366
G01 X42.65722Y6.4647
G01 X42.58181Y6.50037
G01 X42.51027Y6.54325
G01 X42.44327Y6.59294
G01 X42.38146Y6.64896
G01 X42.32544Y6.71077
G01 X42.27575Y6.77777
G01 X42.23287Y6.84931
G01 X42.23254Y6.85
G01 X42.2169Y6.85
G01 X42.17769Y6.85193
G01 X42.13886Y6.85769
G01 X42.10079Y6.86722
G01 X42.06383Y6.88045
G01 X42.02834Y6.89723
G01 X41.99467Y6.91741
G01 X41.96314Y6.9408
G01 X41.93406Y6.96716
G01 X31.68721Y17.214
G01 X30.81382Y17.214
G01 X30.78718Y17.16954
G01 X30.74041Y17.10649
G01 X30.68769Y17.04831
G01 X30.62951Y16.99559
G01 X30.56646Y16.94882
G01 X30.56646Y16.94882
M5
G01 X38.67116Y13.51316
M3
G01 X33.40816Y18.77616
G01 X33.3818Y18.80524
G01 X33.35841Y18.83677
G01 X33.33823Y18.87044
G01 X33.32145Y18.90592
G01 X33.30822Y18.94288
G01 X33.29869Y18.98096
G01 X33.29293Y19.01979
G01 X33.291Y19.059
G01 X33.291Y20.56321
G01 X31.05221Y22.802
G01 X30.81382Y22.802
G01 X30.78718Y22.75754
G01 X30.74041Y22.69449
G01 X30.68769Y22.63631
G01 X30.62951Y22.58359
G01 X30.56646Y22.53682
G01 X30.49912Y22.49646
G01 X30.42815Y22.4629
G01 X30.35423Y22.43645
G01 X30.27807Y22.41737
G01 X30.20041Y22.40585
G01 X30.122Y22.402
G01 X30.04359Y22.40585
G01 X29.96593Y22.41737
G01 X29.88977Y22.43645
G01 X29.81585Y22.4629
G01 X29.74488Y22.49646
G01 X29.67754Y22.53682
G01 X29.61449Y22.58359
G01 X29.55631Y22.63631
G01 X29.50359Y22.69449
G01 X29.45682Y22.75754
G01 X29.41646Y22.82488
G01 X29.3829Y22.89585
G01 X29.35645Y22.96977
G01 X29.33737Y23.04593
G01 X29.32585Y23.12359
G01 X29.322Y23.202
G01 X29.32585Y23.28041
G01 X29.33737Y23.35807
G01 X29.35645Y23.43423
G01 X29.3829Y23.50815
G01 X29.41646Y23.57912
G01 X29.45682Y23.64646
G01 X29.50359Y23.70951
G01 X29.55631Y23.76769
G01 X29.61449Y23.82041
G01 X29.67754Y23.86718
G01 X29.74488Y23.90754
G01 X29.81585Y23.9411
G01 X29.88977Y23.96755
G01 X29.96593Y23.98663
G01 X30.04359Y23.99815
G01 X30.122Y24.002
G01 X30.20041Y23.99815
G01 X30.27807Y23.98663
G01 X30.35423Y23.96755
G01 X30.42815Y23.9411
G01 X30.49912Y23.90754
G01 X30.56646Y23.86718
G01 X30.62951Y23.82041
G01 X30.68769Y23.76769
G01 X30.74041Y23.70951
G01 X30.78718Y23.64646
G01 X30.81382Y23.602
G01 X31.2179Y23.602
G01 X31.25711Y23.60007
G01 X31.29594Y23.59431
G01 X31.33401Y23.58478
G01 X31.37097Y23.57155
G01 X31.40646Y23.55477
G01 X31.44013Y23.53459
G01 X31.47166Y23.5112
G01 X31.50074Y23.48484
G01 X33.97384Y21.01174
G01 X34.0002Y20.98266
G01 X34.02359Y20.95113
G01 X34.04377Y20.91746
G01 X34.06055Y20.88197
G01 X34.07378Y20.84501
G01 X34.08331Y20.80694
G01 X34.08907Y20.76811
G01 X34.091Y20.7289
G01 X34.091Y19.22468
G01 X39.11968Y14.196
G01 X40.32521Y14.196
G01 X42.14253Y16.01332
G01 X42.1647Y16.07528
G01 X42.20037Y16.15069
G01 X42.24325Y16.22223
G01 X42.29294Y16.28923
G01 X42.34896Y16.35104
G01 X42.41077Y16.40706
G01 X42.47777Y16.45675
G01 X42.54931Y16.49963
G01 X42.62472Y16.5353
G01 X42.70326Y16.5634
G01 X42.78417Y16.58367
G01 X42.86669Y16.59591
G01 X43.25Y16.6
G01 X43.33331Y16.59591
G01 X43.41583Y16.58367
G01 X43.49674Y16.5634
G01 X43.57528Y16.5353
G01 X43.65069Y16.49963
G01 X43.72223Y16.45675
G01 X43.78923Y16.40706
G01 X43.85104Y16.35104
G01 X43.90706Y16.28923
G01 X43.95675Y16.22223
G01 X43.99963Y16.15069
G01 X44.0353Y16.07528
G01 X44.0634Y15.99674
G01 X44.08367Y15.91583
G01 X44.09591Y15.83331
G01 X44.1Y15.75
G01 X44.09591Y15.66669
G01 X44.08367Y15.58417
G01 X44.0634Y15.50326
G01 X44.0353Y15.42472
G01 X43.99963Y15.34931
G01 X43.95675Y15.27777
G01 X43.90706Y15.21077
G01 X43.85104Y15.14896
G01 X43.78923Y15.09294
G01 X43.72223Y15.04325
G01 X43.65069Y15.00037
G01 X43.57528Y14.9647
G01 X43.49674Y14.9366
G01 X43.41583Y14.91633
G01 X43.33331Y14.90409
G01 X42.95Y14.9
G01 X42.86669Y14.90409
G01 X42.78417Y14.91633
G01 X42.70326Y14.9366
G01 X42.62472Y14.9647
G01 X42.54931Y15.00037
G01 X42.47777Y15.04325
G01 X42.41077Y15.09294
G01 X42.38074Y15.12016
G01 X40.77374Y13.51316
G01 X40.74466Y13.4868
G01 X40.71313Y13.46341
G01 X40.67946Y13.44323
G01 X40.64397Y13.42645
G01 X40.60701Y13.41322
G01 X40.56894Y13.40369
G01 X40.53011Y13.39793
G01 X40.4909Y13.396
G01 X38.954Y13.396
G01 X38.91479Y13.39793
G01 X38.87596Y13.40369
G01 X38.83788Y13.41322
G01 X38.80092Y13.42645
G01 X38.76544Y13.44323
G01 X38.73177Y13.46341
G01 X38.70024Y13.4868
G01 X38.67116Y13.51316
G01 X38.67116Y13.51316
M5
G01 X30.78718Y11.58154
M3
G01 X30.74041Y11.51849
G01 X30.68769Y11.46031
G01 X30.62951Y11.40759
G01 X30.56646Y11.36082
G01 X30.49912Y11.32046
G01 X30.42815Y11.2869
G01 X30.35423Y11.26045
G01 X30.27807Y11.24137
G01 X30.20041Y11.22985
G01 X30.122Y11.226
G01 X30.04359Y11.22985
G01 X29.96593Y11.24137
G01 X29.88977Y11.26045
G01 X29.81585Y11.2869
G01 X29.74488Y11.32046
G01 X29.67754Y11.36082
G01 X29.61449Y11.40759
G01 X29.55631Y11.46031
G01 X29.50359Y11.51849
G01 X29.45682Y11.58154
G01 X29.41646Y11.64888
G01 X29.3829Y11.71985
G01 X29.35645Y11.79377
G01 X29.33737Y11.86993
G01 X29.32585Y11.94759
G01 X29.322Y12.026
G01 X29.32585Y12.10441
G01 X29.33737Y12.18207
G01 X29.35645Y12.25823
G01 X29.3829Y12.33215
G01 X29.41646Y12.40312
G01 X29.45682Y12.47046
G01 X29.50359Y12.53351
G01 X29.55631Y12.59169
G01 X29.61449Y12.64441
G01 X29.67754Y12.69118
G01 X29.74488Y12.73154
G01 X29.81585Y12.7651
G01 X29.88977Y12.79155
G01 X29.96593Y12.81063
G01 X30.04359Y12.82215
G01 X30.122Y12.826
G01 X30.20041Y12.82215
G01 X30.27807Y12.81063
G01 X30.35423Y12.79155
G01 X30.42815Y12.7651
G01 X30.49912Y12.73154
G01 X30.56646Y12.69118
G01 X30.62951Y12.64441
G01 X30.68769Y12.59169
G01 X30.74041Y12.53351
G01 X30.78718Y12.47046
G01 X30.81382Y12.426
G01 X34.81551Y12.426
G01 X34.85472Y12.42407
G01 X34.89355Y12.41831
G01 X34.93162Y12.40878
G01 X34.96858Y12.39555
G01 X35.00407Y12.37877
G01 X35.03774Y12.35859
G01 X35.06927Y12.3352
G01 X35.09835Y12.30884
G01 X37.68553Y9.72167
G01 X37.75326Y9.7459
G01 X37.83417Y9.76617
G01 X37.91669Y9.77841
G01 X38.0Y9.7825
G01 X38.08331Y9.77841
G01 X38.16583Y9.76617
G01 X38.24674Y9.7459
G01 X38.32528Y9.7178
G01 X38.40069Y9.68213
G01 X38.47223Y9.63925
G01 X38.53923Y9.58956
G01 X38.60104Y9.53354
G01 X38.65706Y9.47173
G01 X38.70675Y9.40473
G01 X38.74963Y9.33319
G01 X38.7853Y9.25778
G01 X38.8134Y9.17924
G01 X38.83367Y9.09833
G01 X38.84591Y9.01581
G01 X38.85Y8.6325
G01 X38.84591Y8.54919
G01 X38.83367Y8.46667
G01 X38.8134Y8.38576
G01 X38.7853Y8.30722
G01 X38.74963Y8.23181
G01 X38.70675Y8.16027
G01 X38.65706Y8.09327
G01 X38.60104Y8.03146
G01 X38.53923Y7.97544
G01 X38.47223Y7.92575
G01 X38.40069Y7.88287
G01 X38.32528Y7.8472
G01 X38.24674Y7.8191
G01 X38.16583Y7.79883
G01 X38.08331Y7.78659
G01 X38.0Y7.7825
G01 X37.91669Y7.78659
G01 X37.83417Y7.79883
G01 X37.75326Y7.8191
G01 X37.67472Y7.8472
G01 X37.59931Y7.88287
G01 X37.52777Y7.92575
G01 X37.46077Y7.97544
G01 X37.39896Y8.03146
G01 X37.34294Y8.09327
G01 X37.29325Y8.16027
G01 X37.25037Y8.23181
G01 X37.2147Y8.30722
G01 X37.1866Y8.38576
G01 X37.16633Y8.46667
G01 X37.15409Y8.54919
G01 X37.15Y8.9325
G01 X37.15409Y9.01581
G01 X37.16633Y9.09833
G01 X37.16857Y9.10726
G01 X34.64982Y11.626
G01 X30.81382Y11.626
G01 X30.78718Y11.58154
G01 X30.78718Y11.58154
M5
G01 X32.79851Y14.57759
M3
G01 X32.73546Y14.53082
G01 X32.66812Y14.49046
G01 X32.59715Y14.4569
G01 X32.52323Y14.43045
G01 X32.44707Y14.41137
G01 X32.36941Y14.39985
G01 X32.291Y14.396
G01 X32.21259Y14.39985
G01 X32.13493Y14.41137
G01 X32.05877Y14.43045
G01 X31.98485Y14.4569
G01 X31.91388Y14.49046
G01 X31.84654Y14.53082
G01 X31.78349Y14.57759
G01 X31.72531Y14.63031
G01 X31.67259Y14.68849
G01 X31.62582Y14.75154
G01 X31.59918Y14.796
G01 X30.922Y14.796
G01 X30.922Y13.766
G01 X29.322Y13.766
G01 X29.322Y15.366
G01 X30.35631Y15.366
G01 X30.46916Y15.47884
G01 X30.49824Y15.5052
G01 X30.52977Y15.52859
G01 X30.56344Y15.54877
G01 X30.59893Y15.56555
G01 X30.63589Y15.57878
G01 X30.67396Y15.58831
G01 X30.71279Y15.59407
G01 X30.752Y15.596
G01 X31.59918Y15.596
G01 X31.62582Y15.64046
G01 X31.67259Y15.70351
G01 X31.72531Y15.76169
G01 X31.78349Y15.81441
G01 X31.84654Y15.86118
G01 X31.91388Y15.90154
G01 X31.98485Y15.9351
G01 X32.05877Y15.96155
G01 X32.13493Y15.98063
G01 X32.21259Y15.99215
G01 X32.291Y15.996
G01 X32.36941Y15.99215
G01 X32.44707Y15.98063
G01 X32.52323Y15.96155
G01 X32.59715Y15.9351
G01 X32.66812Y15.90154
G01 X32.73546Y15.86118
G01 X32.79851Y15.81441
G01 X32.85669Y15.76169
G01 X32.90941Y15.70351
G01 X32.95618Y15.64046
G01 X32.99654Y15.57312
G01 X33.0301Y15.50215
G01 X33.05655Y15.42823
G01 X33.07563Y15.35207
G01 X33.08715Y15.27441
G01 X33.091Y15.196
G01 X33.08715Y15.11759
G01 X33.07563Y15.03993
G01 X33.05655Y14.96377
G01 X33.0301Y14.88985
G01 X32.99654Y14.81888
G01 X32.95618Y14.75154
G01 X32.90941Y14.68849
G01 X32.85669Y14.63031
G01 X32.79851Y14.57759
G01 X32.79851Y14.57759
M5
G01 X13.41518Y16.30554
M3
G01 X13.36841Y16.24249
G01 X13.31569Y16.18431
G01 X13.25751Y16.13159
G01 X13.19446Y16.08482
G01 X13.15Y16.05818
G01 X13.15Y14.44182
G01 X13.19446Y14.41518
G01 X13.25751Y14.36841
G01 X13.31569Y14.31569
G01 X13.36841Y14.25751
G01 X13.41518Y14.19446
G01 X13.45554Y14.12712
G01 X13.4891Y14.05615
G01 X13.51555Y13.98223
G01 X13.53463Y13.90607
G01 X13.54615Y13.82841
G01 X13.55Y13.75
G01 X13.54615Y13.67159
G01 X13.53463Y13.59393
G01 X13.51555Y13.51777
G01 X13.4891Y13.44385
G01 X13.45554Y13.37288
G01 X13.41518Y13.30554
G01 X13.36841Y13.24249
G01 X13.31569Y13.18431
G01 X13.25751Y13.13159
G01 X13.19446Y13.08482
G01 X13.15Y13.05818
G01 X13.15Y11.44182
G01 X13.19446Y11.41518
G01 X13.25751Y11.36841
G01 X13.31569Y11.31569
G01 X13.36841Y11.25751
G01 X13.41518Y11.19446
G01 X13.45554Y11.12712
G01 X13.4891Y11.05615
G01 X13.51555Y10.98223
G01 X13.53463Y10.90607
G01 X13.54615Y10.82841
G01 X13.55Y10.75
G01 X13.54615Y10.67159
G01 X13.53463Y10.59393
G01 X13.51555Y10.51777
G01 X13.4891Y10.44385
G01 X13.45554Y10.37288
G01 X13.41518Y10.30554
G01 X13.36841Y10.24249
G01 X13.31569Y10.18431
G01 X13.25751Y10.13159
G01 X13.19446Y10.08482
G01 X13.12712Y10.04446
G01 X13.05615Y10.0109
G01 X12.98223Y9.98445
G01 X12.90607Y9.96537
G01 X12.82841Y9.95385
G01 X12.75Y9.95
G01 X12.67159Y9.95385
G01 X12.59393Y9.96537
G01 X12.51777Y9.98445
G01 X12.44385Y10.0109
G01 X12.37288Y10.04446
G01 X12.30554Y10.08482
G01 X12.24249Y10.13159
G01 X12.18431Y10.18431
G01 X12.13159Y10.24249
G01 X12.08482Y10.30554
G01 X12.04446Y10.37288
G01 X12.0109Y10.44385
G01 X11.98445Y10.51777
G01 X11.96537Y10.59393
G01 X11.95385Y10.67159
G01 X11.95Y10.75
G01 X11.95385Y10.82841
G01 X11.96537Y10.90607
G01 X11.98445Y10.98223
G01 X12.0109Y11.05615
G01 X12.04446Y11.12712
G01 X12.08482Y11.19446
G01 X12.13159Y11.25751
G01 X12.18431Y11.31569
G01 X12.24249Y11.36841
G01 X12.30554Y11.41518
G01 X12.35Y11.44182
G01 X12.35Y13.05818
G01 X12.30554Y13.08482
G01 X12.24249Y13.13159
G01 X12.18431Y13.18431
G01 X12.13159Y13.24249
G01 X12.08482Y13.30554
G01 X12.04446Y13.37288
G01 X12.0109Y13.44385
G01 X11.98445Y13.51777
G01 X11.96537Y13.59393
G01 X11.95385Y13.67159
G01 X11.95Y13.75
G01 X11.95385Y13.82841
G01 X11.96537Y13.90607
G01 X11.98445Y13.98223
G01 X12.0109Y14.05615
G01 X12.04446Y14.12712
G01 X12.08482Y14.19446
G01 X12.13159Y14.25751
G01 X12.18431Y14.31569
G01 X12.24249Y14.36841
G01 X12.30554Y14.41518
G01 X12.35Y14.44182
G01 X12.35Y16.05818
G01 X12.30554Y16.08482
G01 X12.24249Y16.13159
G01 X12.18431Y16.18431
G01 X12.13159Y16.24249
G01 X12.08482Y16.30554
G01 X12.04446Y16.37288
G01 X12.0109Y16.44385
G01 X11.98445Y16.51777
G01 X11.96537Y16.59393
G01 X11.95385Y16.67159
G01 X11.95Y16.75
G01 X11.95385Y16.82841
G01 X11.96537Y16.90607
G01 X11.98445Y16.98223
G01 X12.0109Y17.05615
G01 X12.04446Y17.12712
G01 X12.08482Y17.19446
G01 X12.13159Y17.25751
G01 X12.18431Y17.31569
G01 X12.24249Y17.36841
G01 X12.30554Y17.41518
G01 X12.35Y17.44182
G01 X12.35Y19.05818
G01 X12.30554Y19.08482
G01 X12.24249Y19.13159
G01 X12.18431Y19.18431
G01 X12.13159Y19.24249
G01 X12.08482Y19.30554
G01 X12.04446Y19.37288
G01 X12.0109Y19.44385
G01 X11.98445Y19.51777
G01 X11.96537Y19.59393
G01 X11.95385Y19.67159
G01 X11.95Y19.75
G01 X11.95385Y19.82841
G01 X11.96537Y19.90607
G01 X11.98445Y19.98223
G01 X12.0109Y20.05615
G01 X12.04446Y20.12712
G01 X12.08482Y20.19446
G01 X12.13159Y20.25751
G01 X12.18431Y20.31569
G01 X12.24249Y20.36841
G01 X12.30554Y20.41518
G01 X12.35Y20.44182
G01 X12.35Y22.05818
G01 X12.30554Y22.08482
G01 X12.24249Y22.13159
G01 X12.18431Y22.18431
G01 X12.13159Y22.24249
G01 X12.08482Y22.30554
G01 X12.04446Y22.37288
G01 X12.0109Y22.44385
G01 X11.98445Y22.51777
G01 X11.96537Y22.59393
G01 X11.95385Y22.67159
G01 X11.95Y22.75
G01 X11.95385Y22.82841
G01 X11.96537Y22.90607
G01 X11.98445Y22.98223
G01 X12.0109Y23.05615
G01 X12.04446Y23.12712
G01 X12.08482Y23.19446
G01 X12.13159Y23.25751
G01 X12.18431Y23.31569
G01 X12.24249Y23.36841
G01 X12.30554Y23.41518
G01 X12.35Y23.44182
G01 X12.35Y25.05818
G01 X12.30554Y25.08482
G01 X12.24249Y25.13159
G01 X12.18431Y25.18431
G01 X12.13159Y25.24249
G01 X12.08482Y25.30554
G01 X12.05818Y25.35
G01 X11.16569Y25.35
G01 X10.25Y24.43431
G01 X10.25Y23.65
G01 X8.75Y23.65
G01 X8.75Y24.85
G01 X9.53431Y24.85
G01 X10.71716Y26.03284
G01 X10.74624Y26.0592
G01 X10.77777Y26.08259
G01 X10.81144Y26.10277
G01 X10.84693Y26.11955
G01 X10.88389Y26.13278
G01 X10.92196Y26.14231
G01 X10.96079Y26.14807
G01 X11.0Y26.15
G01 X12.05818Y26.15
G01 X12.08482Y26.19446
G01 X12.13159Y26.25751
G01 X12.18431Y26.31569
G01 X12.24249Y26.36841
G01 X12.30554Y26.41518
G01 X12.37288Y26.45554
G01 X12.44385Y26.4891
G01 X12.51777Y26.51555
G01 X12.59393Y26.53463
G01 X12.67159Y26.54615
G01 X12.75Y26.55
G01 X12.82841Y26.54615
G01 X12.90607Y26.53463
G01 X12.98223Y26.51555
G01 X13.05615Y26.4891
G01 X13.12712Y26.45554
G01 X13.19446Y26.41518
G01 X13.25751Y26.36841
G01 X13.31569Y26.31569
G01 X13.36841Y26.25751
G01 X13.41518Y26.19446
G01 X13.45554Y26.12712
G01 X13.4891Y26.05615
G01 X13.51555Y25.98223
G01 X13.53463Y25.90607
G01 X13.54615Y25.82841
G01 X13.55Y25.75
G01 X13.54615Y25.67159
G01 X13.53463Y25.59393
G01 X13.51555Y25.51777
G01 X13.4891Y25.44385
G01 X13.45554Y25.37288
G01 X13.41518Y25.30554
G01 X13.36841Y25.24249
G01 X13.31569Y25.18431
G01 X13.25751Y25.13159
G01 X13.19446Y25.08482
G01 X13.15Y25.05818
G01 X13.15Y23.44182
G01 X13.19446Y23.41518
G01 X13.25751Y23.36841
G01 X13.31569Y23.31569
G01 X13.36841Y23.25751
G01 X13.41518Y23.19446
G01 X13.45554Y23.12712
G01 X13.4891Y23.05615
G01 X13.51555Y22.98223
G01 X13.53463Y22.90607
G01 X13.54615Y22.82841
G01 X13.55Y22.75
G01 X13.54615Y22.67159
G01 X13.53463Y22.59393
G01 X13.51555Y22.51777
G01 X13.4891Y22.44385
G01 X13.45554Y22.37288
G01 X13.41518Y22.30554
G01 X13.36841Y22.24249
G01 X13.31569Y22.18431
G01 X13.25751Y22.13159
G01 X13.19446Y22.08482
G01 X13.15Y22.05818
G01 X13.15Y20.44182
G01 X13.19446Y20.41518
G01 X13.25751Y20.36841
G01 X13.31569Y20.31569
G01 X13.36841Y20.25751
G01 X13.41518Y20.19446
G01 X13.45554Y20.12712
G01 X13.4891Y20.05615
G01 X13.51555Y19.98223
G01 X13.53463Y19.90607
G01 X13.54615Y19.82841
G01 X13.55Y19.75
G01 X13.54615Y19.67159
G01 X13.53463Y19.59393
G01 X13.51555Y19.51777
G01 X13.4891Y19.44385
G01 X13.45554Y19.37288
G01 X13.41518Y19.30554
G01 X13.36841Y19.24249
G01 X13.31569Y19.18431
G01 X13.25751Y19.13159
G01 X13.19446Y19.08482
G01 X13.15Y19.05818
G01 X13.15Y17.44182
G01 X13.19446Y17.41518
G01 X13.25751Y17.36841
G01 X13.31569Y17.31569
G01 X13.36841Y17.25751
G01 X13.41518Y17.19446
G01 X13.45554Y17.12712
G01 X13.4891Y17.05615
G01 X13.51555Y16.98223
G01 X13.53463Y16.90607
G01 X13.54615Y16.82841
G01 X13.55Y16.75
G01 X13.54615Y16.67159
G01 X13.53463Y16.59393
G01 X13.51555Y16.51777
G01 X13.4891Y16.44385
G01 X13.45554Y16.37288
G01 X13.41518Y16.30554
G01 X13.41518Y16.30554
M5
G01 X31.91388Y25.03146
M3
G01 X31.84654Y25.07182
G01 X31.78349Y25.11859
G01 X31.72531Y25.17131
G01 X31.67259Y25.22949
G01 X31.62582Y25.29254
G01 X31.59618Y25.342
G01 X30.922Y25.342
G01 X30.922Y24.942
G01 X29.322Y24.942
G01 X29.322Y26.542
G01 X30.922Y26.542
G01 X30.922Y26.142
G01 X31.60218Y26.142
G01 X31.62582Y26.18146
G01 X31.67259Y26.24451
G01 X31.72531Y26.30269
G01 X31.78349Y26.35541
G01 X31.84654Y26.40218
G01 X31.91388Y26.44254
G01 X31.98485Y26.4761
G01 X32.05877Y26.50255
G01 X32.13493Y26.52163
G01 X32.21259Y26.53315
G01 X32.291Y26.537
G01 X32.36941Y26.53315
G01 X32.44707Y26.52163
G01 X32.52323Y26.50255
G01 X32.59715Y26.4761
G01 X32.66812Y26.44254
G01 X32.73546Y26.40218
G01 X32.79851Y26.35541
G01 X32.85669Y26.30269
G01 X32.90941Y26.24451
G01 X32.95618Y26.18146
G01 X32.99654Y26.11412
G01 X33.0301Y26.04315
G01 X33.05655Y25.96923
G01 X33.07563Y25.89307
G01 X33.08715Y25.81541
G01 X33.091Y25.737
G01 X33.08715Y25.65859
G01 X33.07563Y25.58093
G01 X33.05655Y25.50477
G01 X33.0301Y25.43085
G01 X32.99654Y25.35988
G01 X32.95618Y25.29254
G01 X32.90941Y25.22949
G01 X32.85669Y25.17131
G01 X32.79851Y25.11859
G01 X32.73546Y25.07182
G01 X32.66812Y25.03146
G01 X32.59715Y24.9979
G01 X32.52323Y24.97145
G01 X32.44707Y24.95237
G01 X32.36941Y24.94085
G01 X32.291Y24.937
G01 X32.21259Y24.94085
G01 X32.13493Y24.95237
G01 X32.05877Y24.97145
G01 X31.98485Y24.9979
G01 X31.91388Y25.03146
G01 X31.91388Y25.03146
M5
G01 X50.54904Y1.99025
M3
G01 X50.54785Y1.98549
G01 X50.54619Y1.98087
G01 X50.5441Y1.97643
G01 X50.54157Y1.97222
G01 X50.53865Y1.96828
G01 X50.53536Y1.96464
G01 X50.53172Y1.96135
G01 X50.52778Y1.95843
G01 X50.52357Y1.9559
G01 X50.51913Y1.95381
G01 X50.51451Y1.95215
G01 X50.50975Y1.95096
G01 X50.5049Y1.95024
G01 X50.5Y1.95
G01 X2.0Y1.95
G01 X1.9951Y1.95024
G01 X1.99025Y1.95096
G01 X1.98549Y1.95215
G01 X1.98087Y1.95381
G01 X1.97643Y1.9559
G01 X1.97222Y1.95843
G01 X1.96828Y1.96135
G01 X1.96464Y1.96464
G01 X1.96135Y1.96828
G01 X1.95843Y1.97222
G01 X1.9559Y1.97643
G01 X1.95381Y1.98087
G01 X1.95215Y1.98549
G01 X1.95096Y1.99025
G01 X1.95024Y1.9951
G01 X1.95Y2.0
G01 X1.95Y27.35
G01 X1.95012Y27.35243
G01 X1.95024Y27.35486
G01 X1.95024Y27.35488
G01 X1.95024Y27.3549
G01 X1.9506Y27.35731
G01 X1.95095Y27.35972
G01 X1.95096Y27.35974
G01 X1.95096Y27.35975
G01 X1.95155Y27.36212
G01 X1.95214Y27.36448
G01 X1.95215Y27.3645
G01 X1.95215Y27.36451
G01 X1.95297Y27.36681
G01 X1.95379Y27.3691
G01 X1.9538Y27.36912
G01 X1.95381Y27.36913
G01 X1.95485Y27.37133
G01 X1.95589Y27.37354
G01 X1.9559Y27.37355
G01 X1.9559Y27.37357
G01 X1.95716Y27.37566
G01 X1.9584Y27.37775
G01 X1.95842Y27.37776
G01 X1.95843Y27.37778
G01 X1.95988Y27.37973
G01 X1.96132Y27.38169
G01 X1.96134Y27.3817
G01 X1.96135Y27.38172
G01 X1.96298Y27.38352
G01 X1.96462Y27.38533
G01 X1.96463Y27.38534
G01 X1.96464Y27.38536
G01 X1.96645Y27.38699
G01 X1.96825Y27.38863
G01 X1.96827Y27.38864
G01 X1.96828Y27.38865
G01 X1.97024Y27.3901
G01 X1.97219Y27.39155
G01 X1.97221Y27.39156
G01 X1.97222Y27.39157
G01 X1.97431Y27.39282
G01 X1.9764Y27.39408
G01 X1.97641Y27.39409
G01 X1.97643Y27.3941
G01 X1.97863Y27.39514
G01 X1.98083Y27.39618
G01 X1.98085Y27.39619
G01 X1.98087Y27.39619
G01 X1.98316Y27.39701
G01 X1.98545Y27.39784
G01 X1.98547Y27.39784
G01 X1.98549Y27.39785
G01 X1.98785Y27.39844
G01 X1.99021Y27.39903
G01 X1.99023Y27.39903
G01 X1.99025Y27.39904
G01 X1.99265Y27.3994
G01 X1.99506Y27.39976
G01 X1.99508Y27.39976
G01 X1.9951Y27.39976
G01 X1.99753Y27.39988
G01 X1.99996Y27.4
G01 X50.49996Y27.438
G01 X50.49998Y27.438
G01 X50.5Y27.438
G01 X50.50243Y27.43788
G01 X50.50486Y27.43776
G01 X50.50488Y27.43776
G01 X50.5049Y27.43776
G01 X50.50731Y27.4374
G01 X50.50972Y27.43705
G01 X50.50974Y27.43704
G01 X50.50975Y27.43704
G01 X50.51212Y27.43645
G01 X50.51448Y27.43586
G01 X50.5145Y27.43585
G01 X50.51451Y27.43585
G01 X50.51681Y27.43503
G01 X50.5191Y27.43421
G01 X50.51912Y27.4342
G01 X50.51913Y27.43419
G01 X50.52133Y27.43315
G01 X50.52354Y27.43211
G01 X50.52355Y27.4321
G01 X50.52357Y27.4321
G01 X50.52566Y27.43084
G01 X50.52775Y27.4296
G01 X50.52776Y27.42958
G01 X50.52778Y27.42957
G01 X50.52973Y27.42812
G01 X50.53169Y27.42668
G01 X50.5317Y27.42666
G01 X50.53172Y27.42665
G01 X50.53352Y27.42502
G01 X50.53533Y27.42338
G01 X50.53534Y27.42337
G01 X50.53536Y27.42336
G01 X50.53699Y27.42155
G01 X50.53863Y27.41975
G01 X50.53864Y27.41973
G01 X50.53865Y27.41972
G01 X50.5401Y27.41776
G01 X50.54155Y27.41581
G01 X50.54156Y27.41579
G01 X50.54157Y27.41578
G01 X50.54282Y27.41369
G01 X50.54408Y27.4116
G01 X50.54409Y27.41159
G01 X50.5441Y27.41157
G01 X50.54514Y27.40937
G01 X50.54618Y27.40717
G01 X50.54619Y27.40715
G01 X50.54619Y27.40713
G01 X50.54701Y27.40484
G01 X50.54784Y27.40255
G01 X50.54784Y27.40253
G01 X50.54785Y27.40251
G01 X50.54844Y27.40015
G01 X50.54903Y27.39779
G01 X50.54903Y27.39777
G01 X50.54904Y27.39775
G01 X50.5494Y27.39535
G01 X50.54976Y27.39294
G01 X50.54976Y27.39292
G01 X50.54976Y27.3929
G01 X50.54988Y27.39047
G01 X50.55Y27.38804
G01 X50.55Y27.38802
G01 X50.55Y27.388
G01 X50.55Y2.0
G01 X50.54976Y1.9951
G01 X50.54904Y1.99025
G01 X50.54904Y1.99025
M5

M5 ; Disable End-Effector Signal

; Returning the Deactivating Tool-1
C0 ; PWM Tool select demultiplexer to select tool zero which is the empty tool slot in multiplexers
#TODO X-0.0Y-0.0Z-0.0 ;  ;Remove tool offset coordinate
G00X165.0Y0.0Z10.5 ; Go to Tool-1 Home Pos
G00X92 ; Enter Female Kinematic Mount Home Pos
A0 ; Latch OFF Kinematic Mount
G4 P5 ; Wait for Kinematic Mount to fully detach
G00X188 ; Exit Female Kinematic Mount Home Pos

; Machine deinitialization Sequence... 
G00X0.0Y0.0Z0.0
B0 ; Turn Machine OFF
