; This gcode is generated by my specialised python script for my PCB manufacturer project :))

; Machine Initialization Sequence...

G21 ; to set metric units
G90 ; to set absolute mode , G91 for incremental mode
G94 ; To set the active feed rate mode to units per minute mode

M5 ; disabling spindle PWM
C0 ; Choosing the empty tool slot in the multiplexer circuits

B1 ; Turn ON Machine

$H ; Homing :)
G10 P0 L20 X0.0Y0.0Z0.0 ; Force Reset current coordinates after homing


; The following gcode is the PCB trace laser marking gcode

M5 ; Being extra sure it won't light up before activation

; Getting and Activating Tool-1, The Tool.Laser
G00X165.0Y0.0Z10.5 ; Go to Tool-1 Home Pos
G00X188 ; Enter Female Kinematic Mount Home Pos
A1 ; Latch on Kinematic Mount
G4 P5 ; Wait for Kinematic Mount to fully attach
G00X92 ; Exit Female Kinematic Mount Home Pos
#TODO X0.0Y0.0Z0.0 ;  ;Add tool offset coordinate
C1 ; Choosing tool 1 in the choose demultiplexer circuits

F400 ; setting default feedrate

G00Z16 ; Moving to correct focal length Z position

S200 ; Setting Laser Power

; Number of passes: 1

; Pass number: 1
G01 X45.37007389066888Y9.219969143868175
M3
G01 X45.364314112161296Y9.18113987119355
G01 X45.354776134292884Y9.143062129098215
G01 X45.341551813004514Y9.106102627053964
G01 X45.32476850573934Y9.0706173052696
G01 X45.304587844921016Y9.03694790679216
G01 X45.281204181345096Y9.005418686334542
G01 X45.25484271247462Y8.976333287525382
G01 X41.36966571247462Y5.091156287525381
G01 X41.369665689787624Y5.091156266963089
G01 X41.36966566922533Y5.091156244276093
G01 X41.355122991581986Y5.077975533614505
G01 X41.34058031366546Y5.064794818654906
G01 X41.34058028907225Y5.064794800415334
G01 X41.34058026638525Y5.064794779853047
G01 X41.32481567854357Y5.053102968404976
G01 X41.30905109320784Y5.041411155078983
G01 X41.30905106694527Y5.041411139337804
G01 X41.30905104235205Y5.0414111210982355
G01 X41.29221636155313Y5.0313208052404255
G01 X41.2753816947304Y5.021230494260658
G01 X41.27538166705139Y5.021230481169463
G01 X41.2753816407888Y5.021230465428277
G01 X41.257639008703734Y5.012838828740344
G01 X41.23989637294604Y5.004447186995486
G01 X41.23989634411712Y5.0044471766803325
G01 X41.23989631643811Y5.004447163589142
G01 X41.221416599333764Y4.997835018268416
G01 X41.20293687090179Y4.991222865707117
G01 X41.20293684120064Y4.991222858267367
G01 X41.20293681237174Y4.991222847952226
G01 X41.18389797332145Y4.986453870126825
G01 X41.164859128806455Y4.981684887838708
G01 X41.1648590985191Y4.981684883346003
G01 X41.16485906881796Y4.98168487590626
G01 X41.14544446297947Y4.9788049942105355
G01 X41.12602985613183Y4.975925109331122
G01 X41.12602982554996Y4.975925107828732
G01 X41.12602979526261Y4.975925103336031
G01 X41.10642639682081Y4.974962053130588
G01 X41.086823Y4.973999
G01 X41.08682296941813Y4.973999001502391
G01 X41.08682293883627Y4.973999000000005
G01 X34.546999938836265Y4.974000000000005
G01 X34.52739654312793Y4.974963056080716
G01 X34.50779314386817Y4.975926109331121
G01 X34.507793113580824Y4.975926113823824
G01 X34.50779308299896Y4.97592611532622
G01 X34.48837847974306Y4.978806002706844
G01 X34.468963871193544Y4.981685887838707
G01 X34.468963841492396Y4.981685895278458
G01 X34.46896381120506Y4.981685899771165
G01 X34.44992497376872Y4.9864548833800475
G01 X34.43088612909821Y4.991223865707116
G01 X34.43088610026931Y4.9912238760222625
G01 X34.43088607056817Y4.991223883462015
G01 X34.412406356655175Y4.997836034015825
G01 X34.39392662705396Y5.004448186995485
G01 X34.393926599374915Y5.0044482000866966
G01 X34.39392657054604Y5.004448210401837
G01 X34.376183943905254Y5.0128398511546255
G01 X34.3584413052696Y5.0212314942606575
G01 X34.35844127900703Y5.021231510001836
G01 X34.358441251328Y5.021231523093046
G01 X34.34160656997012Y5.031321846283807
G01 X34.32477190679216Y5.041412155078982
G01 X34.32477188219897Y5.041412173318534
G01 X34.32477185593637Y5.041412189059736
G01 X34.309007266287665Y5.0531040093209185
G01 X34.29324268633454Y5.064795818654905
G01 X34.29324266364753Y5.064795839217204
G01 X34.293242639054334Y5.0647958574567715
G01 X34.27869996971134Y5.077976568696189
G01 X34.26415728752538Y5.09115728752538
G01 X32.35334910476277Y7.001965470287989
G01 X32.303072257612904Y6.989371775677416
G01 X32.225413712263645Y6.9778522186622425
G01 X32.147Y6.974
G01 X32.06858628773635Y6.9778522186622425
G01 X31.990927742387097Y6.989371775677416
G01 X31.91477225819643Y7.008447731414233
G01 X31.840853254107927Y7.0348963739909705
G01 X31.7698826105392Y7.068462988521316
G01 X31.702543813584317Y7.108824310157964
G01 X31.639485372669082Y7.1555916373098105
G01 X31.58131457505076Y7.208314575050762
G01 X31.52859163730981Y7.2664853726690835
G01 X31.48182431015796Y7.329543813584318
G01 X31.441462988521316Y7.396882610539202
G01 X31.40789637399097Y7.467853254107928
G01 X31.38144773141423Y7.54177225819643
G01 X31.362371775677413Y7.6179277423870975
G01 X31.35085221866224Y7.695586287736352
G01 X31.346999999999998Y7.774
G01 X31.35085221866224Y7.852413712263648
G01 X31.362371775677413Y7.930072257612903
G01 X31.37496547028799Y7.980349104762776
G01 X31.244157287525383Y8.111157287525382
G01 X31.217795818654906Y8.140242686334542
G01 X31.194412155078982Y8.17177190679216
G01 X31.17423149426066Y8.2054413052696
G01 X31.171025497152595Y8.212219816633421
G01 X31.157448186995484Y8.240926627053964
G01 X31.14422386570712Y8.277886129098215
G01 X31.13468588783871Y8.31596387119355
G01 X31.128926109331122Y8.354793143868175
G01 X31.127000000000002Y8.394
G01 X31.127000000000002Y8.394000000000002
G01 X31.127000000000002Y9.582178297460938
G01 X31.08254381358432Y9.608824310157964
G01 X31.019485372669084Y9.65559163730981
G01 X30.961314575050764Y9.70831457505076
G01 X30.90859163730981Y9.766485372669083
G01 X30.861824310157964Y9.829543813584317
G01 X30.82146298852132Y9.896882610539201
G01 X30.78789637399097Y9.967853254107927
G01 X30.761447731414233Y10.04177225819643
G01 X30.742371775677416Y10.117927742387096
G01 X30.730852218662243Y10.19558628773635
G01 X30.727Y10.274
G01 X30.730852218662243Y10.352413712263647
G01 X30.742371775677416Y10.430072257612903
G01 X30.761447731414233Y10.506227741803569
G01 X30.78789637399097Y10.58014674589207
G01 X30.82146298852132Y10.651117389460797
G01 X30.861824310157964Y10.71845618641568
G01 X30.90859163730981Y10.781514627330916
G01 X30.961314575050764Y10.839685424949238
G01 X31.019485372669084Y10.892408362690189
G01 X31.08254381358432Y10.939175689842035
G01 X31.127000000000002Y10.96582170253906
G01 X31.127000000000002Y12.582178297460938
G01 X31.08254381358432Y12.608824310157964
G01 X31.019485372669084Y12.65559163730981
G01 X30.961314575050764Y12.70831457505076
G01 X30.90859163730981Y12.766485372669083
G01 X30.861824310157964Y12.829543813584317
G01 X30.82146298852132Y12.896882610539201
G01 X30.78789637399097Y12.967853254107927
G01 X30.761447731414233Y13.04177225819643
G01 X30.742371775677416Y13.117927742387096
G01 X30.730852218662243Y13.19558628773635
G01 X30.727Y13.274
G01 X30.730852218662243Y13.352413712263647
G01 X30.742371775677416Y13.430072257612903
G01 X30.75496547028799Y13.480349104762771
G01 X30.54531457505076Y13.69
G01 X30.08682170253906Y13.69
G01 X30.060175689842037Y13.645543813584318
G01 X30.01340836269019Y13.582485372669083
G01 X29.960685424949236Y13.524314575050761
G01 X29.902514627330916Y13.47159163730981
G01 X29.83945618641568Y13.424824310157964
G01 X29.7721173894608Y13.384462988521316
G01 X29.70114674589207Y13.35089637399097
G01 X29.62722774180357Y13.324447731414233
G01 X29.5510722576129Y13.305371775677415
G01 X29.47341371226365Y13.293852218662241
G01 X29.395Y13.29
G01 X29.31658628773635Y13.293852218662241
G01 X29.238927742387098Y13.305371775677415
G01 X29.16277225819643Y13.324447731414233
G01 X29.088853254107928Y13.35089637399097
G01 X29.0178826105392Y13.384462988521316
G01 X28.950543813584318Y13.424824310157964
G01 X28.887485372669083Y13.47159163730981
G01 X28.829314575050763Y13.524314575050761
G01 X28.77659163730981Y13.582485372669083
G01 X28.729824310157962Y13.645543813584318
G01 X28.689462988521317Y13.712882610539202
G01 X28.65589637399097Y13.783853254107928
G01 X28.62944773141423Y13.85777225819643
G01 X28.610371775677415Y13.933927742387096
G01 X28.59885221866224Y14.011586287736352
G01 X28.595Y14.09
G01 X28.59885221866224Y14.168413712263648
G01 X28.610371775677415Y14.246072257612903
G01 X28.62944773141423Y14.32222774180357
G01 X28.65589637399097Y14.396146745892072
G01 X28.689462988521317Y14.467117389460798
G01 X28.729824310157962Y14.534456186415682
G01 X28.77659163730981Y14.597514627330916
G01 X28.829314575050763Y14.655685424949239
G01 X28.887485372669083Y14.70840836269019
G01 X28.950543813584318Y14.755175689842035
G01 X29.0178826105392Y14.795537011478684
G01 X29.088853254107928Y14.82910362600903
G01 X29.16277225819643Y14.855552268585766
G01 X29.238927742387098Y14.874628224322585
G01 X29.31658628773635Y14.886147781337758
G01 X29.395Y14.89
G01 X29.473413712263646Y14.886147781337758
G01 X29.5510722576129Y14.874628224322585
G01 X29.62722774180357Y14.855552268585766
G01 X29.70114674589207Y14.82910362600903
G01 X29.7721173894608Y14.795537011478684
G01 X29.83945618641568Y14.755175689842037
G01 X29.902514627330916Y14.70840836269019
G01 X29.960685424949236Y14.655685424949239
G01 X30.01340836269019Y14.597514627330916
G01 X30.060175689842037Y14.534456186415682
G01 X30.08682170253906Y14.49
G01 X30.711Y14.49
G01 X30.750206856131822Y14.488073890668879
G01 X30.78903612880645Y14.482314112161292
G01 X30.827113870901783Y14.472776134292884
G01 X30.864073372946034Y14.459551813004515
G01 X30.8995586947304Y14.442768505739343
G01 X30.914866751828757Y14.4335932094151
G01 X30.93322809320784Y14.422587844921019
G01 X30.964757313665455Y14.399204181345095
G01 X30.993842712474617Y14.372842712474618
G01 X31.32065089523723Y14.04603452971201
G01 X31.3709277423871Y14.058628224322584
G01 X31.44858628773635Y14.070147781337756
G01 X31.527Y14.074
G01 X31.605413712263648Y14.070147781337756
G01 X31.683072257612903Y14.058628224322584
G01 X31.75922774180357Y14.039552268585766
G01 X31.833146745892073Y14.013103626009029
G01 X31.9041173894608Y13.979537011478683
G01 X31.971456186415683Y13.939175689842035
G01 X32.034514627330914Y13.892408362690189
G01 X32.09268542494924Y13.839685424949238
G01 X32.14540836269019Y13.781514627330916
G01 X32.19217568984204Y13.71845618641568
G01 X32.232537011478684Y13.651117389460797
G01 X32.26610362600903Y13.58014674589207
G01 X32.292552268585766Y13.506227741803569
G01 X32.31162822432258Y13.430072257612903
G01 X32.32314778133776Y13.352413712263647
G01 X32.327Y13.274
G01 X32.32314778133776Y13.19558628773635
G01 X32.31162822432258Y13.117927742387096
G01 X32.292552268585766Y13.04177225819643
G01 X32.26610362600903Y12.967853254107927
G01 X32.232537011478684Y12.896882610539201
G01 X32.19217568984204Y12.829543813584317
G01 X32.14540836269019Y12.766485372669083
G01 X32.09268542494924Y12.70831457505076
G01 X32.034514627330914Y12.65559163730981
G01 X31.971456186415683Y12.608824310157964
G01 X31.927Y12.582178297460938
G01 X31.927Y10.96582170253906
G01 X31.971456186415683Y10.939175689842035
G01 X32.034514627330914Y10.892408362690189
G01 X32.09268542494924Y10.839685424949238
G01 X32.14540836269019Y10.781514627330916
G01 X32.19217568984204Y10.71845618641568
G01 X32.232537011478684Y10.651117389460797
G01 X32.26610362600903Y10.58014674589207
G01 X32.292552268585766Y10.506227741803569
G01 X32.31162822432258Y10.430072257612903
G01 X32.32314778133776Y10.352413712263647
G01 X32.327Y10.274
G01 X32.32314778133776Y10.19558628773635
G01 X32.31162822432258Y10.117927742387096
G01 X32.292552268585766Y10.04177225819643
G01 X32.26610362600903Y9.967853254107927
G01 X32.232537011478684Y9.896882610539201
G01 X32.19217568984204Y9.829543813584317
G01 X32.14540836269019Y9.766485372669083
G01 X32.09268542494924Y9.70831457505076
G01 X32.034514627330914Y9.65559163730981
G01 X31.971456186415683Y9.608824310157964
G01 X31.927Y9.582178297460938
G01 X31.927Y8.559685424949238
G01 X31.940650895237226Y8.54603452971201
G01 X31.990927742387097Y8.558628224322584
G01 X32.06858628773635Y8.570147781337758
G01 X32.147Y8.574
G01 X32.225413712263645Y8.570147781337758
G01 X32.303072257612904Y8.558628224322584
G01 X32.37922774180357Y8.539552268585767
G01 X32.45314674589207Y8.513103626009029
G01 X32.5241173894608Y8.479537011478683
G01 X32.59145618641568Y8.439175689842036
G01 X32.65451462733091Y8.39240836269019
G01 X32.712685424949235Y8.339685424949238
G01 X32.76540836269019Y8.281514627330917
G01 X32.812175689842036Y8.218456186415683
G01 X32.85253701147868Y8.151117389460799
G01 X32.886103626009024Y8.080146745892073
G01 X32.91255226858576Y8.00622774180357
G01 X32.93162822432258Y7.930072257612903
G01 X32.94314778133776Y7.852413712263648
G01 X32.946999999999996Y7.774
G01 X32.94314778133776Y7.695586287736352
G01 X32.93162822432258Y7.6179277423870975
G01 X32.91903452971201Y7.567650895237229
G01 X34.712685450284084Y5.773999974665152
G01 X40.92113760038561Y5.77399902533485
G01 X44.572Y9.424861424949238
G01 X44.572Y12.533314575050762
G01 X42.43131457505076Y14.674
G01 X41.672Y14.674
G01 X41.672Y15.873999999999999
G01 X43.122Y15.873999999999999
G01 X43.122Y15.114685424949235
G01 X45.25484271247462Y12.981842712474618
G01 X45.281204181345096Y12.952757313665458
G01 X45.304587844921016Y12.92122809320784
G01 X45.32476850573934Y12.8875586947304
G01 X45.341551813004514Y12.852073372946036
G01 X45.354776134292884Y12.815113870901785
G01 X45.364314112161296Y12.77703612880645
G01 X45.37007389066888Y12.738206856131825
G01 X45.372Y12.699
G01 X45.372Y9.259176
G01 X45.37007389066888Y9.219969143868175
G01 X45.37007389066888Y9.219969143868175
M5
G01 X42.0252580243337Y13.587399285372376
M3
G01 X42.10617322628629Y13.607667488342745
G01 X42.18868543071987Y13.619907017671366
G01 X42.522Y13.623999999999999
G01 X42.605314569280125Y13.619907017671366
G01 X42.68782677371371Y13.607667488342745
G01 X42.76874197566629Y13.587399285372376
G01 X42.847280917510325Y13.559297602634592
G01 X42.922687226302095Y13.5236330746961
G01 X42.99423469806666Y13.480749170457162
G01 X43.061234291539094Y13.431058885358325
G01 X43.123040764008564Y13.375040764008565
G01 X43.17905888535832Y13.313234291539098
G01 X43.228749170457164Y13.246234698066662
G01 X43.2716330746961Y13.174687226302098
G01 X43.30729760263459Y13.099280917510326
G01 X43.335399285372375Y13.020741975666292
G01 X43.355667488342746Y12.939826773713708
G01 X43.367907017671364Y12.857314569280126
G01 X43.372Y12.774
G01 X43.367907017671364Y12.690685430719872
G01 X43.355667488342746Y12.60817322628629
G01 X43.335399285372375Y12.527258024333706
G01 X43.30729760263459Y12.448719082489673
G01 X43.3010903902925Y12.435595034656737
G01 X44.25484271247462Y11.48184271247462
G01 X44.281204181345096Y11.452757313665458
G01 X44.304587844921016Y11.42122809320784
G01 X44.32476850573934Y11.3875586947304
G01 X44.341551813004514Y11.352073372946036
G01 X44.354776134292884Y11.315113870901785
G01 X44.364314112161296Y11.277036128806452
G01 X44.37007389066888Y11.238206856131825
G01 X44.372Y11.199
G01 X44.372Y9.67339
G01 X44.37007389066888Y9.634183143868174
G01 X44.364314112161296Y9.595353871193549
G01 X44.354776134292884Y9.557276129098215
G01 X44.341551813004514Y9.520316627053964
G01 X44.32476850573934Y9.4848313052696
G01 X44.304587844921016Y9.451161906792159
G01 X44.281204181345096Y9.419632686334541
G01 X44.25484271247462Y9.390547287525381
G01 X40.95545271247462Y6.09115728752538
G01 X40.92636731366546Y6.064795818654905
G01 X40.89483809320784Y6.041412155078982
G01 X40.861168694730395Y6.0212314942606575
G01 X40.82568337294604Y6.004448186995485
G01 X40.788723870901784Y5.991223865707116
G01 X40.75064612880645Y5.981685887838707
G01 X40.711816856131826Y5.975926109331121
G01 X40.67261Y5.973999999999999
G01 X36.547Y5.973999999999999
G01 X36.50779314386817Y5.975926109331121
G01 X36.468963871193544Y5.981685887838707
G01 X36.43088612909821Y5.991223865707116
G01 X36.39392662705396Y6.004448186995485
G01 X36.3584413052696Y6.0212314942606575
G01 X36.32477190679216Y6.041412155078982
G01 X36.29324268633454Y6.064795818654905
G01 X36.26415728752538Y6.09115728752538
G01 X35.35334910476277Y7.001965470287989
G01 X35.303072257612904Y6.989371775677416
G01 X35.225413712263645Y6.9778522186622425
G01 X35.147Y6.974
G01 X35.06858628773635Y6.9778522186622425
G01 X34.99092774238709Y6.989371775677416
G01 X34.91477225819643Y7.008447731414233
G01 X34.84085325410793Y7.0348963739909705
G01 X34.7698826105392Y7.068462988521316
G01 X34.70254381358432Y7.108824310157964
G01 X34.639485372669085Y7.1555916373098105
G01 X34.58131457505076Y7.208314575050762
G01 X34.52859163730981Y7.2664853726690835
G01 X34.48182431015796Y7.329543813584318
G01 X34.441462988521316Y7.396882610539202
G01 X34.40789637399097Y7.467853254107928
G01 X34.381447731414234Y7.54177225819643
G01 X34.36237177567742Y7.6179277423870975
G01 X34.35085221866224Y7.695586287736352
G01 X34.347Y7.774
G01 X34.35085221866224Y7.852413712263648
G01 X34.36237177567742Y7.930072257612903
G01 X34.381447731414234Y8.00622774180357
G01 X34.407896373990965Y8.080146745892073
G01 X34.441462988521316Y8.151117389460799
G01 X34.48182431015796Y8.21845618641568
G01 X34.52859163730981Y8.281514627330916
G01 X34.58131457505076Y8.339685424949238
G01 X34.63948537266908Y8.392408362690189
G01 X34.70254381358431Y8.439175689842036
G01 X34.747Y8.465821702539062
G01 X34.747Y15.60831457505076
G01 X34.48131457505076Y15.874
G01 X32.21882170253906Y15.874
G01 X32.19217568984204Y15.82954381358432
G01 X32.14540836269019Y15.766485372669084
G01 X32.09268542494924Y15.708314575050762
G01 X32.034514627330914Y15.655591637309811
G01 X31.971456186415683Y15.608824310157965
G01 X31.9041173894608Y15.568462988521317
G01 X31.833146745892073Y15.534896373990971
G01 X31.75922774180357Y15.508447731414234
G01 X31.683072257612903Y15.489371775677416
G01 X31.60541371226365Y15.477852218662242
G01 X31.527Y15.474
G01 X31.44858628773635Y15.477852218662242
G01 X31.3709277423871Y15.489371775677416
G01 X31.29477225819643Y15.508447731414234
G01 X31.22085325410793Y15.534896373990971
G01 X31.1498826105392Y15.568462988521317
G01 X31.08254381358432Y15.608824310157965
G01 X31.019485372669084Y15.655591637309811
G01 X30.961314575050764Y15.708314575050762
G01 X30.90859163730981Y15.766485372669084
G01 X30.861824310157964Y15.82954381358432
G01 X30.82146298852132Y15.896882610539203
G01 X30.78789637399097Y15.96785325410793
G01 X30.761447731414233Y16.04177225819643
G01 X30.742371775677416Y16.1179277423871
G01 X30.730852218662243Y16.19558628773635
G01 X30.727Y16.274
G01 X30.730852218662243Y16.35241371226365
G01 X30.742371775677416Y16.430072257612903
G01 X30.761447731414233Y16.50622774180357
G01 X30.78789637399097Y16.580146745892073
G01 X30.82146298852132Y16.6511173894608
G01 X30.861824310157964Y16.718456186415683
G01 X30.90859163730981Y16.781514627330917
G01 X30.961314575050764Y16.839685424949238
G01 X31.019485372669084Y16.89240836269019
G01 X31.08254381358432Y16.93917568984204
G01 X31.127000000000002Y16.96582170253906
G01 X31.127000000000002Y18.582178297460942
G01 X31.08254381358432Y18.608824310157964
G01 X31.019485372669084Y18.65559163730981
G01 X30.961314575050764Y18.708314575050764
G01 X30.90859163730981Y18.766485372669084
G01 X30.861824310157964Y18.82954381358432
G01 X30.82146298852132Y18.8968826105392
G01 X30.78789637399097Y18.96785325410793
G01 X30.761447731414233Y19.04177225819643
G01 X30.742371775677416Y19.1179277423871
G01 X30.730852218662243Y19.19558628773635
G01 X30.727Y19.274
G01 X30.72719650739908Y19.278000000000002
G01 X30.08682170253906Y19.278000000000002
G01 X30.060175689842037Y19.23354381358432
G01 X30.01340836269019Y19.170485372669084
G01 X29.960685424949236Y19.112314575050764
G01 X29.902514627330916Y19.05959163730981
G01 X29.83945618641568Y19.012824310157963
G01 X29.7721173894608Y18.97246298852132
G01 X29.70114674589207Y18.93889637399097
G01 X29.62722774180357Y18.912447731414233
G01 X29.5510722576129Y18.893371775677416
G01 X29.47341371226365Y18.881852218662242
G01 X29.395Y18.878
G01 X29.31658628773635Y18.881852218662242
G01 X29.238927742387098Y18.893371775677416
G01 X29.16277225819643Y18.912447731414233
G01 X29.088853254107928Y18.93889637399097
G01 X29.0178826105392Y18.97246298852132
G01 X28.950543813584318Y19.012824310157963
G01 X28.887485372669083Y19.05959163730981
G01 X28.829314575050763Y19.112314575050764
G01 X28.77659163730981Y19.170485372669084
G01 X28.729824310157962Y19.23354381358432
G01 X28.689462988521317Y19.3008826105392
G01 X28.65589637399097Y19.37185325410793
G01 X28.62944773141423Y19.44577225819643
G01 X28.610371775677415Y19.5219277423871
G01 X28.59885221866224Y19.59958628773635
G01 X28.595Y19.678
G01 X28.59885221866224Y19.75641371226365
G01 X28.610371775677415Y19.834072257612902
G01 X28.62944773141423Y19.91022774180357
G01 X28.65589637399097Y19.984146745892073
G01 X28.689462988521317Y20.0551173894608
G01 X28.729824310157962Y20.122456186415683
G01 X28.77659163730981Y20.185514627330917
G01 X28.829314575050763Y20.243685424949238
G01 X28.887485372669083Y20.29640836269019
G01 X28.950543813584318Y20.343175689842038
G01 X29.0178826105392Y20.383537011478683
G01 X29.088853254107928Y20.41710362600903
G01 X29.16277225819643Y20.44355226858577
G01 X29.238927742387098Y20.462628224322586
G01 X29.31658628773635Y20.47414778133776
G01 X29.395Y20.478
G01 X29.473413712263646Y20.47414778133776
G01 X29.5510722576129Y20.462628224322586
G01 X29.62722774180357Y20.44355226858577
G01 X29.70114674589207Y20.41710362600903
G01 X29.7721173894608Y20.383537011478683
G01 X29.83945618641568Y20.343175689842038
G01 X29.902514627330916Y20.29640836269019
G01 X29.960685424949236Y20.243685424949238
G01 X30.01340836269019Y20.185514627330917
G01 X30.060175689842037Y20.122456186415683
G01 X30.08682170253906Y20.078
G01 X31.123Y20.078
G01 X31.162206856131824Y20.07607389066888
G01 X31.201036128806454Y20.07031411216129
G01 X31.239113870901786Y20.060776134292883
G01 X31.276073372946037Y20.047551813004514
G01 X31.29375588886704Y20.039188605824744
G01 X31.29477225819643Y20.03955226858577
G01 X31.3709277423871Y20.058628224322586
G01 X31.44858628773635Y20.07014778133776
G01 X31.527Y20.074
G01 X31.605413712263648Y20.07014778133776
G01 X31.683072257612903Y20.058628224322586
G01 X31.75922774180357Y20.03955226858577
G01 X31.833146745892073Y20.01310362600903
G01 X31.9041173894608Y19.979537011478683
G01 X31.971456186415683Y19.93917568984204
G01 X32.034514627330914Y19.89240836269019
G01 X32.09268542494924Y19.839685424949238
G01 X32.14540836269019Y19.781514627330917
G01 X32.19217568984204Y19.718456186415683
G01 X32.232537011478684Y19.6511173894608
G01 X32.26610362600903Y19.580146745892073
G01 X32.292552268585766Y19.50622774180357
G01 X32.31162822432258Y19.430072257612903
G01 X32.32314778133776Y19.35241371226365
G01 X32.327Y19.274
G01 X32.32314778133776Y19.19558628773635
G01 X32.31162822432258Y19.1179277423871
G01 X32.292552268585766Y19.04177225819643
G01 X32.26610362600903Y18.96785325410793
G01 X32.232537011478684Y18.8968826105392
G01 X32.19217568984204Y18.82954381358432
G01 X32.14540836269019Y18.766485372669084
G01 X32.09268542494924Y18.708314575050764
G01 X32.034514627330914Y18.65559163730981
G01 X31.971456186415683Y18.608824310157964
G01 X31.927Y18.582178297460942
G01 X31.927Y16.96582170253906
G01 X31.971456186415683Y16.93917568984204
G01 X32.034514627330914Y16.89240836269019
G01 X32.09268542494924Y16.839685424949238
G01 X32.14540836269019Y16.781514627330917
G01 X32.19217568984204Y16.718456186415683
G01 X32.21882170253906Y16.674
G01 X34.647Y16.674
G01 X34.686206856131825Y16.67207389066888
G01 X34.72503612880645Y16.66631411216129
G01 X34.76311387090178Y16.656776134292883
G01 X34.80007337294604Y16.643551813004514
G01 X34.835558694730395Y16.626768505739342
G01 X34.86922809320784Y16.60658784492102
G01 X34.90075731366546Y16.583204181345096
G01 X34.92984271247462Y16.55684271247462
G01 X35.42984271247462Y16.05684271247462
G01 X35.45620418134509Y16.027757313665457
G01 X35.479587844921014Y15.99622809320784
G01 X35.49976850573934Y15.962558694730399
G01 X35.51655181300451Y15.927073372946035
G01 X35.52977613429288Y15.890113870901784
G01 X35.53931411216129Y15.85203612880645
G01 X35.545073890668874Y15.813206856131824
G01 X35.547Y15.774
G01 X35.547Y8.46582170253906
G01 X35.59145618641568Y8.439175689842036
G01 X35.65451462733091Y8.39240836269019
G01 X35.712685424949235Y8.339685424949238
G01 X35.76540836269019Y8.281514627330917
G01 X35.812175689842036Y8.218456186415683
G01 X35.85253701147868Y8.151117389460799
G01 X35.886103626009024Y8.080146745892073
G01 X35.91255226858576Y8.00622774180357
G01 X35.93162822432258Y7.930072257612903
G01 X35.94314778133776Y7.852413712263648
G01 X35.946999999999996Y7.774
G01 X35.94314778133776Y7.695586287736352
G01 X35.93162822432258Y7.6179277423870975
G01 X35.91903452971201Y7.567650895237229
G01 X36.712685424949235Y6.774
G01 X40.50692457505076Y6.774
G01 X43.572Y9.839075424949238
G01 X43.572Y11.03331457505076
G01 X42.667933022609404Y11.937381552441355
G01 X42.605314569280125Y11.928092982328632
G01 X42.272Y11.924
G01 X42.18868543071987Y11.928092982328632
G01 X42.10617322628629Y11.940332511657253
G01 X42.0252580243337Y11.960600714627622
G01 X41.94671908248967Y11.988702397365405
G01 X41.8713127736979Y12.024366925303898
G01 X41.799765301933334Y12.067250829542836
G01 X41.7327657084609Y12.116941114641673
G01 X41.67095923599143Y12.172959235991433
G01 X41.614941114641674Y12.2347657084609
G01 X41.56525082954283Y12.301765301933337
G01 X41.5223669253039Y12.3733127736979
G01 X41.486702397365406Y12.448719082489673
G01 X41.45860071462762Y12.527258024333706
G01 X41.43833251165725Y12.60817322628629
G01 X41.42609298232863Y12.690685430719872
G01 X41.422Y12.774
G01 X41.42609298232863Y12.857314569280126
G01 X41.43833251165725Y12.939826773713708
G01 X41.45860071462762Y13.020741975666292
G01 X41.486702397365406Y13.099280917510326
G01 X41.5223669253039Y13.174687226302098
G01 X41.56525082954283Y13.246234698066662
G01 X41.614941114641674Y13.313234291539098
G01 X41.67095923599143Y13.375040764008565
G01 X41.7327657084609Y13.431058885358325
G01 X41.799765301933334Y13.480749170457162
G01 X41.8713127736979Y13.5236330746961
G01 X41.94671908248967Y13.559297602634592
G01 X42.0252580243337Y13.587399285372376
G01 X42.0252580243337Y13.587399285372376
M5
G01 X37.70254381358432Y7.108824310157964
M3
G01 X37.639485372669085Y7.1555916373098105
G01 X37.58131457505076Y7.208314575050762
G01 X37.52859163730981Y7.2664853726690835
G01 X37.48182431015796Y7.329543813584318
G01 X37.441462988521316Y7.396882610539202
G01 X37.40789637399097Y7.467853254107928
G01 X37.381447731414234Y7.54177225819643
G01 X37.36237177567742Y7.6179277423870975
G01 X37.35085221866224Y7.695586287736352
G01 X37.347Y7.774
G01 X37.35085221866224Y7.852413712263648
G01 X37.36237177567742Y7.930072257612903
G01 X37.37496547028799Y7.980349104762772
G01 X36.31415728752538Y9.041157287525381
G01 X36.28779581865491Y9.070242686334542
G01 X36.264412155078986Y9.101771906792159
G01 X36.24423149426066Y9.1354413052696
G01 X36.22744818699549Y9.170926627053964
G01 X36.21422386570712Y9.207886129098215
G01 X36.20468588783871Y9.245963871193549
G01 X36.198926109331126Y9.284793143868175
G01 X36.197Y9.324
G01 X36.197Y17.038314575050762
G01 X31.733349104762777Y21.50196547028799
G01 X31.683072257612903Y21.489371775677416
G01 X31.60541371226365Y21.477852218662242
G01 X31.527Y21.474
G01 X31.44858628773635Y21.477852218662242
G01 X31.3709277423871Y21.489371775677416
G01 X31.29477225819643Y21.508447731414233
G01 X31.22085325410793Y21.53489637399097
G01 X31.1498826105392Y21.56846298852132
G01 X31.08254381358432Y21.608824310157964
G01 X31.019485372669084Y21.65559163730981
G01 X30.961314575050764Y21.708314575050764
G01 X30.90859163730981Y21.766485372669084
G01 X30.861824310157964Y21.82954381358432
G01 X30.82146298852132Y21.8968826105392
G01 X30.78789637399097Y21.96785325410793
G01 X30.761447731414233Y22.04177225819643
G01 X30.742371775677416Y22.1179277423871
G01 X30.730852218662243Y22.19558628773635
G01 X30.727Y22.274
G01 X30.730852218662243Y22.35241371226365
G01 X30.742371775677416Y22.430072257612903
G01 X30.761447731414233Y22.50622774180357
G01 X30.78789637399097Y22.580146745892073
G01 X30.82146298852132Y22.6511173894608
G01 X30.861824310157964Y22.718456186415683
G01 X30.90859163730981Y22.781514627330917
G01 X30.961314575050764Y22.839685424949238
G01 X31.019485372669084Y22.89240836269019
G01 X31.08254381358432Y22.93917568984204
G01 X31.127000000000002Y22.96582170253906
G01 X31.127000000000002Y24.582178297460942
G01 X31.08254381358432Y24.608824310157964
G01 X31.019485372669084Y24.65559163730981
G01 X30.961314575050764Y24.708314575050764
G01 X30.90859163730981Y24.766485372669084
G01 X30.861824310157964Y24.82954381358432
G01 X30.835178297460942Y24.874000000000002
G01 X30.091616718008517Y24.874000000000002
G01 X30.060175689842037Y24.821543813584316
G01 X30.01340836269019Y24.75848537266908
G01 X29.960685424949236Y24.70031457505076
G01 X29.902514627330916Y24.64759163730981
G01 X29.83945618641568Y24.60082431015796
G01 X29.7721173894608Y24.560462988521316
G01 X29.70114674589207Y24.52689637399097
G01 X29.62722774180357Y24.50044773141423
G01 X29.5510722576129Y24.481371775677413
G01 X29.47341371226365Y24.46985221866224
G01 X29.395Y24.465999999999998
G01 X29.31658628773635Y24.46985221866224
G01 X29.238927742387098Y24.481371775677413
G01 X29.16277225819643Y24.50044773141423
G01 X29.088853254107928Y24.52689637399097
G01 X29.0178826105392Y24.560462988521316
G01 X28.950543813584318Y24.60082431015796
G01 X28.887485372669083Y24.64759163730981
G01 X28.829314575050763Y24.70031457505076
G01 X28.77659163730981Y24.75848537266908
G01 X28.729824310157962Y24.821543813584316
G01 X28.689462988521317Y24.8888826105392
G01 X28.65589637399097Y24.959853254107927
G01 X28.62944773141423Y25.03377225819643
G01 X28.610371775677415Y25.109927742387097
G01 X28.59885221866224Y25.187586287736348
G01 X28.595Y25.266
G01 X28.59885221866224Y25.34441371226365
G01 X28.610371775677415Y25.4220722576129
G01 X28.62944773141423Y25.498227741803568
G01 X28.65589637399097Y25.57214674589207
G01 X28.689462988521317Y25.643117389460798
G01 X28.729824310157962Y25.71045618641568
G01 X28.77659163730981Y25.773514627330915
G01 X28.829314575050763Y25.831685424949235
G01 X28.887485372669083Y25.884408362690188
G01 X28.950543813584318Y25.931175689842036
G01 X29.0178826105392Y25.97153701147868
G01 X29.088853254107928Y26.005103626009028
G01 X29.16277225819643Y26.031552268585767
G01 X29.238927742387098Y26.050628224322583
G01 X29.31658628773635Y26.062147781337757
G01 X29.395Y26.066
G01 X29.473413712263646Y26.062147781337757
G01 X29.5510722576129Y26.050628224322583
G01 X29.62722774180357Y26.031552268585767
G01 X29.70114674589207Y26.005103626009028
G01 X29.7721173894608Y25.97153701147868
G01 X29.83945618641568Y25.931175689842036
G01 X29.902514627330916Y25.884408362690188
G01 X29.960685424949236Y25.831685424949235
G01 X30.01340836269019Y25.773514627330915
G01 X30.060175689842037Y25.71045618641568
G01 X30.082026687069604Y25.674
G01 X30.835178297460942Y25.674
G01 X30.861824310157964Y25.718456186415683
G01 X30.90859163730981Y25.781514627330917
G01 X30.961314575050764Y25.839685424949238
G01 X31.019485372669084Y25.89240836269019
G01 X31.08254381358432Y25.93917568984204
G01 X31.1498826105392Y25.979537011478683
G01 X31.22085325410793Y26.01310362600903
G01 X31.29477225819643Y26.03955226858577
G01 X31.3709277423871Y26.058628224322586
G01 X31.44858628773635Y26.07014778133776
G01 X31.527Y26.074
G01 X31.605413712263648Y26.07014778133776
G01 X31.683072257612903Y26.058628224322586
G01 X31.75922774180357Y26.03955226858577
G01 X31.833146745892073Y26.01310362600903
G01 X31.9041173894608Y25.979537011478683
G01 X31.971456186415683Y25.93917568984204
G01 X32.034514627330914Y25.89240836269019
G01 X32.09268542494924Y25.839685424949238
G01 X32.14540836269019Y25.781514627330917
G01 X32.19217568984204Y25.718456186415683
G01 X32.232537011478684Y25.6511173894608
G01 X32.26610362600903Y25.580146745892073
G01 X32.292552268585766Y25.50622774180357
G01 X32.31162822432258Y25.430072257612903
G01 X32.32314778133776Y25.35241371226365
G01 X32.327Y25.274
G01 X32.32314778133776Y25.19558628773635
G01 X32.31162822432258Y25.1179277423871
G01 X32.292552268585766Y25.04177225819643
G01 X32.26610362600903Y24.96785325410793
G01 X32.232537011478684Y24.8968826105392
G01 X32.19217568984204Y24.82954381358432
G01 X32.14540836269019Y24.766485372669084
G01 X32.09268542494924Y24.708314575050764
G01 X32.034514627330914Y24.65559163730981
G01 X31.971456186415683Y24.608824310157964
G01 X31.927Y24.582178297460942
G01 X31.927Y22.96582170253906
G01 X31.971456186415683Y22.93917568984204
G01 X32.034514627330914Y22.89240836269019
G01 X32.09268542494924Y22.839685424949238
G01 X32.14540836269019Y22.781514627330917
G01 X32.19217568984204Y22.718456186415683
G01 X32.232537011478684Y22.6511173894608
G01 X32.26610362600903Y22.580146745892073
G01 X32.292552268585766Y22.50622774180357
G01 X32.31162822432258Y22.430072257612903
G01 X32.32314778133776Y22.35241371226365
G01 X32.327Y22.274
G01 X32.32314778133776Y22.19558628773635
G01 X32.31162822432258Y22.1179277423871
G01 X32.29903452971201Y22.06765089523723
G01 X36.87984271247462Y17.48684271247462
G01 X36.906204181345096Y17.457757313665457
G01 X36.929587844921016Y17.42622809320784
G01 X36.94976850573934Y17.3925586947304
G01 X36.966551813004514Y17.357073372946036
G01 X36.979776134292884Y17.320113870901785
G01 X36.989314112161296Y17.282036128806453
G01 X36.99507389066888Y17.243206856131824
G01 X36.997Y17.204
G01 X36.997Y9.489685424949238
G01 X37.940650895237226Y8.546034529712012
G01 X37.99092774238709Y8.558628224322584
G01 X38.06858628773635Y8.570147781337758
G01 X38.147Y8.574
G01 X38.225413712263645Y8.570147781337758
G01 X38.303072257612904Y8.558628224322584
G01 X38.37922774180357Y8.539552268585767
G01 X38.45314674589207Y8.513103626009029
G01 X38.5241173894608Y8.479537011478683
G01 X38.59145618641568Y8.439175689842036
G01 X38.65451462733091Y8.39240836269019
G01 X38.712685424949235Y8.339685424949238
G01 X38.76540836269019Y8.281514627330917
G01 X38.812175689842036Y8.218456186415683
G01 X38.83882170253906Y8.174
G01 X39.73131457505076Y8.174
G01 X41.492909609707496Y9.935595034656735
G01 X41.486702397365406Y9.948719082489673
G01 X41.45860071462762Y10.027258024333706
G01 X41.43833251165725Y10.10817322628629
G01 X41.42609298232863Y10.190685430719872
G01 X41.422Y10.274
G01 X41.42609298232863Y10.357314569280126
G01 X41.43833251165725Y10.439826773713708
G01 X41.45860071462762Y10.520741975666292
G01 X41.486702397365406Y10.599280917510326
G01 X41.5223669253039Y10.674687226302098
G01 X41.56525082954283Y10.746234698066662
G01 X41.614941114641674Y10.813234291539098
G01 X41.67095923599143Y10.875040764008565
G01 X41.7327657084609Y10.931058885358325
G01 X41.799765301933334Y10.980749170457162
G01 X41.8713127736979Y11.0236330746961
G01 X41.94671908248967Y11.059297602634592
G01 X42.0252580243337Y11.087399285372376
G01 X42.10617322628629Y11.107667488342745
G01 X42.18868543071987Y11.119907017671366
G01 X42.522Y11.123999999999999
G01 X42.605314569280125Y11.119907017671366
G01 X42.68782677371371Y11.107667488342745
G01 X42.76874197566629Y11.087399285372376
G01 X42.847280917510325Y11.059297602634592
G01 X42.922687226302095Y11.0236330746961
G01 X42.99423469806666Y10.980749170457162
G01 X43.061234291539094Y10.931058885358325
G01 X43.123040764008564Y10.875040764008565
G01 X43.17905888535832Y10.813234291539098
G01 X43.228749170457164Y10.746234698066662
G01 X43.2716330746961Y10.674687226302098
G01 X43.30729760263459Y10.599280917510326
G01 X43.335399285372375Y10.520741975666292
G01 X43.355667488342746Y10.439826773713708
G01 X43.367907017671364Y10.357314569280126
G01 X43.372Y10.274
G01 X43.367907017671364Y10.190685430719872
G01 X43.355667488342746Y10.10817322628629
G01 X43.335399285372375Y10.027258024333706
G01 X43.30729760263459Y9.948719082489673
G01 X43.2716330746961Y9.8733127736979
G01 X43.228749170457164Y9.801765301933337
G01 X43.17905888535832Y9.7347657084609
G01 X43.123040764008564Y9.672959235991433
G01 X43.061234291539094Y9.616941114641673
G01 X42.99423469806666Y9.567250829542836
G01 X42.922687226302095Y9.524366925303898
G01 X42.847280917510325Y9.488702397365405
G01 X42.768741975666295Y9.460600714627622
G01 X42.68782677371371Y9.440332511657253
G01 X42.605314569280125Y9.428092982328632
G01 X42.272Y9.424
G01 X42.18868543071987Y9.428092982328632
G01 X42.12606697739059Y9.437381552441355
G01 X40.17984271247462Y7.491157287525381
G01 X40.15075731366546Y7.464795818654905
G01 X40.11922809320784Y7.441412155078982
G01 X40.085558694730395Y7.421231494260658
G01 X40.05007337294604Y7.404448186995485
G01 X40.01311387090178Y7.391223865707117
G01 X39.97503612880645Y7.3816858878387075
G01 X39.936206856131825Y7.375926109331122
G01 X39.897Y7.374
G01 X38.83882170253906Y7.374
G01 X38.812175689842036Y7.329543813584318
G01 X38.76540836269019Y7.2664853726690835
G01 X38.712685424949235Y7.208314575050762
G01 X38.65451462733091Y7.1555916373098105
G01 X38.591456186415684Y7.108824310157964
G01 X38.5241173894608Y7.068462988521316
G01 X38.45314674589207Y7.0348963739909705
G01 X38.37922774180357Y7.008447731414233
G01 X38.303072257612904Y6.989371775677416
G01 X38.225413712263645Y6.9778522186622425
G01 X38.147Y6.974
G01 X38.06858628773635Y6.9778522186622425
G01 X37.99092774238709Y6.989371775677416
G01 X37.91477225819643Y7.008447731414233
G01 X37.84085325410793Y7.0348963739909705
G01 X37.7698826105392Y7.068462988521316
G01 X37.70254381358432Y7.108824310157964
G01 X37.70254381358432Y7.108824310157964
M5
G01 X42.947687226302094Y22.023633074696104
M3
G01 X43.01923469806666Y21.980749170457166
G01 X43.08623429153909Y21.931058885358325
G01 X43.14804076400856Y21.875040764008567
G01 X43.20405888535832Y21.8132342915391
G01 X43.25374917045716Y21.74623469806666
G01 X43.296633074696096Y21.674687226302098
G01 X43.33229760263459Y21.599280917510328
G01 X43.360399285372374Y21.520741975666294
G01 X43.380667488342745Y21.439826773713712
G01 X43.39290701767136Y21.357314569280128
G01 X43.397Y21.274
G01 X43.39290701767136Y21.190685430719874
G01 X43.380667488342745Y21.108173226286294
G01 X43.360399285372374Y21.027258024333708
G01 X43.33229760263459Y20.948719082489674
G01 X43.31806296180893Y20.91862246314031
G01 X46.25484271247462Y17.98184271247462
G01 X46.281204181345096Y17.95275731366546
G01 X46.304587844921016Y17.921228093207844
G01 X46.32476850573934Y17.8875586947304
G01 X46.341551813004514Y17.852073372946037
G01 X46.354776134292884Y17.815113870901786
G01 X46.364314112161296Y17.777036128806454
G01 X46.37007389066888Y17.738206856131825
G01 X46.372Y17.699
G01 X46.372Y8.844962
G01 X46.37007389066888Y8.805755143868176
G01 X46.364314112161296Y8.76692587119355
G01 X46.354776134292884Y8.728848129098216
G01 X46.341551813004514Y8.691888627053965
G01 X46.32476850573934Y8.6564033052696
G01 X46.304587844921016Y8.62273390679216
G01 X46.281204181345096Y8.591204686334542
G01 X46.25484271247462Y8.562119287525382
G01 X40.18388071247462Y2.491157287525381
G01 X40.15479531366546Y2.4647958186549053
G01 X40.12326609320784Y2.441412155078982
G01 X40.089596694730396Y2.421231494260658
G01 X40.05411137294604Y2.4044481869954852
G01 X40.017151870901785Y2.3912238657071163
G01 X39.97907412880645Y2.381685887838708
G01 X39.94024485613183Y2.3759261093311212
G01 X39.901038Y2.374
G01 X38.83882170253906Y2.374
G01 X38.812175689842036Y2.3295438135843183
G01 X38.76540836269019Y2.2664853726690835
G01 X38.712685424949235Y2.2083145750507622
G01 X38.65451462733091Y2.1555916373098105
G01 X38.591456186415684Y2.1088243101579636
G01 X38.5241173894608Y2.068462988521316
G01 X38.45314674589207Y2.0348963739909705
G01 X38.37922774180357Y2.008447731414233
G01 X38.303072257612904Y1.9893717756774156
G01 X38.225413712263645Y1.9778522186622425
G01 X38.147Y1.974
G01 X38.06858628773635Y1.9778522186622425
G01 X37.99092774238709Y1.9893717756774156
G01 X37.91477225819643Y2.0084477314142326
G01 X37.84085325410793Y2.0348963739909705
G01 X37.7698826105392Y2.0684629885213157
G01 X37.70254381358432Y2.1088243101579636
G01 X37.639485372669085Y2.1555916373098105
G01 X37.58131457505076Y2.208314575050762
G01 X37.52859163730981Y2.2664853726690835
G01 X37.48182431015796Y2.3295438135843183
G01 X37.45517829746094Y2.374
G01 X35.83882170253906Y2.374
G01 X35.812175689842036Y2.3295438135843183
G01 X35.76540836269019Y2.2664853726690835
G01 X35.712685424949235Y2.2083145750507622
G01 X35.65451462733091Y2.1555916373098105
G01 X35.591456186415684Y2.1088243101579636
G01 X35.5241173894608Y2.068462988521316
G01 X35.45314674589207Y2.0348963739909705
G01 X35.37922774180357Y2.008447731414233
G01 X35.303072257612904Y1.9893717756774156
G01 X35.225413712263645Y1.9778522186622425
G01 X35.147Y1.974
G01 X35.06858628773635Y1.9778522186622425
G01 X34.99092774238709Y1.9893717756774156
G01 X34.91477225819643Y2.0084477314142326
G01 X34.84085325410793Y2.0348963739909705
G01 X34.7698826105392Y2.0684629885213157
G01 X34.70254381358432Y2.1088243101579636
G01 X34.639485372669085Y2.1555916373098105
G01 X34.58131457505076Y2.208314575050762
G01 X34.52859163730981Y2.2664853726690835
G01 X34.48182431015796Y2.3295438135843183
G01 X34.45517829746094Y2.374
G01 X32.83882170253906Y2.374
G01 X32.812175689842036Y2.3295438135843183
G01 X32.76540836269019Y2.2664853726690835
G01 X32.712685424949235Y2.2083145750507622
G01 X32.65451462733091Y2.1555916373098105
G01 X32.591456186415684Y2.1088243101579636
G01 X32.5241173894608Y2.068462988521316
G01 X32.45314674589207Y2.0348963739909705
G01 X32.37922774180357Y2.008447731414233
G01 X32.303072257612904Y1.9893717756774156
G01 X32.225413712263645Y1.9778522186622425
G01 X32.147Y1.974
G01 X32.06858628773635Y1.9778522186622425
G01 X31.990927742387097Y1.9893717756774156
G01 X31.91477225819643Y2.0084477314142326
G01 X31.840853254107927Y2.0348963739909705
G01 X31.7698826105392Y2.0684629885213157
G01 X31.702543813584317Y2.1088243101579636
G01 X31.639485372669082Y2.1555916373098105
G01 X31.58131457505076Y2.208314575050762
G01 X31.52859163730981Y2.2664853726690835
G01 X31.48182431015796Y2.3295438135843183
G01 X31.441462988521316Y2.3968826105392016
G01 X31.40789637399097Y2.4678532541079283
G01 X31.38144773141423Y2.54177225819643
G01 X31.362371775677413Y2.617927742387097
G01 X31.35085221866224Y2.6955862877363512
G01 X31.346999999999998Y2.774
G01 X31.35085221866224Y2.8524137122636484
G01 X31.362371775677413Y2.9300722576129026
G01 X31.374965470287986Y2.980349104762774
G01 X29.11215728752538Y5.2431572875253805
G01 X29.085795818654905Y5.2722426863345415
G01 X29.06241215507898Y5.303771906792159
G01 X29.04223149426066Y5.337441305269601
G01 X29.025448186995483Y5.372926627053964
G01 X29.012223865707117Y5.409886129098215
G01 X29.00268588783871Y5.447963871193548
G01 X28.99692610933112Y5.486793143868176
G01 X28.995Y5.526
G01 X28.995Y10.85817829746094
G01 X28.950543813584318Y10.884824310157965
G01 X28.887485372669083Y10.931591637309811
G01 X28.829314575050763Y10.984314575050762
G01 X28.77659163730981Y11.042485372669084
G01 X28.729824310157962Y11.105543813584319
G01 X28.689462988521317Y11.172882610539203
G01 X28.65589637399097Y11.243853254107929
G01 X28.62944773141423Y11.317772258196431
G01 X28.610371775677415Y11.393927742387097
G01 X28.59885221866224Y11.471586287736352
G01 X28.595Y11.55
G01 X28.59885221866224Y11.628413712263649
G01 X28.610371775677415Y11.706072257612904
G01 X28.622965470287987Y11.756349104762775
G01 X27.712157287525383Y12.66715728752538
G01 X27.685795818654906Y12.696242686334541
G01 X27.662412155078982Y12.727771906792158
G01 X27.64223149426066Y12.7614413052696
G01 X27.625448186995484Y12.796926627053963
G01 X27.61222386570712Y12.833886129098214
G01 X27.60268588783871Y12.871963871193548
G01 X27.596926109331122Y12.910793143868174
G01 X27.595000000000002Y12.95
G01 X27.595000000000002Y18.538
G01 X27.595000000000002Y21.326
G01 X27.596926109331122Y21.365206856131824
G01 X27.60268588783871Y21.404036128806453
G01 X27.61222386570712Y21.442113870901785
G01 X27.625448186995484Y21.479073372946036
G01 X27.64223149426066Y21.5145586947304
G01 X27.662412155078982Y21.54822809320784
G01 X27.685795818654906Y21.579757313665457
G01 X27.712157287525383Y21.60884271247462
G01 X28.622965470287987Y22.519650895237223
G01 X28.610371775677415Y22.569927742387097
G01 X28.59885221866224Y22.64758628773635
G01 X28.595Y22.726
G01 X28.59885221866224Y22.80441371226365
G01 X28.610371775677415Y22.8820722576129
G01 X28.62944773141423Y22.95822774180357
G01 X28.65589637399097Y23.03214674589207
G01 X28.689462988521317Y23.1031173894608
G01 X28.729824310157962Y23.17045618641568
G01 X28.77659163730981Y23.233514627330916
G01 X28.829314575050763Y23.291685424949236
G01 X28.887485372669083Y23.34440836269019
G01 X28.950543813584318Y23.391175689842036
G01 X29.0178826105392Y23.43153701147868
G01 X29.088853254107928Y23.46510362600903
G01 X29.16277225819643Y23.491552268585767
G01 X29.238927742387098Y23.510628224322584
G01 X29.31658628773635Y23.522147781337758
G01 X29.395Y23.526
G01 X29.473413712263646Y23.522147781337758
G01 X29.5510722576129Y23.510628224322584
G01 X29.62722774180357Y23.491552268585767
G01 X29.70114674589207Y23.46510362600903
G01 X29.7721173894608Y23.43153701147868
G01 X29.83945618641568Y23.391175689842036
G01 X29.902514627330916Y23.34440836269019
G01 X29.960685424949236Y23.291685424949236
G01 X30.01340836269019Y23.233514627330916
G01 X30.060175689842037Y23.17045618641568
G01 X30.100537011478682Y23.1031173894608
G01 X30.13410362600903Y23.03214674589207
G01 X30.160552268585768Y22.95822774180357
G01 X30.179628224322585Y22.8820722576129
G01 X30.191147781337758Y22.80441371226365
G01 X30.195Y22.726
G01 X30.191147781337758Y22.64758628773635
G01 X30.179628224322585Y22.569927742387097
G01 X30.160552268585768Y22.49377225819643
G01 X30.13410362600903Y22.419853254107927
G01 X30.100537011478682Y22.3488826105392
G01 X30.060175689842037Y22.281543813584317
G01 X30.01340836269019Y22.218485372669083
G01 X29.960685424949236Y22.160314575050762
G01 X29.902514627330916Y22.10759163730981
G01 X29.83945618641568Y22.06082431015796
G01 X29.7721173894608Y22.020462988521317
G01 X29.70114674589207Y21.98689637399097
G01 X29.62722774180357Y21.96044773141423
G01 X29.5510722576129Y21.941371775677414
G01 X29.47341371226365Y21.92985221866224
G01 X29.395Y21.926
G01 X29.31658628773635Y21.92985221866224
G01 X29.238927742387098Y21.941371775677414
G01 X29.188650895237224Y21.953965470287987
G01 X28.395Y21.160314575050762
G01 X28.395Y18.70368542494924
G01 X29.188650895237224Y17.910034529712014
G01 X29.238927742387098Y17.922628224322587
G01 X29.31658628773635Y17.93414778133776
G01 X29.395Y17.938000000000002
G01 X29.473413712263646Y17.93414778133776
G01 X29.5510722576129Y17.922628224322587
G01 X29.62722774180357Y17.90355226858577
G01 X29.70114674589207Y17.87710362600903
G01 X29.7721173894608Y17.843537011478684
G01 X29.83945618641568Y17.80317568984204
G01 X29.902514627330916Y17.75640836269019
G01 X29.960685424949236Y17.70368542494924
G01 X30.01340836269019Y17.64551462733092
G01 X30.060175689842037Y17.582456186415683
G01 X30.100537011478682Y17.5151173894608
G01 X30.13410362600903Y17.444146745892073
G01 X30.160552268585768Y17.37022774180357
G01 X30.179628224322585Y17.294072257612903
G01 X30.191147781337758Y17.216413712263652
G01 X30.195Y17.138
G01 X30.191147781337758Y17.05958628773635
G01 X30.179628224322585Y16.9819277423871
G01 X30.160552268585768Y16.905772258196432
G01 X30.13410362600903Y16.83185325410793
G01 X30.100537011478682Y16.760882610539202
G01 X30.060175689842037Y16.69354381358432
G01 X30.01340836269019Y16.630485372669085
G01 X29.960685424949236Y16.572314575050765
G01 X29.902514627330916Y16.519591637309812
G01 X29.83945618641568Y16.472824310157964
G01 X29.7721173894608Y16.43246298852132
G01 X29.70114674589207Y16.398896373990972
G01 X29.62722774180357Y16.372447731414233
G01 X29.5510722576129Y16.353371775677417
G01 X29.47341371226365Y16.341852218662243
G01 X29.395Y16.338
G01 X29.31658628773635Y16.341852218662243
G01 X29.238927742387098Y16.353371775677417
G01 X29.16277225819643Y16.372447731414233
G01 X29.088853254107928Y16.398896373990972
G01 X29.0178826105392Y16.43246298852132
G01 X28.950543813584318Y16.472824310157964
G01 X28.887485372669083Y16.519591637309812
G01 X28.829314575050763Y16.572314575050765
G01 X28.77659163730981Y16.630485372669085
G01 X28.729824310157962Y16.69354381358432
G01 X28.689462988521317Y16.760882610539202
G01 X28.65589637399097Y16.83185325410793
G01 X28.62944773141423Y16.905772258196432
G01 X28.610371775677415Y16.9819277423871
G01 X28.59885221866224Y17.05958628773635
G01 X28.595Y17.138
G01 X28.59885221866224Y17.216413712263652
G01 X28.610371775677415Y17.294072257612903
G01 X28.622965470287987Y17.344349104762777
G01 X28.395Y17.572314575050765
G01 X28.395Y13.115685424949238
G01 X29.188650895237227Y12.322034529712012
G01 X29.238927742387098Y12.334628224322586
G01 X29.31658628773635Y12.34614778133776
G01 X29.395Y12.350000000000001
G01 X29.473413712263646Y12.34614778133776
G01 X29.5510722576129Y12.334628224322586
G01 X29.62722774180357Y12.315552268585767
G01 X29.70114674589207Y12.28910362600903
G01 X29.7721173894608Y12.255537011478685
G01 X29.83945618641568Y12.215175689842038
G01 X29.902514627330916Y12.16840836269019
G01 X29.960685424949236Y12.11568542494924
G01 X30.01340836269019Y12.057514627330917
G01 X30.060175689842037Y11.994456186415682
G01 X30.100537011478682Y11.927117389460799
G01 X30.13410362600903Y11.856146745892072
G01 X30.160552268585768Y11.78222774180357
G01 X30.179628224322585Y11.706072257612904
G01 X30.191147781337758Y11.628413712263649
G01 X30.195Y11.55
G01 X30.191147781337758Y11.471586287736352
G01 X30.179628224322585Y11.393927742387097
G01 X30.160552268585768Y11.317772258196431
G01 X30.13410362600903Y11.243853254107929
G01 X30.100537011478682Y11.172882610539203
G01 X30.060175689842037Y11.105543813584319
G01 X30.01340836269019Y11.042485372669084
G01 X29.960685424949236Y10.984314575050762
G01 X29.902514627330916Y10.931591637309811
G01 X29.83945618641568Y10.884824310157965
G01 X29.794999999999998Y10.85817829746094
G01 X29.794999999999998Y5.691685424949239
G01 X31.940650895237226Y3.5460345297120104
G01 X31.990927742387097Y3.558628224322584
G01 X32.06858628773635Y3.5701477813377576
G01 X32.147Y3.574
G01 X32.225413712263645Y3.5701477813377576
G01 X32.303072257612904Y3.558628224322584
G01 X32.37922774180357Y3.5395522685857674
G01 X32.45314674589207Y3.5131036260090296
G01 X32.5241173894608Y3.4795370114786843
G01 X32.59145618641568Y3.4391756898420365
G01 X32.65451462733091Y3.3924083626901895
G01 X32.712685424949235Y3.3396854249492383
G01 X32.76540836269019Y3.2815146273309166
G01 X32.812175689842036Y3.2184561864156818
G01 X32.83882170253906Y3.174
G01 X34.45517829746094Y3.174
G01 X34.48182431015796Y3.2184561864156818
G01 X34.52859163730981Y3.281514627330916
G01 X34.58131457505076Y3.339685424949238
G01 X34.63948537266908Y3.3924083626901895
G01 X34.70254381358431Y3.4391756898420365
G01 X34.7698826105392Y3.479537011478684
G01 X34.84085325410793Y3.513103626009029
G01 X34.91477225819643Y3.539552268585767
G01 X34.99092774238709Y3.558628224322584
G01 X35.06858628773635Y3.5701477813377576
G01 X35.147Y3.574
G01 X35.225413712263645Y3.5701477813377576
G01 X35.303072257612904Y3.558628224322584
G01 X35.37922774180357Y3.5395522685857674
G01 X35.45314674589207Y3.5131036260090296
G01 X35.5241173894608Y3.4795370114786843
G01 X35.59145618641568Y3.4391756898420365
G01 X35.65451462733091Y3.3924083626901895
G01 X35.712685424949235Y3.3396854249492383
G01 X35.76540836269019Y3.2815146273309166
G01 X35.812175689842036Y3.2184561864156818
G01 X35.83882170253906Y3.174
G01 X37.45517829746094Y3.174
G01 X37.48182431015796Y3.2184561864156818
G01 X37.52859163730981Y3.281514627330916
G01 X37.58131457505076Y3.339685424949238
G01 X37.63948537266908Y3.3924083626901895
G01 X37.70254381358431Y3.4391756898420365
G01 X37.7698826105392Y3.479537011478684
G01 X37.84085325410793Y3.513103626009029
G01 X37.91477225819643Y3.539552268585767
G01 X37.99092774238709Y3.558628224322584
G01 X38.06858628773635Y3.5701477813377576
G01 X38.147Y3.574
G01 X38.225413712263645Y3.5701477813377576
G01 X38.303072257612904Y3.558628224322584
G01 X38.37922774180357Y3.5395522685857674
G01 X38.45314674589207Y3.5131036260090296
G01 X38.5241173894608Y3.4795370114786843
G01 X38.59145618641568Y3.4391756898420365
G01 X38.65451462733091Y3.3924083626901895
G01 X38.712685424949235Y3.3396854249492383
G01 X38.76540836269019Y3.2815146273309166
G01 X38.812175689842036Y3.2184561864156818
G01 X38.83882170253906Y3.174
G01 X39.73535257505076Y3.174
G01 X45.572Y9.010647424949239
G01 X45.572Y17.533314575050763
G01 X42.67116239078101Y20.434152184269756
G01 X42.630314569280124Y20.428092982328632
G01 X42.247Y20.424
G01 X42.16368543071987Y20.428092982328632
G01 X42.08117322628629Y20.440332511657257
G01 X42.000258024333704Y20.460600714627624
G01 X41.92171908248967Y20.488702397365408
G01 X41.8463127736979Y20.524366925303898
G01 X41.774765301933336Y20.567250829542836
G01 X41.707765708460904Y20.616941114641673
G01 X41.645959235991434Y20.672959235991435
G01 X41.589941114641675Y20.734765708460902
G01 X41.540250829542835Y20.80176530193334
G01 X41.4973669253039Y20.873312773697904
G01 X41.46170239736541Y20.948719082489674
G01 X41.43360071462762Y21.027258024333708
G01 X41.41333251165725Y21.10817322628629
G01 X41.401092982328635Y21.190685430719874
G01 X41.397Y21.274
G01 X41.401092982328635Y21.357314569280128
G01 X41.41333251165725Y21.43982677371371
G01 X41.43360071462762Y21.520741975666294
G01 X41.46170239736541Y21.599280917510328
G01 X41.4973669253039Y21.674687226302098
G01 X41.540250829542835Y21.74623469806666
G01 X41.589941114641675Y21.8132342915391
G01 X41.645959235991434Y21.875040764008567
G01 X41.707765708460904Y21.931058885358325
G01 X41.774765301933336Y21.980749170457166
G01 X41.8463127736979Y22.023633074696104
G01 X41.92171908248967Y22.059297602634594
G01 X42.000258024333704Y22.087399285372378
G01 X42.08117322628629Y22.107667488342745
G01 X42.16368543071987Y22.11990701767137
G01 X42.547Y22.124000000000002
G01 X42.630314569280124Y22.11990701767137
G01 X42.71282677371371Y22.107667488342745
G01 X42.793741975666286Y22.087399285372378
G01 X42.872280917510324Y22.059297602634594
G01 X42.947687226302094Y22.023633074696104
G01 X42.947687226302094Y22.023633074696104
M5
G01 X11.320824310157963Y15.164456186415682
M3
G01 X11.367591637309811Y15.227514627330917
G01 X11.420314575050762Y15.28568542494924
G01 X11.478485372669084Y15.33840836269019
G01 X11.541543813584319Y15.385175689842036
G01 X11.586Y15.41182170253906
G01 X11.586Y18.98117829746094
G01 X11.541543813584319Y19.00782431015796
G01 X11.478485372669084Y19.05459163730981
G01 X11.420314575050762Y19.10731457505076
G01 X11.367591637309811Y19.16548537266908
G01 X11.320824310157965Y19.228543813584317
G01 X11.280462988521316Y19.2958826105392
G01 X11.246896373990971Y19.366853254107927
G01 X11.220447731414234Y19.44077225819643
G01 X11.201371775677416Y19.516927742387097
G01 X11.189852218662242Y19.594586287736348
G01 X11.186Y19.673
G01 X11.189852218662242Y19.75141371226365
G01 X11.201371775677416Y19.8290722576129
G01 X11.220447731414234Y19.905227741803568
G01 X11.246896373990971Y19.97914674589207
G01 X11.280462988521316Y20.050117389460798
G01 X11.320824310157963Y20.11745618641568
G01 X11.367591637309811Y20.180514627330915
G01 X11.420314575050762Y20.238685424949235
G01 X11.478485372669084Y20.291408362690188
G01 X11.541543813584319Y20.338175689842036
G01 X11.586Y20.364821702539057
G01 X11.586Y24.56917829746094
G01 X11.541543813584319Y24.595824310157962
G01 X11.478485372669084Y24.64259163730981
G01 X11.420314575050762Y24.695314575050762
G01 X11.367591637309811Y24.753485372669083
G01 X11.320824310157965Y24.816543813584317
G01 X11.29417829746094Y24.861
G01 X10.549685424949239Y24.861
G01 X9.818062961808932Y24.129377536859696
G01 X9.832297602634593Y24.099280917510328
G01 X9.860399285372377Y24.020741975666294
G01 X9.880667488342747Y23.939826773713712
G01 X9.892907017671368Y23.857314569280128
G01 X9.897Y23.774
G01 X9.892907017671368Y23.690685430719874
G01 X9.880667488342747Y23.608173226286294
G01 X9.860399285372377Y23.527258024333708
G01 X9.832297602634595Y23.448719082489674
G01 X9.796633074696102Y23.373312773697904
G01 X9.753749170457164Y23.30176530193334
G01 X9.704058885358327Y23.234765708460902
G01 X9.648040764008567Y23.172959235991435
G01 X9.5862342915391Y23.116941114641673
G01 X9.519234698066663Y23.067250829542836
G01 X9.447687226302099Y23.024366925303898
G01 X9.372280917510327Y22.988702397365408
G01 X9.293741975666293Y22.960600714627624
G01 X9.21282677371371Y22.940332511657257
G01 X9.130314569280127Y22.928092982328632
G01 X8.747Y22.924
G01 X8.663685430719873Y22.928092982328632
G01 X8.58117322628629Y22.940332511657257
G01 X8.500258024333707Y22.960600714627624
G01 X8.421719082489673Y22.988702397365408
G01 X8.346312773697901Y23.024366925303898
G01 X8.274765301933337Y23.067250829542836
G01 X8.2077657084609Y23.116941114641673
G01 X8.145959235991434Y23.172959235991435
G01 X8.089941114641674Y23.234765708460902
G01 X8.040250829542837Y23.30176530193334
G01 X7.997366925303899Y23.373312773697904
G01 X7.961702397365405Y23.448719082489674
G01 X7.933600714627623Y23.527258024333708
G01 X7.913332511657254Y23.60817322628629
G01 X7.901092982328633Y23.690685430719874
G01 X7.897Y23.774
G01 X7.901092982328633Y23.857314569280128
G01 X7.913332511657254Y23.93982677371371
G01 X7.933600714627623Y24.020741975666294
G01 X7.961702397365405Y24.099280917510328
G01 X7.997366925303899Y24.174687226302098
G01 X8.040250829542837Y24.24623469806666
G01 X8.089941114641674Y24.3132342915391
G01 X8.145959235991434Y24.375040764008567
G01 X8.2077657084609Y24.431058885358325
G01 X8.274765301933337Y24.480749170457166
G01 X8.346312773697901Y24.523633074696104
G01 X8.421719082489673Y24.559297602634594
G01 X8.500258024333707Y24.587399285372378
G01 X8.58117322628629Y24.607667488342745
G01 X8.663685430719873Y24.61990701767137
G01 X9.047Y24.624000000000002
G01 X9.130314569280127Y24.61990701767137
G01 X9.171162390781008Y24.613847815730246
G01 X10.101157287525382Y25.543842712474618
G01 X10.130242686334542Y25.570204181345094
G01 X10.16177190679216Y25.593587844921018
G01 X10.1954413052696Y25.61376850573934
G01 X10.202225990141036Y25.61697742269905
G01 X10.230926627053964Y25.630551813004516
G01 X10.267886129098216Y25.64377613429288
G01 X10.30596387119355Y25.65331411216129
G01 X10.344793143868175Y25.65907389066888
G01 X10.384Y25.660999999999998
G01 X11.29417829746094Y25.660999999999998
G01 X11.320824310157963Y25.70545618641568
G01 X11.367591637309811Y25.768514627330916
G01 X11.420314575050762Y25.826685424949236
G01 X11.478485372669084Y25.87940836269019
G01 X11.541543813584319Y25.926175689842037
G01 X11.608882610539203Y25.96653701147868
G01 X11.679853254107929Y26.00010362600903
G01 X11.753772258196431Y26.026552268585768
G01 X11.829927742387097Y26.045628224322584
G01 X11.907586287736352Y26.057147781337758
G01 X11.986Y26.061
G01 X12.064413712263649Y26.057147781337758
G01 X12.142072257612904Y26.045628224322584
G01 X12.21822774180357Y26.026552268585768
G01 X12.292146745892072Y26.00010362600903
G01 X12.363117389460799Y25.96653701147868
G01 X12.430456186415682Y25.926175689842037
G01 X12.493514627330917Y25.87940836269019
G01 X12.55168542494924Y25.826685424949236
G01 X12.60440836269019Y25.768514627330916
G01 X12.651175689842036Y25.70545618641568
G01 X12.691537011478685Y25.6381173894608
G01 X12.72510362600903Y25.56714674589207
G01 X12.751552268585767Y25.49322774180357
G01 X12.770628224322586Y25.4170722576129
G01 X12.782147781337759Y25.33941371226365
G01 X12.786000000000001Y25.261
G01 X12.782147781337759Y25.18258628773635
G01 X12.770628224322586Y25.104927742387098
G01 X12.751552268585767Y25.02877225819643
G01 X12.72510362600903Y24.954853254107928
G01 X12.691537011478685Y24.8838826105392
G01 X12.651175689842036Y24.816543813584317
G01 X12.60440836269019Y24.753485372669083
G01 X12.55168542494924Y24.695314575050762
G01 X12.493514627330917Y24.64259163730981
G01 X12.430456186415682Y24.595824310157962
G01 X12.386000000000001Y24.56917829746094
G01 X12.386000000000001Y20.364821702539057
G01 X12.430456186415682Y20.338175689842036
G01 X12.493514627330917Y20.291408362690188
G01 X12.55168542494924Y20.238685424949235
G01 X12.60440836269019Y20.180514627330915
G01 X12.651175689842036Y20.11745618641568
G01 X12.691537011478685Y20.050117389460798
G01 X12.72510362600903Y19.97914674589207
G01 X12.751552268585767Y19.905227741803568
G01 X12.770628224322586Y19.8290722576129
G01 X12.782147781337759Y19.75141371226365
G01 X12.786000000000001Y19.673
G01 X12.782147781337759Y19.594586287736348
G01 X12.770628224322586Y19.516927742387097
G01 X12.751552268585767Y19.44077225819643
G01 X12.72510362600903Y19.366853254107927
G01 X12.691537011478685Y19.2958826105392
G01 X12.651175689842036Y19.228543813584317
G01 X12.60440836269019Y19.16548537266908
G01 X12.55168542494924Y19.10731457505076
G01 X12.493514627330917Y19.05459163730981
G01 X12.430456186415682Y19.00782431015796
G01 X12.386000000000001Y18.98117829746094
G01 X12.386000000000001Y15.41182170253906
G01 X12.430456186415682Y15.385175689842036
G01 X12.493514627330917Y15.33840836269019
G01 X12.55168542494924Y15.28568542494924
G01 X12.60440836269019Y15.227514627330917
G01 X12.651175689842036Y15.164456186415682
G01 X12.691537011478685Y15.097117389460799
G01 X12.72510362600903Y15.026146745892072
G01 X12.751552268585767Y14.95222774180357
G01 X12.770628224322586Y14.876072257612904
G01 X12.782147781337759Y14.798413712263649
G01 X12.786000000000001Y14.72
G01 X12.782147781337759Y14.641586287736352
G01 X12.770628224322586Y14.563927742387097
G01 X12.751552268585767Y14.487772258196431
G01 X12.72510362600903Y14.413853254107929
G01 X12.691537011478685Y14.342882610539203
G01 X12.651175689842036Y14.275543813584319
G01 X12.60440836269019Y14.212485372669084
G01 X12.55168542494924Y14.154314575050762
G01 X12.493514627330917Y14.101591637309811
G01 X12.430456186415682Y14.054824310157965
G01 X12.363117389460799Y14.014462988521316
G01 X12.292146745892072Y13.980896373990971
G01 X12.21822774180357Y13.954447731414234
G01 X12.142072257612904Y13.935371775677416
G01 X12.064413712263649Y13.923852218662244
G01 X11.986Y13.92
G01 X11.907586287736352Y13.923852218662244
G01 X11.829927742387099Y13.935371775677416
G01 X11.753772258196431Y13.954447731414234
G01 X11.679853254107929Y13.980896373990971
G01 X11.608882610539203Y14.014462988521316
G01 X11.541543813584319Y14.054824310157965
G01 X11.478485372669084Y14.101591637309811
G01 X11.420314575050762Y14.154314575050762
G01 X11.367591637309811Y14.212485372669084
G01 X11.320824310157965Y14.275543813584319
G01 X11.280462988521316Y14.342882610539203
G01 X11.246896373990971Y14.413853254107929
G01 X11.220447731414234Y14.487772258196431
G01 X11.201371775677416Y14.563927742387097
G01 X11.189852218662242Y14.641586287736352
G01 X11.186Y14.72
G01 X11.189852218662242Y14.798413712263649
G01 X11.201371775677416Y14.876072257612904
G01 X11.220447731414234Y14.95222774180357
G01 X11.246896373990971Y15.026146745892072
G01 X11.280462988521316Y15.097117389460799
G01 X11.320824310157963Y15.164456186415682
G01 X11.320824310157963Y15.164456186415682
M5
G01 X19.762072257612903Y20.457628224322583
M3
G01 X19.83822774180357Y20.438552268585767
G01 X19.912146745892073Y20.412103626009028
G01 X19.9831173894608Y20.37853701147868
G01 X20.050456186415683Y20.338175689842036
G01 X20.113514627330918Y20.291408362690188
G01 X20.17168542494924Y20.238685424949235
G01 X20.22440836269019Y20.180514627330915
G01 X20.27117568984204Y20.11745618641568
G01 X20.29782170253906Y20.072999999999997
G01 X20.974999999999998Y20.072999999999997
G01 X20.974999999999998Y20.478
G01 X22.575Y20.478
G01 X22.575Y18.878
G01 X20.974999999999998Y18.878
G01 X20.974999999999998Y19.273
G01 X20.29782170253906Y19.273
G01 X20.27117568984204Y19.228543813584317
G01 X20.22440836269019Y19.16548537266908
G01 X20.17168542494924Y19.10731457505076
G01 X20.113514627330918Y19.05459163730981
G01 X20.050456186415683Y19.00782431015796
G01 X19.9831173894608Y18.967462988521316
G01 X19.912146745892073Y18.93389637399097
G01 X19.83822774180357Y18.90744773141423
G01 X19.762072257612903Y18.888371775677413
G01 X19.68441371226365Y18.87685221866224
G01 X19.606Y18.872999999999998
G01 X19.52758628773635Y18.87685221866224
G01 X19.4499277423871Y18.888371775677413
G01 X19.373772258196432Y18.90744773141423
G01 X19.29985325410793Y18.93389637399097
G01 X19.228882610539202Y18.967462988521316
G01 X19.16154381358432Y19.00782431015796
G01 X19.098485372669085Y19.05459163730981
G01 X19.040314575050765Y19.10731457505076
G01 X18.987591637309812Y19.16548537266908
G01 X18.940824310157964Y19.228543813584317
G01 X18.90046298852132Y19.2958826105392
G01 X18.866896373990972Y19.366853254107927
G01 X18.840447731414233Y19.44077225819643
G01 X18.821371775677417Y19.516927742387097
G01 X18.809852218662243Y19.594586287736348
G01 X18.806Y19.673
G01 X18.809852218662243Y19.75141371226365
G01 X18.821371775677417Y19.8290722576129
G01 X18.840447731414233Y19.905227741803568
G01 X18.866896373990972Y19.97914674589207
G01 X18.90046298852132Y20.050117389460798
G01 X18.940824310157964Y20.11745618641568
G01 X18.987591637309812Y20.180514627330915
G01 X19.040314575050765Y20.238685424949235
G01 X19.098485372669085Y20.291408362690188
G01 X19.16154381358432Y20.338175689842036
G01 X19.228882610539202Y20.37853701147868
G01 X19.29985325410793Y20.412103626009028
G01 X19.373772258196432Y20.438552268585767
G01 X19.4499277423871Y20.457628224322583
G01 X19.52758628773635Y20.469147781337757
G01 X19.606Y20.473
G01 X19.684413712263648Y20.469147781337757
G01 X19.762072257612903Y20.457628224322583
G01 X19.762072257612903Y20.457628224322583
M5
G01 X12.5530586947304Y3.921231494260658
M3
G01 X12.517573372946035Y3.9044481869954852
G01 X12.480613870901784Y3.8912238657071163
G01 X12.44253612880645Y3.881685887838708
G01 X12.403706856131825Y3.8759261093311212
G01 X12.3645Y3.874
G01 X9.5145Y3.874
G01 X9.5145Y3.674
G01 X8.0145Y3.674
G01 X8.0145Y4.458314575050762
G01 X6.881657287525381Y5.59115728752538
G01 X6.855295818654906Y5.620242686334541
G01 X6.831912155078982Y5.651771906792159
G01 X6.811731494260658Y5.685441305269601
G01 X6.7949481869954855Y5.720926627053964
G01 X6.781723865707117Y5.757886129098215
G01 X6.772185887838708Y5.795963871193548
G01 X6.766426109331121Y5.8347931438681755
G01 X6.7645Y5.874
G01 X6.7645Y14.341499999999995
G01 X6.7645Y14.3415
G01 X6.766426109331121Y14.380706856131825
G01 X6.7716971793592755Y14.416241523852237
G01 X6.772185887838707Y14.419536128806447
G01 X6.772185887838708Y14.41953612880645
G01 X6.776977804604326Y14.438666532887998
G01 X6.781723865707115Y14.45761387090178
G01 X6.781723865707117Y14.457613870901783
G01 X6.781723865707117Y14.457613870901785
G01 X6.7949481869954855Y14.494573372946036
G01 X6.797Y14.49891156705499
G01 X6.797Y19.574
G01 X6.798926109331122Y19.613206856131825
G01 X6.8046858878387075Y19.652036128806454
G01 X6.814223865707117Y19.690113870901786
G01 X6.827448186995485Y19.727073372946037
G01 X6.844231494260658Y19.7625586947304
G01 X6.864412155078982Y19.796228093207844
G01 X6.887795818654905Y19.827757313665458
G01 X6.914157287525381Y19.85684271247462
G01 X8.147Y21.089685424949238
G01 X8.147Y21.874000000000002
G01 X9.647Y21.874000000000002
G01 X9.647Y20.674
G01 X8.862685424949236Y20.674
G01 X7.597Y19.408314575050763
G01 X7.597Y14.539685424949237
G01 X8.762685424949238Y13.373999999999999
G01 X9.547Y13.373999999999999
G01 X9.547Y12.174
G01 X8.047Y12.174
G01 X8.047Y12.958314575050762
G01 X7.564500000000001Y13.440814575050762
G01 X7.564500000000001Y6.039685424949238
G01 X8.730185424949239Y4.874
G01 X9.5145Y4.874
G01 X9.5145Y4.674
G01 X12.198814575050763Y4.674
G01 X15.796999999999999Y8.272185424949237
G01 X15.796999999999999Y9.0565
G01 X16.997Y9.0565
G01 X16.997Y7.5565
G01 X16.212685424949235Y7.5565
G01 X12.647342712474618Y3.991157287525381
G01 X12.618257313665458Y3.9647958186549053
G01 X12.58672809320784Y3.941412155078982
G01 X12.5530586947304Y3.921231494260658
G01 X12.5530586947304Y3.921231494260658
M5
G01 X22.007227741803568Y16.372447731414233
M3
G01 X21.9310722576129Y16.353371775677417
G01 X21.85341371226365Y16.341852218662243
G01 X21.775Y16.338
G01 X21.69658628773635Y16.341852218662243
G01 X21.618927742387097Y16.353371775677417
G01 X21.54277225819643Y16.372447731414233
G01 X21.468853254107927Y16.398896373990972
G01 X21.3978826105392Y16.43246298852132
G01 X21.330543813584317Y16.472824310157964
G01 X21.267485372669082Y16.519591637309812
G01 X21.20931457505076Y16.572314575050765
G01 X21.15659163730981Y16.630485372669085
G01 X21.10982431015796Y16.69354381358432
G01 X21.08317829746094Y16.738000000000003
G01 X20.20978642494924Y16.738000000000003
G01 X9.962943712474619Y6.491157287525381
G01 X9.933858313665459Y6.464795818654905
G01 X9.902329093207841Y6.441412155078982
G01 X9.8686596947304Y6.421231494260658
G01 X9.833174372946036Y6.404448186995485
G01 X9.796214870901785Y6.391223865707117
G01 X9.758137128806451Y6.3816858878387075
G01 X9.719307856131826Y6.375926109331122
G01 X9.680101Y6.374
G01 X9.66445810853006Y6.374
G01 X9.664133074696101Y6.3733127736979025
G01 X9.621249170457164Y6.301765301933338
G01 X9.571558885358327Y6.234765708460902
G01 X9.515540764008566Y6.172959235991435
G01 X9.4537342915391Y6.116941114641674
G01 X9.386734698066663Y6.067250829542837
G01 X9.315187226302099Y6.024366925303898
G01 X9.239780917510327Y5.988702397365406
G01 X9.161241975666293Y5.960600714627622
G01 X9.08032677371371Y5.940332511657254
G01 X8.997814569280127Y5.928092982328633
G01 X8.6145Y5.924
G01 X8.531185430719873Y5.928092982328633
G01 X8.44867322628629Y5.940332511657254
G01 X8.367758024333707Y5.960600714627622
G01 X8.289219082489673Y5.988702397365406
G01 X8.213812773697901Y6.024366925303898
G01 X8.142265301933337Y6.067250829542837
G01 X8.0752657084609Y6.116941114641674
G01 X8.013459235991434Y6.172959235991435
G01 X7.957441114641673Y6.234765708460902
G01 X7.907750829542836Y6.301765301933338
G01 X7.8648669253038985Y6.373312773697902
G01 X7.829202397365406Y6.448719082489673
G01 X7.801100714627622Y6.527258024333707
G01 X7.780832511657254Y6.608173226286291
G01 X7.768592982328633Y6.690685430719873
G01 X7.7645Y6.774
G01 X7.768592982328633Y6.857314569280127
G01 X7.780832511657254Y6.939826773713709
G01 X7.801100714627622Y7.020741975666293
G01 X7.829202397365406Y7.099280917510327
G01 X7.8648669253038985Y7.1746872263020975
G01 X7.907750829542836Y7.246234698066662
G01 X7.957441114641673Y7.313234291539098
G01 X8.013459235991434Y7.375040764008565
G01 X8.0752657084609Y7.431058885358326
G01 X8.142265301933337Y7.480749170457163
G01 X8.213812773697901Y7.523633074696102
G01 X8.289219082489673Y7.559297602634594
G01 X8.367758024333707Y7.587399285372378
G01 X8.44867322628629Y7.607667488342746
G01 X8.531185430719873Y7.619907017671367
G01 X8.9145Y7.624
G01 X8.997814569280127Y7.619907017671367
G01 X9.08032677371371Y7.607667488342746
G01 X9.161241975666293Y7.587399285372378
G01 X9.239780917510327Y7.559297602634594
G01 X9.315187226302099Y7.523633074696102
G01 X9.386734698066661Y7.480749170457163
G01 X9.4537342915391Y7.431058885358326
G01 X9.515540764008566Y7.375040764008565
G01 X9.571558885358327Y7.313234291539099
G01 X9.606515852589608Y7.266100277538845
G01 X19.761258287525383Y17.42084271247462
G01 X19.790343686334545Y17.447204181345096
G01 X19.821872906792162Y17.47058784492102
G01 X19.8555423052696Y17.490768505739343
G01 X19.891027627053965Y17.507551813004515
G01 X19.927987129098216Y17.520776134292884
G01 X19.96606487119355Y17.530314112161292
G01 X20.004894143868178Y17.53607389066888
G01 X20.044101Y17.538
G01 X21.08317829746094Y17.538
G01 X21.10982431015796Y17.582456186415683
G01 X21.15659163730981Y17.64551462733092
G01 X21.20931457505076Y17.70368542494924
G01 X21.267485372669082Y17.75640836269019
G01 X21.330543813584317Y17.80317568984204
G01 X21.3978826105392Y17.843537011478684
G01 X21.468853254107927Y17.87710362600903
G01 X21.54277225819643Y17.90355226858577
G01 X21.618927742387097Y17.922628224322587
G01 X21.69658628773635Y17.93414778133776
G01 X21.775Y17.938000000000002
G01 X21.853413712263645Y17.93414778133776
G01 X21.9310722576129Y17.922628224322587
G01 X22.007227741803568Y17.90355226858577
G01 X22.08114674589207Y17.87710362600903
G01 X22.1521173894608Y17.843537011478684
G01 X22.21945618641568Y17.80317568984204
G01 X22.282514627330915Y17.75640836269019
G01 X22.340685424949235Y17.70368542494924
G01 X22.393408362690188Y17.64551462733092
G01 X22.440175689842036Y17.582456186415683
G01 X22.48053701147868Y17.5151173894608
G01 X22.514103626009028Y17.444146745892073
G01 X22.540552268585767Y17.37022774180357
G01 X22.559628224322584Y17.294072257612903
G01 X22.571147781337757Y17.216413712263652
G01 X22.575Y17.138
G01 X22.571147781337757Y17.05958628773635
G01 X22.559628224322584Y16.9819277423871
G01 X22.540552268585767Y16.905772258196432
G01 X22.514103626009028Y16.83185325410793
G01 X22.48053701147868Y16.760882610539202
G01 X22.440175689842036Y16.69354381358432
G01 X22.393408362690188Y16.630485372669085
G01 X22.340685424949235Y16.572314575050765
G01 X22.282514627330915Y16.519591637309812
G01 X22.21945618641568Y16.472824310157964
G01 X22.1521173894608Y16.43246298852132
G01 X22.08114674589207Y16.398896373990972
G01 X22.007227741803568Y16.372447731414233
G01 X22.007227741803568Y16.372447731414233
M5
G01 X22.514103626009028Y23.03214674589207
M3
G01 X22.540552268585767Y22.95822774180357
G01 X22.559628224322584Y22.8820722576129
G01 X22.571147781337757Y22.80441371226365
G01 X22.575Y22.726
G01 X22.571147781337757Y22.64758628773635
G01 X22.559628224322584Y22.569927742387097
G01 X22.540552268585767Y22.49377225819643
G01 X22.514103626009028Y22.419853254107927
G01 X22.48053701147868Y22.3488826105392
G01 X22.440175689842036Y22.281543813584317
G01 X22.393408362690188Y22.218485372669083
G01 X22.340685424949235Y22.160314575050762
G01 X22.282514627330915Y22.10759163730981
G01 X22.21945618641568Y22.06082431015796
G01 X22.1521173894608Y22.020462988521317
G01 X22.08114674589207Y21.98689637399097
G01 X22.007227741803568Y21.96044773141423
G01 X21.9310722576129Y21.941371775677414
G01 X21.85341371226365Y21.92985221866224
G01 X21.775Y21.926
G01 X21.69658628773635Y21.92985221866224
G01 X21.618927742387097Y21.941371775677414
G01 X21.54277225819643Y21.96044773141423
G01 X21.468853254107927Y21.98689637399097
G01 X21.3978826105392Y22.020462988521317
G01 X21.330543813584317Y22.06082431015796
G01 X21.267485372669082Y22.10759163730981
G01 X21.20931457505076Y22.160314575050762
G01 X21.15659163730981Y22.218485372669083
G01 X21.10982431015796Y22.281543813584317
G01 X21.08317829746094Y22.326
G01 X20.844786424949238Y22.326
G01 X18.605999999999998Y20.08721357505076
G01 X18.605999999999998Y18.582998
G01 X18.60407389066888Y18.543791143868177
G01 X18.59831411216129Y18.504961871193547
G01 X18.588776134292882Y18.466884129098215
G01 X18.575551813004513Y18.429924627053964
G01 X18.55876850573934Y18.3944393052696
G01 X18.538587844921018Y18.360769906792157
G01 X18.515204181345094Y18.329240686334543
G01 X18.488842712474618Y18.30015528752538
G01 X13.225844712474618Y13.037157287525382
G01 X13.196759313665458Y13.010795818654906
G01 X13.16523009320784Y12.987412155078982
G01 X13.1315606947304Y12.967231494260659
G01 X13.096075372946036Y12.950448186995486
G01 X13.059115870901785Y12.937223865707116
G01 X13.02103812880645Y12.927685887838708
G01 X12.982208856131825Y12.921926109331121
G01 X12.943002Y12.92
G01 X11.406101Y12.92
G01 X11.366894143868175Y12.921926109331121
G01 X11.328064871193549Y12.927685887838708
G01 X11.289987129098215Y12.937223865707116
G01 X11.253027627053964Y12.950448186995486
G01 X11.2175423052696Y12.967231494260659
G01 X11.183872906792159Y12.987412155078982
G01 X11.152343686334541Y13.010795818654906
G01 X11.123258287525381Y13.037157287525382
G01 X9.516260390562524Y14.64415518448824
G01 X9.4862342915391Y14.616941114641673
G01 X9.419234698066663Y14.567250829542836
G01 X9.3476872263021Y14.524366925303898
G01 X9.272280917510328Y14.488702397365405
G01 X9.193741975666294Y14.460600714627622
G01 X9.11282677371371Y14.440332511657253
G01 X9.030314569280128Y14.428092982328632
G01 X8.647Y14.424
G01 X8.563685430719874Y14.428092982328632
G01 X8.481173226286291Y14.440332511657253
G01 X8.400258024333707Y14.460600714627622
G01 X8.321719082489674Y14.488702397365405
G01 X8.246312773697902Y14.524366925303898
G01 X8.17476530193334Y14.567250829542836
G01 X8.107765708460901Y14.616941114641673
G01 X8.045959235991434Y14.672959235991433
G01 X7.989941114641674Y14.7347657084609
G01 X7.940250829542837Y14.801765301933337
G01 X7.897366925303899Y14.8733127736979
G01 X7.861702397365407Y14.948719082489673
G01 X7.8336007146276225Y15.027258024333706
G01 X7.813332511657254Y15.10817322628629
G01 X7.801092982328633Y15.190685430719872
G01 X7.797000000000001Y15.274
G01 X7.801092982328633Y15.357314569280126
G01 X7.813332511657254Y15.439826773713708
G01 X7.8336007146276225Y15.520741975666292
G01 X7.861702397365406Y15.599280917510326
G01 X7.897366925303899Y15.674687226302098
G01 X7.940250829542837Y15.746234698066662
G01 X7.989941114641674Y15.813234291539098
G01 X8.045959235991434Y15.875040764008565
G01 X8.107765708460901Y15.931058885358325
G01 X8.174765301933338Y15.980749170457162
G01 X8.246312773697902Y16.0236330746961
G01 X8.321719082489674Y16.059297602634594
G01 X8.400258024333707Y16.087399285372378
G01 X8.481173226286291Y16.107667488342745
G01 X8.563685430719874Y16.119907017671366
G01 X8.947000000000001Y16.124
G01 X9.030314569280128Y16.119907017671366
G01 X9.11282677371371Y16.107667488342745
G01 X9.193741975666294Y16.087399285372378
G01 X9.272280917510328Y16.059297602634594
G01 X9.3476872263021Y16.0236330746961
G01 X9.419234698066662Y15.980749170457162
G01 X9.4862342915391Y15.931058885358325
G01 X9.548040764008567Y15.875040764008565
G01 X9.604058885358327Y15.813234291539098
G01 X9.653749170457164Y15.746234698066662
G01 X9.696633074696102Y15.674687226302098
G01 X9.732297602634594Y15.599280917510326
G01 X9.75446821329972Y15.537318211649517
G01 X11.571786424949236Y13.72
G01 X12.777316575050763Y13.72
G01 X17.806Y18.74868342494924
G01 X17.806Y20.252899
G01 X17.80792610933112Y20.292105856131823
G01 X17.81368588783871Y20.330935128806452
G01 X17.823223865707117Y20.369012870901784
G01 X17.836448186995483Y20.405972372946035
G01 X17.85323149426066Y20.4414576947304
G01 X17.87341215507898Y20.47512709320784
G01 X17.896795818654905Y20.506656313665456
G01 X17.92315728752538Y20.535741712474618
G01 X20.39625828752538Y23.008842712474618
G01 X20.425343686334543Y23.035204181345094
G01 X20.45687290679216Y23.058587844921018
G01 X20.4905423052696Y23.07876850573934
G01 X20.526027627053963Y23.095551813004512
G01 X20.562987129098214Y23.10877613429288
G01 X20.601064871193547Y23.11831411216129
G01 X20.639894143868176Y23.12407389066888
G01 X20.679101Y23.125999999999998
G01 X21.08317829746094Y23.125999999999998
G01 X21.10982431015796Y23.17045618641568
G01 X21.15659163730981Y23.233514627330916
G01 X21.20931457505076Y23.291685424949236
G01 X21.267485372669082Y23.34440836269019
G01 X21.330543813584317Y23.391175689842036
G01 X21.3978826105392Y23.43153701147868
G01 X21.468853254107927Y23.46510362600903
G01 X21.54277225819643Y23.491552268585767
G01 X21.618927742387097Y23.510628224322584
G01 X21.69658628773635Y23.522147781337758
G01 X21.775Y23.526
G01 X21.853413712263645Y23.522147781337758
G01 X21.9310722576129Y23.510628224322584
G01 X22.007227741803568Y23.491552268585767
G01 X22.08114674589207Y23.46510362600903
G01 X22.1521173894608Y23.43153701147868
G01 X22.21945618641568Y23.391175689842036
G01 X22.282514627330915Y23.34440836269019
G01 X22.340685424949235Y23.291685424949236
G01 X22.393408362690188Y23.233514627330916
G01 X22.440175689842036Y23.17045618641568
G01 X22.48053701147868Y23.1031173894608
G01 X22.514103626009028Y23.03214674589207
G01 X22.514103626009028Y23.03214674589207
M5
G01 X13.813685430719874Y9.302407017671367
M3
G01 X13.897Y9.3065
G01 X13.980314569280127Y9.302407017671367
G01 X14.06282677371371Y9.290167488342746
G01 X14.143741975666293Y9.269899285372377
G01 X14.211470284151998Y9.245665709101237
G01 X16.79864728752538Y11.83284271247462
G01 X16.827732686334542Y11.859204181345095
G01 X16.859261906792156Y11.88258784492102
G01 X16.8929313052696Y11.902768505739342
G01 X16.928416627053963Y11.919551813004515
G01 X16.965376129098214Y11.932776134292885
G01 X17.003453871193546Y11.942314112161293
G01 X17.042283143868175Y11.94807389066888
G01 X17.08149Y11.950000000000001
G01 X21.08317829746094Y11.950000000000001
G01 X21.10982431015796Y11.994456186415682
G01 X21.15659163730981Y12.057514627330917
G01 X21.20931457505076Y12.11568542494924
G01 X21.267485372669082Y12.16840836269019
G01 X21.330543813584317Y12.215175689842036
G01 X21.3978826105392Y12.255537011478685
G01 X21.468853254107927Y12.28910362600903
G01 X21.54277225819643Y12.315552268585767
G01 X21.618927742387097Y12.334628224322586
G01 X21.69658628773635Y12.34614778133776
G01 X21.775Y12.350000000000001
G01 X21.853413712263645Y12.34614778133776
G01 X21.9310722576129Y12.334628224322586
G01 X22.007227741803568Y12.315552268585767
G01 X22.08114674589207Y12.28910362600903
G01 X22.1521173894608Y12.255537011478685
G01 X22.21945618641568Y12.215175689842038
G01 X22.282514627330915Y12.16840836269019
G01 X22.340685424949235Y12.11568542494924
G01 X22.393408362690188Y12.057514627330917
G01 X22.440175689842036Y11.994456186415682
G01 X22.48053701147868Y11.927117389460799
G01 X22.514103626009028Y11.856146745892072
G01 X22.540552268585767Y11.78222774180357
G01 X22.559628224322584Y11.706072257612904
G01 X22.571147781337757Y11.628413712263649
G01 X22.575Y11.55
G01 X22.571147781337757Y11.471586287736352
G01 X22.559628224322584Y11.393927742387097
G01 X22.540552268585767Y11.317772258196431
G01 X22.514103626009028Y11.243853254107929
G01 X22.48053701147868Y11.172882610539203
G01 X22.440175689842036Y11.105543813584319
G01 X22.393408362690188Y11.042485372669084
G01 X22.340685424949235Y10.984314575050762
G01 X22.282514627330915Y10.931591637309811
G01 X22.21945618641568Y10.884824310157965
G01 X22.1521173894608Y10.844462988521316
G01 X22.08114674589207Y10.810896373990971
G01 X22.007227741803568Y10.784447731414234
G01 X21.9310722576129Y10.765371775677416
G01 X21.85341371226365Y10.753852218662242
G01 X21.775Y10.75
G01 X21.69658628773635Y10.753852218662242
G01 X21.618927742387097Y10.765371775677416
G01 X21.54277225819643Y10.784447731414234
G01 X21.468853254107927Y10.810896373990971
G01 X21.3978826105392Y10.844462988521316
G01 X21.330543813584317Y10.884824310157965
G01 X21.267485372669082Y10.931591637309811
G01 X21.20931457505076Y10.984314575050762
G01 X21.15659163730981Y11.042485372669084
G01 X21.10982431015796Y11.105543813584319
G01 X21.08317829746094Y11.15
G01 X17.247175424949234Y11.15
G01 X14.72843095204882Y8.631255527099585
G01 X14.730667488342746Y8.62232677371371
G01 X14.742907017671367Y8.539814569280127
G01 X14.747Y8.1565
G01 X14.742907017671367Y8.073185430719873
G01 X14.730667488342746Y7.99067322628629
G01 X14.710399285372377Y7.909758024333707
G01 X14.682297602634595Y7.831219082489673
G01 X14.646633074696101Y7.755812773697901
G01 X14.603749170457164Y7.684265301933338
G01 X14.554058885358327Y7.6172657084609
G01 X14.498040764008566Y7.555459235991434
G01 X14.4362342915391Y7.499441114641673
G01 X14.369234698066663Y7.449750829542836
G01 X14.297687226302099Y7.4068669253038975
G01 X14.222280917510327Y7.371202397365406
G01 X14.143741975666293Y7.343100714627622
G01 X14.06282677371371Y7.3228325116572535
G01 X13.980314569280127Y7.310592982328632
G01 X13.897Y7.3065
G01 X13.813685430719874Y7.310592982328632
G01 X13.731173226286291Y7.3228325116572535
G01 X13.650258024333707Y7.343100714627622
G01 X13.571719082489674Y7.371202397365406
G01 X13.496312773697902Y7.4068669253038975
G01 X13.424765301933338Y7.449750829542836
G01 X13.357765708460901Y7.499441114641673
G01 X13.295959235991434Y7.555459235991434
G01 X13.239941114641674Y7.6172657084609
G01 X13.190250829542837Y7.684265301933338
G01 X13.1473669253039Y7.755812773697901
G01 X13.111702397365406Y7.831219082489673
G01 X13.083600714627623Y7.909758024333707
G01 X13.063332511657254Y7.99067322628629
G01 X13.051092982328633Y8.073185430719873
G01 X13.047Y8.4565
G01 X13.051092982328633Y8.539814569280127
G01 X13.063332511657254Y8.62232677371371
G01 X13.083600714627623Y8.703241975666293
G01 X13.111702397365406Y8.781780917510327
G01 X13.1473669253039Y8.857187226302099
G01 X13.190250829542837Y8.92873469806666
G01 X13.239941114641674Y8.9957342915391
G01 X13.295959235991434Y9.057540764008566
G01 X13.357765708460901Y9.113558885358326
G01 X13.424765301933338Y9.163249170457163
G01 X13.496312773697902Y9.206133074696101
G01 X13.571719082489674Y9.241797602634593
G01 X13.650258024333707Y9.269899285372377
G01 X13.731173226286291Y9.290167488342746
G01 X13.813685430719874Y9.302407017671367
G01 X13.813685430719874Y9.302407017671367
M5
G01 X19.228882610539202Y15.425537011478685
M3
G01 X19.29985325410793Y15.45910362600903
G01 X19.373772258196432Y15.485552268585767
G01 X19.4499277423871Y15.504628224322586
G01 X19.52758628773635Y15.516147781337757
G01 X19.606Y15.520000000000001
G01 X19.684413712263648Y15.516147781337757
G01 X19.762072257612903Y15.504628224322586
G01 X19.83822774180357Y15.485552268585767
G01 X19.912146745892073Y15.45910362600903
G01 X19.9831173894608Y15.425537011478685
G01 X20.050456186415683Y15.385175689842036
G01 X20.113514627330918Y15.33840836269019
G01 X20.17168542494924Y15.28568542494924
G01 X20.22440836269019Y15.227514627330917
G01 X20.27117568984204Y15.164456186415682
G01 X20.29782170253906Y15.120000000000001
G01 X21.145Y15.120000000000001
G01 X21.184206856131823Y15.11807389066888
G01 X21.223036128806452Y15.112314112161293
G01 X21.261113870901784Y15.102776134292885
G01 X21.298073372946035Y15.089551813004515
G01 X21.3335586947304Y15.072768505739342
G01 X21.367228093207842Y15.05258784492102
G01 X21.39875731366546Y15.029204181345095
G01 X21.427842712474618Y15.002842712474619
G01 X21.540685424949235Y14.89
G01 X22.575Y14.89
G01 X22.575Y13.29
G01 X20.974999999999998Y13.29
G01 X20.974999999999998Y14.32
G01 X20.29782170253906Y14.32
G01 X20.27117568984204Y14.275543813584319
G01 X20.22440836269019Y14.212485372669084
G01 X20.17168542494924Y14.154314575050762
G01 X20.113514627330918Y14.101591637309811
G01 X20.050456186415683Y14.054824310157965
G01 X19.9831173894608Y14.014462988521316
G01 X19.912146745892073Y13.980896373990971
G01 X19.83822774180357Y13.954447731414234
G01 X19.762072257612903Y13.935371775677416
G01 X19.68441371226365Y13.923852218662244
G01 X19.606Y13.92
G01 X19.52758628773635Y13.923852218662244
G01 X19.4499277423871Y13.935371775677416
G01 X19.373772258196432Y13.954447731414234
G01 X19.29985325410793Y13.980896373990971
G01 X19.228882610539202Y14.014462988521316
G01 X19.16154381358432Y14.054824310157965
G01 X19.098485372669085Y14.101591637309811
G01 X19.040314575050765Y14.154314575050762
G01 X18.987591637309812Y14.212485372669084
G01 X18.940824310157964Y14.275543813584319
G01 X18.90046298852132Y14.342882610539203
G01 X18.866896373990972Y14.413853254107929
G01 X18.840447731414233Y14.487772258196431
G01 X18.821371775677417Y14.563927742387097
G01 X18.809852218662243Y14.641586287736352
G01 X18.806Y14.72
G01 X18.809852218662243Y14.798413712263649
G01 X18.821371775677417Y14.876072257612904
G01 X18.840447731414233Y14.95222774180357
G01 X18.866896373990972Y15.026146745892072
G01 X18.90046298852132Y15.097117389460799
G01 X18.940824310157964Y15.164456186415682
G01 X18.987591637309812Y15.227514627330917
G01 X19.040314575050765Y15.28568542494924
G01 X19.098485372669085Y15.33840836269019
G01 X19.16154381358432Y15.385175689842036
G01 X19.228882610539202Y15.425537011478685
G01 X19.228882610539202Y15.425537011478685
M5
G01 X39.812175689842036Y15.82954381358432
M3
G01 X39.76540836269019Y15.766485372669084
G01 X39.712685424949235Y15.708314575050762
G01 X39.65451462733091Y15.655591637309811
G01 X39.591456186415684Y15.608824310157965
G01 X39.547Y15.582178297460938
G01 X39.547Y13.96582170253906
G01 X39.59145618641568Y13.939175689842035
G01 X39.65451462733091Y13.892408362690189
G01 X39.712685424949235Y13.839685424949238
G01 X39.76540836269019Y13.781514627330916
G01 X39.812175689842036Y13.71845618641568
G01 X39.85253701147868Y13.651117389460797
G01 X39.886103626009024Y13.58014674589207
G01 X39.91255226858576Y13.506227741803569
G01 X39.93162822432258Y13.430072257612903
G01 X39.94314778133776Y13.352413712263647
G01 X39.946999999999996Y13.274
G01 X39.94314778133776Y13.19558628773635
G01 X39.93162822432258Y13.117927742387096
G01 X39.91255226858576Y13.04177225819643
G01 X39.886103626009024Y12.967853254107927
G01 X39.85253701147868Y12.896882610539201
G01 X39.812175689842036Y12.829543813584317
G01 X39.76540836269019Y12.766485372669083
G01 X39.712685424949235Y12.70831457505076
G01 X39.65451462733091Y12.65559163730981
G01 X39.591456186415684Y12.608824310157964
G01 X39.547Y12.582178297460937
G01 X39.547Y10.96582170253906
G01 X39.59145618641568Y10.939175689842035
G01 X39.65451462733091Y10.892408362690189
G01 X39.712685424949235Y10.839685424949238
G01 X39.76540836269019Y10.781514627330916
G01 X39.812175689842036Y10.71845618641568
G01 X39.85253701147868Y10.651117389460797
G01 X39.886103626009024Y10.58014674589207
G01 X39.91255226858576Y10.506227741803569
G01 X39.93162822432258Y10.430072257612903
G01 X39.94314778133776Y10.352413712263647
G01 X39.946999999999996Y10.274
G01 X39.94314778133776Y10.19558628773635
G01 X39.93162822432258Y10.117927742387096
G01 X39.91255226858576Y10.04177225819643
G01 X39.886103626009024Y9.967853254107927
G01 X39.85253701147868Y9.896882610539201
G01 X39.812175689842036Y9.829543813584317
G01 X39.76540836269019Y9.766485372669083
G01 X39.712685424949235Y9.70831457505076
G01 X39.65451462733091Y9.65559163730981
G01 X39.591456186415684Y9.608824310157964
G01 X39.5241173894608Y9.568462988521315
G01 X39.45314674589207Y9.53489637399097
G01 X39.37922774180357Y9.508447731414233
G01 X39.303072257612904Y9.489371775677414
G01 X39.225413712263645Y9.477852218662242
G01 X39.147Y9.473999999999998
G01 X39.06858628773635Y9.477852218662242
G01 X38.99092774238709Y9.489371775677414
G01 X38.91477225819643Y9.508447731414233
G01 X38.84085325410793Y9.53489637399097
G01 X38.7698826105392Y9.568462988521315
G01 X38.70254381358432Y9.608824310157964
G01 X38.639485372669085Y9.65559163730981
G01 X38.58131457505076Y9.70831457505076
G01 X38.52859163730981Y9.766485372669083
G01 X38.48182431015796Y9.829543813584317
G01 X38.441462988521316Y9.896882610539201
G01 X38.40789637399097Y9.967853254107927
G01 X38.381447731414234Y10.04177225819643
G01 X38.36237177567742Y10.117927742387096
G01 X38.35085221866224Y10.19558628773635
G01 X38.347Y10.274
G01 X38.35085221866224Y10.352413712263647
G01 X38.36237177567742Y10.430072257612903
G01 X38.381447731414234Y10.506227741803569
G01 X38.407896373990965Y10.58014674589207
G01 X38.441462988521316Y10.651117389460797
G01 X38.48182431015796Y10.71845618641568
G01 X38.52859163730981Y10.781514627330916
G01 X38.58131457505076Y10.839685424949238
G01 X38.63948537266908Y10.892408362690189
G01 X38.70254381358431Y10.939175689842035
G01 X38.747Y10.965821702539062
G01 X38.747Y12.582178297460938
G01 X38.70254381358432Y12.608824310157964
G01 X38.639485372669085Y12.65559163730981
G01 X38.58131457505076Y12.70831457505076
G01 X38.52859163730981Y12.766485372669083
G01 X38.48182431015796Y12.829543813584317
G01 X38.441462988521316Y12.896882610539201
G01 X38.40789637399097Y12.967853254107927
G01 X38.381447731414234Y13.04177225819643
G01 X38.36237177567742Y13.117927742387096
G01 X38.35085221866224Y13.19558628773635
G01 X38.347Y13.274
G01 X38.35085221866224Y13.352413712263647
G01 X38.36237177567742Y13.430072257612903
G01 X38.381447731414234Y13.506227741803569
G01 X38.407896373990965Y13.58014674589207
G01 X38.441462988521316Y13.651117389460797
G01 X38.48182431015796Y13.71845618641568
G01 X38.52859163730981Y13.781514627330916
G01 X38.58131457505076Y13.839685424949238
G01 X38.63948537266908Y13.892408362690189
G01 X38.70254381358431Y13.939175689842035
G01 X38.747Y13.965821702539062
G01 X38.747Y15.58217829746094
G01 X38.70254381358432Y15.608824310157965
G01 X38.639485372669085Y15.655591637309811
G01 X38.58131457505076Y15.708314575050762
G01 X38.52859163730981Y15.766485372669084
G01 X38.48182431015796Y15.82954381358432
G01 X38.441462988521316Y15.896882610539203
G01 X38.40789637399097Y15.96785325410793
G01 X38.381447731414234Y16.04177225819643
G01 X38.36237177567742Y16.1179277423871
G01 X38.35085221866224Y16.19558628773635
G01 X38.347Y16.274
G01 X38.35085221866224Y16.35241371226365
G01 X38.36237177567742Y16.430072257612903
G01 X38.381447731414234Y16.50622774180357
G01 X38.407896373990965Y16.580146745892073
G01 X38.441462988521316Y16.6511173894608
G01 X38.48182431015796Y16.718456186415683
G01 X38.52859163730981Y16.781514627330917
G01 X38.58131457505076Y16.839685424949238
G01 X38.63948537266908Y16.89240836269019
G01 X38.70254381358431Y16.93917568984204
G01 X38.747Y16.965821702539063
G01 X38.747Y18.582178297460942
G01 X38.70254381358432Y18.608824310157964
G01 X38.639485372669085Y18.65559163730981
G01 X38.58131457505076Y18.708314575050764
G01 X38.52859163730981Y18.766485372669084
G01 X38.48182431015796Y18.82954381358432
G01 X38.441462988521316Y18.8968826105392
G01 X38.40789637399097Y18.96785325410793
G01 X38.381447731414234Y19.04177225819643
G01 X38.36237177567742Y19.1179277423871
G01 X38.35085221866224Y19.19558628773635
G01 X38.347Y19.274
G01 X38.35085221866224Y19.35241371226365
G01 X38.36237177567742Y19.430072257612903
G01 X38.381447731414234Y19.50622774180357
G01 X38.407896373990965Y19.580146745892073
G01 X38.441462988521316Y19.6511173894608
G01 X38.48182431015796Y19.718456186415683
G01 X38.52859163730981Y19.781514627330917
G01 X38.58131457505076Y19.839685424949238
G01 X38.63948537266908Y19.89240836269019
G01 X38.70254381358431Y19.93917568984204
G01 X38.747Y19.965821702539063
G01 X38.747Y21.582178297460942
G01 X38.70254381358432Y21.608824310157964
G01 X38.639485372669085Y21.65559163730981
G01 X38.58131457505076Y21.708314575050764
G01 X38.52859163730981Y21.766485372669084
G01 X38.48182431015796Y21.82954381358432
G01 X38.441462988521316Y21.8968826105392
G01 X38.40789637399097Y21.96785325410793
G01 X38.381447731414234Y22.04177225819643
G01 X38.36237177567742Y22.1179277423871
G01 X38.35085221866224Y22.19558628773635
G01 X38.347Y22.274
G01 X38.35085221866224Y22.35241371226365
G01 X38.36237177567742Y22.430072257612903
G01 X38.381447731414234Y22.50622774180357
G01 X38.407896373990965Y22.580146745892073
G01 X38.441462988521316Y22.6511173894608
G01 X38.48182431015796Y22.718456186415683
G01 X38.52859163730981Y22.781514627330917
G01 X38.58131457505076Y22.839685424949238
G01 X38.63948537266908Y22.89240836269019
G01 X38.70254381358431Y22.93917568984204
G01 X38.747Y22.965821702539063
G01 X38.747Y24.582178297460942
G01 X38.70254381358432Y24.608824310157964
G01 X38.639485372669085Y24.65559163730981
G01 X38.58131457505076Y24.708314575050764
G01 X38.52859163730981Y24.766485372669084
G01 X38.48182431015796Y24.82954381358432
G01 X38.441462988521316Y24.8968826105392
G01 X38.40789637399097Y24.96785325410793
G01 X38.381447731414234Y25.04177225819643
G01 X38.36237177567742Y25.1179277423871
G01 X38.35085221866224Y25.19558628773635
G01 X38.347Y25.274
G01 X38.35085221866224Y25.35241371226365
G01 X38.36237177567742Y25.430072257612903
G01 X38.381447731414234Y25.50622774180357
G01 X38.407896373990965Y25.580146745892073
G01 X38.441462988521316Y25.6511173894608
G01 X38.48182431015796Y25.718456186415683
G01 X38.52859163730981Y25.781514627330917
G01 X38.58131457505076Y25.839685424949238
G01 X38.63948537266908Y25.89240836269019
G01 X38.70254381358431Y25.93917568984204
G01 X38.7698826105392Y25.979537011478683
G01 X38.84085325410793Y26.01310362600903
G01 X38.91477225819643Y26.03955226858577
G01 X38.99092774238709Y26.058628224322586
G01 X39.06858628773635Y26.07014778133776
G01 X39.147Y26.074
G01 X39.225413712263645Y26.07014778133776
G01 X39.303072257612904Y26.058628224322586
G01 X39.37922774180357Y26.03955226858577
G01 X39.45314674589207Y26.01310362600903
G01 X39.5241173894608Y25.979537011478683
G01 X39.59145618641568Y25.93917568984204
G01 X39.65451462733091Y25.89240836269019
G01 X39.712685424949235Y25.839685424949238
G01 X39.76540836269019Y25.781514627330917
G01 X39.812175689842036Y25.718456186415683
G01 X39.83882170253906Y25.674
G01 X40.897Y25.674
G01 X40.936206856131825Y25.67207389066888
G01 X40.97503612880645Y25.66631411216129
G01 X41.01311387090178Y25.656776134292883
G01 X41.05007337294604Y25.643551813004514
G01 X41.085558694730395Y25.626768505739342
G01 X41.11922809320784Y25.60658784492102
G01 X41.15075731366546Y25.583204181345096
G01 X41.17984271247462Y25.55684271247462
G01 X42.362685424949234Y24.374000000000002
G01 X43.147Y24.374000000000002
G01 X43.147Y23.174
G01 X41.647Y23.174
G01 X41.647Y23.958314575050764
G01 X40.73131457505076Y24.874000000000002
G01 X39.83882170253906Y24.874000000000002
G01 X39.812175689842036Y24.82954381358432
G01 X39.76540836269019Y24.766485372669084
G01 X39.712685424949235Y24.708314575050764
G01 X39.65451462733091Y24.65559163730981
G01 X39.591456186415684Y24.608824310157964
G01 X39.547Y24.58217829746094
G01 X39.547Y22.96582170253906
G01 X39.59145618641568Y22.93917568984204
G01 X39.65451462733091Y22.89240836269019
G01 X39.712685424949235Y22.839685424949238
G01 X39.76540836269019Y22.781514627330917
G01 X39.812175689842036Y22.718456186415683
G01 X39.85253701147868Y22.6511173894608
G01 X39.886103626009024Y22.580146745892073
G01 X39.91255226858576Y22.50622774180357
G01 X39.93162822432258Y22.430072257612903
G01 X39.94314778133776Y22.35241371226365
G01 X39.946999999999996Y22.274
G01 X39.94314778133776Y22.19558628773635
G01 X39.93162822432258Y22.1179277423871
G01 X39.91255226858576Y22.04177225819643
G01 X39.886103626009024Y21.96785325410793
G01 X39.85253701147868Y21.8968826105392
G01 X39.812175689842036Y21.82954381358432
G01 X39.76540836269019Y21.766485372669084
G01 X39.712685424949235Y21.708314575050764
G01 X39.65451462733091Y21.65559163730981
G01 X39.591456186415684Y21.608824310157964
G01 X39.547Y21.58217829746094
G01 X39.547Y19.96582170253906
G01 X39.59145618641568Y19.93917568984204
G01 X39.65451462733091Y19.89240836269019
G01 X39.712685424949235Y19.839685424949238
G01 X39.76540836269019Y19.781514627330917
G01 X39.812175689842036Y19.718456186415683
G01 X39.85253701147868Y19.6511173894608
G01 X39.886103626009024Y19.580146745892073
G01 X39.91255226858576Y19.50622774180357
G01 X39.93162822432258Y19.430072257612903
G01 X39.94314778133776Y19.35241371226365
G01 X39.946999999999996Y19.274
G01 X39.94314778133776Y19.19558628773635
G01 X39.93162822432258Y19.1179277423871
G01 X39.91255226858576Y19.04177225819643
G01 X39.886103626009024Y18.96785325410793
G01 X39.85253701147868Y18.8968826105392
G01 X39.812175689842036Y18.82954381358432
G01 X39.76540836269019Y18.766485372669084
G01 X39.712685424949235Y18.708314575050764
G01 X39.65451462733091Y18.65559163730981
G01 X39.591456186415684Y18.608824310157964
G01 X39.547Y18.58217829746094
G01 X39.547Y16.96582170253906
G01 X39.59145618641568Y16.93917568984204
G01 X39.65451462733091Y16.89240836269019
G01 X39.712685424949235Y16.839685424949238
G01 X39.76540836269019Y16.781514627330917
G01 X39.812175689842036Y16.718456186415683
G01 X39.85253701147868Y16.6511173894608
G01 X39.886103626009024Y16.580146745892073
G01 X39.91255226858576Y16.50622774180357
G01 X39.93162822432258Y16.430072257612903
G01 X39.94314778133776Y16.35241371226365
G01 X39.946999999999996Y16.274
G01 X39.94314778133776Y16.19558628773635
G01 X39.93162822432258Y16.1179277423871
G01 X39.91255226858576Y16.04177225819643
G01 X39.886103626009024Y15.96785325410793
G01 X39.85253701147868Y15.896882610539203
G01 X39.812175689842036Y15.82954381358432
G01 X39.812175689842036Y15.82954381358432
M5
G01 X19.52758628773635Y24.46485221866224
M3
G01 X19.4499277423871Y24.476371775677414
G01 X19.373772258196432Y24.49544773141423
G01 X19.29985325410793Y24.52189637399097
G01 X19.228882610539202Y24.555462988521317
G01 X19.16154381358432Y24.595824310157962
G01 X19.098485372669085Y24.64259163730981
G01 X19.040314575050765Y24.695314575050762
G01 X18.987591637309812Y24.753485372669083
G01 X18.940824310157964Y24.816543813584317
G01 X18.90046298852132Y24.8838826105392
G01 X18.866896373990972Y24.954853254107928
G01 X18.840447731414233Y25.02877225819643
G01 X18.821371775677417Y25.104927742387098
G01 X18.809852218662243Y25.18258628773635
G01 X18.806Y25.261
G01 X18.809852218662243Y25.33941371226365
