; This gcode is generated by my specialised python script for my PCB manufacturer project :))

; Machine Initialization Sequence...

G21 ; to set metric units
G90 ; to set absolute mode , G91 for incremental mode
G94 ; To set the active feed rate mode to units per minute mode

M5 ; disabling spindle PWM
C0 ; Choosing the empty tool slot in the multiplexer circuits

B1 ; Turn ON Machine

$H ; Homing :)
G10 P0 L20 X0.0Y0.0Z0.0 ; Force Reset current coordinates after homing


; The following gcode is the PCB trace laser marking gcode

M5 ; Being extra sure it won't light up before activation

; Getting and Activating Tool-1, The Tool.Laser
G00X165.0Y0.0Z11.0 ; Go to Tool-1 Home Pos
G00X188 ; Enter Female Kinematic Mount Home Pos
A1 ; Latch on Kinematic Mount
G4 P5 ; Wait for Kinematic Mount to fully attach
G00X92 ; Exit Female Kinematic Mount Home Pos
#TODO X0.0Y0.0Z0.0 ;  ;Add tool offset coordinate
C1 ; Choosing tool 1 in the choose demultiplexer circuits

F600 ; setting default feedrate

G00Z16 ; Moving to correct focal length Z position

S150 ; Setting Laser Power

; Number of passes: 1

; Pass number: 1
G01 X2.0Y1.95
M3
G01 X1.9950991429835219Y1.95024076366639
G01 X1.9902454838991936Y1.9509607359798384
G01 X1.985485766137277Y1.9521529832133895
G01 X1.9808658283817455Y1.9538060233744357
G01 X1.9764301631587Y1.9559039367825823
G01 X1.97222148834902Y1.9584265193848727
G01 X1.9682803357918177Y1.9613494773318632
G01 X1.9646446609406727Y1.9646446609406727
G01 X1.9613494773318632Y1.9682803357918177
G01 X1.9584265193848727Y1.97222148834902
G01 X1.9559039367825823Y1.9764301631587
G01 X1.9538060233744357Y1.9808658283817455
G01 X1.9521529832133895Y1.985485766137277
G01 X1.9509607359798384Y1.9902454838991936
G01 X1.95024076366639Y1.9950991429835219
G01 X1.95Y2.0
G01 X1.95Y34.385
G01 X1.95024076366639Y34.38990085701648
G01 X1.9509607359798384Y34.394754516100804
G01 X1.9521529832133895Y34.399514233862725
G01 X1.9538060233744357Y34.40413417161825
G01 X1.9559039367825823Y34.408569836841295
G01 X1.9584265193848727Y34.41277851165098
G01 X1.9613494773318632Y34.41671966420818
G01 X1.9646446609406727Y34.42035533905933
G01 X1.9682803357918177Y34.42365052266813
G01 X1.97222148834902Y34.426573480615126
G01 X1.9764301631587Y34.429096063217415
G01 X1.9808658283817455Y34.431193976625565
G01 X1.985485766137277Y34.43284701678661
G01 X1.9902454838991936Y34.43403926402016
G01 X1.9950991429835219Y34.434759236333605
G01 X2.0Y34.434999999999995
G01 X49.625Y34.434999999999995
G01 X49.62990085701648Y34.434759236333605
G01 X49.634754516100806Y34.43403926402016
G01 X49.63951423386273Y34.43284701678661
G01 X49.644134171618255Y34.431193976625565
G01 X49.6485698368413Y34.429096063217415
G01 X49.65277851165098Y34.426573480615126
G01 X49.65671966420818Y34.42365052266813
G01 X49.66035533905933Y34.42035533905933
G01 X49.663650522668135Y34.41671966420818
G01 X49.66657348061513Y34.41277851165098
G01 X49.66909606321742Y34.408569836841295
G01 X49.67119397662557Y34.40413417161825
G01 X49.67284701678661Y34.399514233862725
G01 X49.67403926402016Y34.394754516100804
G01 X49.67475923633361Y34.38990085701648
G01 X49.675Y34.385
G01 X49.675Y17.875
G01 X49.675Y17.24
G01 X49.675Y2.0
G01 X49.67475923633361Y1.9950991429835219
G01 X49.67403926402016Y1.9902454838991936
G01 X49.67284701678661Y1.985485766137277
G01 X49.67119397662557Y1.9808658283817455
G01 X49.66909606321742Y1.9764301631587
G01 X49.66657348061513Y1.97222148834902
G01 X49.663650522668135Y1.9682803357918177
G01 X49.66035533905933Y1.9646446609406727
G01 X49.65671966420818Y1.9613494773318632
G01 X49.65277851165098Y1.9584265193848727
G01 X49.6485698368413Y1.9559039367825823
G01 X49.644134171618255Y1.9538060233744357
G01 X49.63951423386273Y1.9521529832133895
G01 X49.634754516100806Y1.9509607359798384
G01 X49.62990085701648Y1.95024076366639
G01 X49.625Y1.95
G01 X2.0Y1.95
G01 X2.0Y1.95
M5
G01 X44.1283223252353Y25.50139779077309
M3
G01 X44.069205036877264Y25.545242159977946
G01 X44.014669914110094Y25.59466991411009
G01 X43.96524215997795Y25.649205036877266
G01 X43.92139779077309Y25.708322325235297
G01 X43.883559051738736Y25.7714524473805
G01 X43.852090350616535Y25.837987425726183
G01 X43.82729474820084Y25.907286492059153
G01 X43.80941103969758Y25.978682258487904
G01 X43.79861145499586Y26.05148714475283
G01 X43.795Y26.125
G01 X43.79861145499586Y26.19851285524717
G01 X43.80941103969758Y26.271317741512096
G01 X43.81413554622266Y26.290179028828106
G01 X42.88258128752538Y27.22173328752538
G01 X42.85621981865491Y27.250818686334544
G01 X42.83283615507899Y27.28234790679216
G01 X42.81265549426066Y27.3160173052696
G01 X42.79587218699549Y27.351502627053964
G01 X42.78264786570712Y27.388462129098215
G01 X42.77310988783871Y27.426539871193548
G01 X42.767350109331126Y27.465369143868177
G01 X42.765424Y27.504576
G01 X42.765424Y28.740510573613495
G01 X42.75959351198456Y28.746943525814086
G01 X42.72890245354117Y28.788325627664708
G01 X42.702415336217115Y28.83251671316635
G01 X42.680387245431575Y28.879091198008325
G01 X42.66303032374059Y28.927600544441404
G01 X42.650511727788306Y28.97757758094153
G01 X42.6429520184971Y29.02854100132698
G01 X42.640424Y29.53
G01 X42.6429520184971Y29.58145899867302
G01 X42.650511727788306Y29.632422419058468
G01 X42.66303032374059Y29.682399455558595
G01 X42.680387245431575Y29.730908801991674
G01 X42.702415336217115Y29.77748328683365
G01 X42.72890245354117Y29.82167437233529
G01 X42.75959351198456Y29.863056474185914
G01 X42.765424Y29.869489426386505
G01 X42.765424Y30.689314575050762
G01 X40.56973757505076Y32.885001
G01 X18.210686424949238Y32.885001
G01 X16.66Y31.33431457505076
G01 X16.66Y27.634389424949237
G01 X17.76438942494924Y26.529999999999998
G01 X21.619314575050762Y26.529999999999998
G01 X22.770731262117298Y27.681416687066534
G01 X22.73515058436089Y27.756645709543637
G01 X22.69382458033474Y27.872144153431922
G01 X22.664018399495962Y27.99113709747984
G01 X22.646019091659756Y28.11247857458805
G01 X22.64Y28.235
G01 X22.646019091659753Y28.35752142541195
G01 X22.664018399495962Y28.47886290252016
G01 X22.693824580334738Y28.597855846568077
G01 X22.73515058436089Y28.713354290456362
G01 X22.787598419564556Y28.824245921032496
G01 X22.85066298462182Y28.929462791274503
G01 X22.923736933296578Y29.027991605204555
G01 X23.006116523516816Y29.118883476483184
G01 X23.097008394795445Y29.20126306670342
G01 X23.195537208725497Y29.27433701537818
G01 X23.300754078967504Y29.337401580435444
G01 X23.411645709543638Y29.38984941563911
G01 X23.527144153431923Y29.43117541966526
G01 X23.64613709747984Y29.460981600504038
G01 X23.76747857458805Y29.478980908340247
G01 X23.89Y29.485
G01 X24.01252142541195Y29.478980908340247
G01 X24.13386290252016Y29.460981600504038
G01 X24.252855846568078Y29.431175419665262
G01 X24.368354290456363Y29.38984941563911
G01 X24.479245921032497Y29.337401580435444
G01 X24.584462791274504Y29.27433701537818
G01 X24.682991605204556Y29.20126306670342
G01 X24.773883476483185Y29.118883476483184
G01 X24.85626306670342Y29.027991605204555
G01 X24.92933701537818Y28.929462791274503
G01 X24.992401580435445Y28.824245921032496
G01 X25.04484941563911Y28.713354290456362
G01 X25.08617541966526Y28.597855846568077
G01 X25.11598160050404Y28.47886290252016
G01 X25.13398090834025Y28.35752142541195
G01 X25.14Y28.235
G01 X25.13398090834025Y28.11247857458805
G01 X25.11598160050404Y27.99113709747984
G01 X25.08617541966526Y27.872144153431922
G01 X25.04484941563911Y27.756645709543637
G01 X24.992401580435445Y27.645754078967503
G01 X24.92933701537818Y27.540537208725496
G01 X24.856263066703423Y27.442008394795444
G01 X24.773883476483185Y27.351116523516815
G01 X24.682991605204556Y27.268736933296577
G01 X24.584462791274504Y27.19566298462182
G01 X24.479245921032497Y27.132598419564555
G01 X24.368354290456363Y27.08015058436089
G01 X24.252855846568078Y27.03882458033474
G01 X24.13386290252016Y27.00901839949596
G01 X24.01252142541195Y26.991019091659755
G01 X23.89Y26.985
G01 X23.76747857458805Y26.99101909165975
G01 X23.64613709747984Y27.00901839949596
G01 X23.527144153431923Y27.038824580334737
G01 X23.411645709543638Y27.08015058436089
G01 X23.336416687066535Y27.115731262117297
G01 X22.06784271247462Y25.84715728752538
G01 X22.038757313665457Y25.820795818654904
G01 X22.007228093207843Y25.79741215507898
G01 X21.9735586947304Y25.777231494260658
G01 X21.938073372946036Y25.760448186995486
G01 X21.901113870901785Y25.747223865707117
G01 X21.863036128806453Y25.73768588783871
G01 X21.824206856131823Y25.73192610933112
G01 X21.785Y25.73
G01 X17.598704Y25.73
G01 X17.559497143868178Y25.73192610933112
G01 X17.52066787119355Y25.73768588783871
G01 X17.482590129098217Y25.747223865707117
G01 X17.445630627053966Y25.760448186995486
G01 X17.4101453052696Y25.777231494260658
G01 X17.37647590679216Y25.79741215507898
G01 X17.34494668633454Y25.820795818654904
G01 X17.315861287525383Y25.84715728752538
G01 X15.977157287525383Y27.18586128752538
G01 X15.950795818654907Y27.214946686334542
G01 X15.927412155078983Y27.246475906792156
G01 X15.90723149426066Y27.2801453052696
G01 X15.890448186995487Y27.315630627053963
G01 X15.877223865707117Y27.352590129098214
G01 X15.867685887838709Y27.390667871193546
G01 X15.861926109331122Y27.429497143868176
G01 X15.860000000000001Y27.468704
G01 X15.860000000000001Y31.5
G01 X15.861926109331122Y31.539206856131823
G01 X15.867685887838709Y31.578036128806453
G01 X15.877223865707117Y31.616113870901785
G01 X15.890448186995487Y31.653073372946036
G01 X15.907231494260659Y31.6885586947304
G01 X15.927412155078983Y31.72222809320784
G01 X15.950795818654907Y31.753757313665457
G01 X15.977157287525383Y31.78284271247462
G01 X17.079315575050764Y32.885001
G01 X11.325686424949238Y32.885001
G01 X7.229268737882703Y28.788583312933465
G01 X7.264849415639109Y28.713354290456362
G01 X7.306175419665261Y28.597855846568077
G01 X7.335981600504038Y28.47886290252016
G01 X7.3539809083402465Y28.35752142541195
G01 X7.36Y28.235
G01 X7.3539809083402465Y28.11247857458805
G01 X7.335981600504038Y27.99113709747984
G01 X7.306175419665261Y27.872144153431922
G01 X7.264849415639109Y27.756645709543637
G01 X7.212401580435444Y27.645754078967503
G01 X7.1493370153781814Y27.540537208725496
G01 X7.076263066703421Y27.442008394795444
G01 X6.993883476483185Y27.351116523516815
G01 X6.902991605204557Y27.268736933296577
G01 X6.804462791274503Y27.19566298462182
G01 X6.699245921032498Y27.132598419564555
G01 X6.588354290456363Y27.08015058436089
G01 X6.472855846568078Y27.03882458033474
G01 X6.353862902520161Y27.00901839949596
G01 X6.232521425411951Y26.991019091659755
G01 X6.11Y26.985
G01 X5.987478574588049Y26.99101909165975
G01 X5.86613709747984Y27.00901839949596
G01 X5.747144153431923Y27.038824580334737
G01 X5.631645709543638Y27.08015058436089
G01 X5.520754078967503Y27.132598419564555
G01 X5.415537208725498Y27.19566298462182
G01 X5.317008394795444Y27.268736933296577
G01 X5.226116523516816Y27.351116523516815
G01 X5.143736933296579Y27.442008394795444
G01 X5.070662984621819Y27.540537208725496
G01 X5.007598419564557Y27.645754078967503
G01 X4.955150584360892Y27.756645709543637
G01 X4.913824580334739Y27.872144153431922
G01 X4.884018399495963Y27.99113709747984
G01 X4.866019091659754Y28.11247857458805
G01 X4.86Y28.235
G01 X4.866019091659754Y28.35752142541195
G01 X4.884018399495963Y28.47886290252016
G01 X4.913824580334739Y28.597855846568077
G01 X4.955150584360892Y28.713354290456362
G01 X5.007598419564556Y28.824245921032496
G01 X5.070662984621818Y28.929462791274503
G01 X5.143736933296579Y29.027991605204555
G01 X5.226116523516816Y29.118883476483184
G01 X5.317008394795443Y29.20126306670342
G01 X5.415537208725498Y29.27433701537818
G01 X5.520754078967503Y29.337401580435444
G01 X5.631645709543637Y29.38984941563911
G01 X5.747144153431922Y29.43117541966526
G01 X5.8661370974798395Y29.460981600504038
G01 X5.987478574588049Y29.478980908340247
G01 X6.11Y29.485
G01 X6.23252142541195Y29.478980908340247
G01 X6.35386290252016Y29.460981600504038
G01 X6.472855846568078Y29.431175419665262
G01 X6.588354290456363Y29.38984941563911
G01 X6.663583312933465Y29.354268737882702
G01 X10.877158287525381Y33.56784371247462
G01 X10.906243686334541Y33.594205181345096
G01 X10.937772906792159Y33.617588844921016
G01 X10.9714423052696Y33.63776950573934
G01 X11.006927627053964Y33.654552813004514
G01 X11.043887129098215Y33.66777713429288
G01 X11.081964871193549Y33.677315112161295
G01 X11.120794143868174Y33.68307489066888
G01 X11.160001Y33.685001
G01 X18.045001Y33.685001
G01 X40.735423Y33.685001
G01 X40.774629856131824Y33.68307489066888
G01 X40.81345912880645Y33.677315112161295
G01 X40.85153687090178Y33.66777713429288
G01 X40.88849637294604Y33.654552813004514
G01 X40.923981694730394Y33.63776950573934
G01 X40.957651093207836Y33.617588844921016
G01 X40.98918031366546Y33.594205181345096
G01 X41.018265712474616Y33.56784371247462
G01 X43.44826671247462Y31.13784271247462
G01 X43.474628181345096Y31.10875731366546
G01 X43.49801184492102Y31.077228093207843
G01 X43.51819250573934Y31.0435586947304
G01 X43.534975813004515Y31.008073372946036
G01 X43.548200134292884Y30.971113870901785
G01 X43.557738112161296Y30.933036128806453
G01 X43.56349789066888Y30.894206856131824
G01 X43.565424Y30.855
G01 X43.565424Y29.869489426386505
G01 X43.57125448801544Y29.863056474185914
G01 X43.601945546458836Y29.82167437233529
G01 X43.62843266378289Y29.77748328683365
G01 X43.65046075456843Y29.730908801991674
G01 X43.66781767625941Y29.682399455558595
G01 X43.6803362722117Y29.632422419058468
G01 X43.687895981502905Y29.58145899867302
G01 X43.690424Y29.08
G01 X43.687895981502905Y29.02854100132698
G01 X43.6803362722117Y28.97757758094153
G01 X43.66781767625941Y28.927600544441404
G01 X43.65046075456843Y28.879091198008325
G01 X43.62843266378289Y28.83251671316635
G01 X43.601945546458836Y28.788325627664708
G01 X43.57125448801544Y28.746943525814086
G01 X43.565424Y28.740510573613495
G01 X43.565424Y27.67026142494924
G01 X44.379820971171895Y26.855864453777343
G01 X44.3986822584879Y26.860588960302422
G01 X44.47148714475283Y26.871388545004148
G01 X44.545Y26.875
G01 X44.618512855247175Y26.871388545004148
G01 X44.6913177415121Y26.860588960302422
G01 X44.762713507940845Y26.842705251799156
G01 X44.83201257427382Y26.817909649383466
G01 X44.8985475526195Y26.786440948261266
G01 X44.9616776747647Y26.74860220922691
G01 X45.02079496312274Y26.704757840022054
G01 X45.07533008588991Y26.65533008588991
G01 X45.124757840022056Y26.600794963122734
G01 X45.16860220922691Y26.541677674764703
G01 X45.178598422788326Y26.525
G01 X46.39018141279253Y26.525
G01 X46.41982431015796Y26.57445618641568
G01 X46.46659163730981Y26.637514627330916
G01 X46.519314575050764Y26.695685424949236
G01 X46.57748537266908Y26.74840836269019
G01 X46.640543813584316Y26.795175689842036
G01 X46.7078826105392Y26.83553701147868
G01 X46.77885325410793Y26.86910362600903
G01 X46.85277225819643Y26.895552268585767
G01 X46.928927742387096Y26.914628224322584
G01 X47.006586287736354Y26.926147781337757
G01 X47.085Y26.93
G01 X47.16341371226365Y26.926147781337757
G01 X47.241072257612906Y26.914628224322584
G01 X47.31722774180357Y26.895552268585767
G01 X47.39114674589207Y26.86910362600903
G01 X47.4621173894608Y26.83553701147868
G01 X47.52945618641568Y26.795175689842036
G01 X47.592514627330914Y26.74840836269019
G01 X47.65068542494924Y26.695685424949236
G01 X47.70340836269019Y26.637514627330916
G01 X47.75017568984204Y26.57445618641568
G01 X47.79053701147868Y26.5071173894608
G01 X47.82410362600903Y26.43614674589207
G01 X47.850552268585766Y26.36222774180357
G01 X47.86962822432258Y26.2860722576129
G01 X47.88114778133776Y26.20841371226365
G01 X47.885Y26.13
G01 X47.88114778133776Y26.05158628773635
G01 X47.86962822432258Y25.973927742387097
G01 X47.850552268585766Y25.89777225819643
G01 X47.82410362600903Y25.823853254107927
G01 X47.79053701147868Y25.7528826105392
G01 X47.75017568984204Y25.685543813584317
G01 X47.70340836269019Y25.622485372669082
G01 X47.65068542494924Y25.564314575050762
G01 X47.592514627330914Y25.51159163730981
G01 X47.529456186415686Y25.46482431015796
G01 X47.4621173894608Y25.424462988521316
G01 X47.39114674589207Y25.39089637399097
G01 X47.31722774180357Y25.36444773141423
G01 X47.241072257612906Y25.345371775677414
G01 X47.16341371226365Y25.33385221866224
G01 X47.085Y25.33
G01 X47.006586287736354Y25.33385221866224
G01 X46.928927742387096Y25.345371775677414
G01 X46.85277225819643Y25.36444773141423
G01 X46.77885325410793Y25.39089637399097
G01 X46.7078826105392Y25.424462988521316
G01 X46.64054381358432Y25.46482431015796
G01 X46.57748537266909Y25.51159163730981
G01 X46.519314575050764Y25.564314575050762
G01 X46.46659163730981Y25.622485372669082
G01 X46.41982431015796Y25.685543813584317
G01 X46.39617518212935Y25.725
G01 X45.178598422788326Y25.725
G01 X45.16860220922691Y25.708322325235297
G01 X45.124757840022056Y25.649205036877266
G01 X45.07533008588991Y25.59466991411009
G01 X45.02079496312274Y25.545242159977946
G01 X44.9616776747647Y25.50139779077309
G01 X44.8985475526195Y25.463559051738734
G01 X44.83201257427382Y25.432090350616534
G01 X44.76271350794085Y25.407294748200844
G01 X44.6913177415121Y25.389411039697578
G01 X44.618512855247175Y25.378611454995852
G01 X44.545Y25.375
G01 X44.47148714475283Y25.378611454995852
G01 X44.3986822584879Y25.389411039697578
G01 X44.32728649205915Y25.407294748200844
G01 X44.257987425726185Y25.432090350616534
G01 X44.191452447380506Y25.463559051738734
G01 X44.1283223252353Y25.50139779077309
G01 X44.1283223252353Y25.50139779077309
M5
G01 X47.65370940802646Y13.394953955747281
M3
G01 X47.70632265107229Y13.324013209717641
G01 X47.751729137913514Y13.248257063143399
G01 X47.78949157926016Y13.168415089128581
G01 X47.81924630215899Y13.085256209529016
G01 X47.840706752362905Y12.999581289814516
G01 X47.85366625400498Y12.912215426296605
G01 X47.858Y12.824
G01 X47.85366625400498Y12.735784573703395
G01 X47.840706752362905Y12.648418710185485
G01 X47.81924630215899Y12.562743790470984
G01 X47.78949157926016Y12.479584910871418
G01 X47.751729137913514Y12.399742936856603
G01 X47.70632265107229Y12.323986790282358
G01 X47.653709408026465Y12.253046044252718
G01 X47.59439610306789Y12.187603896932107
G01 X47.528953955747276Y12.128290591973537
G01 X47.45801320971764Y12.075677348927709
G01 X47.3822570631434Y12.03027086208648
G01 X47.30241508912858Y11.992508420739842
G01 X47.219256209529014Y11.962753697841013
G01 X47.133581289814515Y11.941293247637093
G01 X47.046215426296605Y11.928333745995022
G01 X46.958Y11.924
G01 X46.86978457370339Y11.928333745995022
G01 X46.78241871018548Y11.941293247637093
G01 X46.77806837485826Y11.942382949909023
G01 X45.29703452971201Y10.461349104762773
G01 X45.30962822432258Y10.411072257612904
G01 X45.32114778133776Y10.33341371226365
G01 X45.324999999999996Y10.255
G01 X45.32114778133776Y10.176586287736352
G01 X45.30962822432258Y10.098927742387097
G01 X45.29055226858576Y10.022772258196431
G01 X45.264103626009025Y9.948853254107929
G01 X45.23053701147868Y9.877882610539203
G01 X45.190175689842036Y9.810543813584319
G01 X45.14340836269019Y9.747485372669084
G01 X45.090685424949235Y9.689314575050762
G01 X45.03251462733091Y9.636591637309811
G01 X44.969456186415684Y9.589824310157965
G01 X44.925Y9.563178297460938
G01 X44.925Y7.904999999999999
G01 X45.385Y7.904999999999999
G01 X45.385Y6.205
G01 X44.25068542494923Y6.205
G01 X41.66784271247462Y3.622157287525381
G01 X41.63875731366546Y3.595795818654905
G01 X41.60722809320784Y3.5724121550789816
G01 X41.573558694730394Y3.5522314942606577
G01 X41.53807337294604Y3.535448186995485
G01 X41.50111387090178Y3.522223865707116
G01 X41.46303612880645Y3.5126858878387077
G01 X41.424206856131825Y3.506926109331121
G01 X41.385Y3.505
G01 X34.875786Y3.505
G01 X34.83657914386817Y3.506926109331121
G01 X34.797749871193545Y3.5126858878387077
G01 X34.75967212909821Y3.522223865707116
G01 X34.72271262705396Y3.535448186995485
G01 X34.6872273052696Y3.5522314942606577
G01 X34.65355790679216Y3.5724121550789816
G01 X34.62202868633454Y3.595795818654905
G01 X34.59294328752538Y3.622157287525381
G01 X31.83215628752538Y6.382944287525381
G01 X31.805794818654903Y6.412029686334542
G01 X31.78241115507898Y6.443558906792159
G01 X31.762230494260656Y6.477228305269601
G01 X31.745447186995484Y6.512713627053964
G01 X31.732222865707115Y6.549673129098215
G01 X31.722684887838707Y6.587750871193548
G01 X31.716925109331118Y6.626580143868176
G01 X31.714999Y6.665787
G01 X31.714999Y24.459999
G01 X31.716925109331118Y24.499205856131823
G01 X31.722684887838707Y24.538035128806452
G01 X31.732222865707115Y24.576112870901785
G01 X31.745447186995484Y24.613072372946036
G01 X31.762230494260656Y24.6485576947304
G01 X31.78241115507898Y24.682227093207842
G01 X31.805794818654903Y24.713756313665456
G01 X31.83215628752538Y24.74284171247462
G01 X34.7707312621173Y27.681416687066537
G01 X34.735150584360895Y27.756645709543637
G01 X34.69382458033474Y27.872144153431922
G01 X34.664018399495966Y27.99113709747984
G01 X34.64601909165975Y28.11247857458805
G01 X34.64Y28.235
G01 X34.64601909165975Y28.35752142541195
G01 X34.664018399495966Y28.47886290252016
G01 X34.69382458033474Y28.597855846568077
G01 X34.735150584360895Y28.713354290456362
G01 X34.7707312621173Y28.78858331293346
G01 X31.67431457505076Y31.884999999999998
G01 X22.32568542494924Y31.884999999999998
G01 X19.229268737882702Y28.788583312933465
G01 X19.26484941563911Y28.713354290456362
G01 X19.30617541966526Y28.597855846568077
G01 X19.335981600504038Y28.47886290252016
G01 X19.353980908340247Y28.35752142541195
G01 X19.36Y28.235
G01 X19.353980908340247Y28.11247857458805
G01 X19.335981600504038Y27.99113709747984
G01 X19.30617541966526Y27.872144153431922
G01 X19.26484941563911Y27.756645709543637
G01 X19.212401580435444Y27.645754078967503
G01 X19.14933701537818Y27.540537208725496
G01 X19.076263066703422Y27.442008394795444
G01 X18.993883476483184Y27.351116523516815
G01 X18.902991605204555Y27.268736933296577
G01 X18.804462791274503Y27.19566298462182
G01 X18.699245921032496Y27.132598419564555
G01 X18.588354290456362Y27.08015058436089
G01 X18.472855846568077Y27.03882458033474
G01 X18.35386290252016Y27.00901839949596
G01 X18.23252142541195Y26.991019091659755
G01 X18.11Y26.985
G01 X17.98747857458805Y26.99101909165975
G01 X17.86613709747984Y27.00901839949596
G01 X17.747144153431922Y27.038824580334737
G01 X17.631645709543637Y27.08015058436089
G01 X17.520754078967503Y27.132598419564555
G01 X17.415537208725496Y27.19566298462182
G01 X17.317008394795444Y27.268736933296577
G01 X17.226116523516815Y27.351116523516815
G01 X17.143736933296577Y27.442008394795444
G01 X17.07066298462182Y27.540537208725496
G01 X17.007598419564555Y27.645754078967503
G01 X16.95515058436089Y27.756645709543637
G01 X16.91382458033474Y27.872144153431922
G01 X16.88401839949596Y27.99113709747984
G01 X16.866019091659755Y28.11247857458805
G01 X16.86Y28.235
G01 X16.86601909165975Y28.35752142541195
G01 X16.88401839949596Y28.47886290252016
G01 X16.913824580334737Y28.597855846568077
G01 X16.95515058436089Y28.713354290456362
G01 X17.007598419564555Y28.824245921032496
G01 X17.07066298462182Y28.929462791274503
G01 X17.143736933296577Y29.027991605204555
G01 X17.226116523516815Y29.118883476483184
G01 X17.317008394795444Y29.20126306670342
G01 X17.415537208725496Y29.27433701537818
G01 X17.520754078967503Y29.337401580435444
G01 X17.631645709543637Y29.38984941563911
G01 X17.747144153431922Y29.43117541966526
G01 X17.86613709747984Y29.460981600504038
G01 X17.98747857458805Y29.478980908340247
G01 X18.11Y29.485
G01 X18.23252142541195Y29.478980908340247
G01 X18.35386290252016Y29.460981600504038
G01 X18.472855846568077Y29.431175419665262
G01 X18.588354290456362Y29.38984941563911
G01 X18.663583312933465Y29.354268737882702
G01 X21.87715728752538Y32.567842712474615
G01 X21.906242686334544Y32.59420418134509
G01 X21.93777190679216Y32.61758784492101
G01 X21.9714413052696Y32.63776850573934
G01 X22.006926627053964Y32.65455181300451
G01 X22.043886129098215Y32.66777613429288
G01 X22.081963871193548Y32.67731411216129
G01 X22.120793143868177Y32.68307389066887
G01 X22.16Y32.684999999999995
G01 X31.84Y32.684999999999995
G01 X31.879206856131823Y32.68307389066887
G01 X31.918036128806452Y32.67731411216129
G01 X31.956113870901785Y32.66777613429288
G01 X31.993073372946036Y32.65455181300451
G01 X32.0285586947304Y32.63776850573934
G01 X32.06222809320784Y32.61758784492101
G01 X32.093757313665456Y32.59420418134509
G01 X32.12284271247462Y32.567842712474615
G01 X35.33641668706653Y29.354268737882702
G01 X35.411645709543635Y29.38984941563911
G01 X35.52714415343192Y29.43117541966526
G01 X35.64613709747984Y29.460981600504038
G01 X35.76747857458805Y29.478980908340247
G01 X35.89Y29.485
G01 X36.012521425411954Y29.478980908340247
G01 X36.133862902520164Y29.460981600504038
G01 X36.25285584656808Y29.431175419665262
G01 X36.36835429045637Y29.38984941563911
G01 X36.4792459210325Y29.337401580435444
G01 X36.584462791274504Y29.27433701537818
G01 X36.682991605204556Y29.20126306670342
G01 X36.773883476483185Y29.118883476483184
G01 X36.85626306670342Y29.027991605204555
G01 X36.92933701537818Y28.929462791274503
G01 X36.99240158043544Y28.824245921032496
G01 X37.044849415639106Y28.713354290456362
G01 X37.08617541966526Y28.597855846568077
G01 X37.115981600504035Y28.47886290252016
G01 X37.13398090834025Y28.35752142541195
G01 X37.14Y28.235
G01 X37.13398090834025Y28.11247857458805
G01 X37.115981600504035Y27.99113709747984
G01 X37.08617541966526Y27.872144153431922
G01 X37.044849415639106Y27.756645709543637
G01 X36.99240158043544Y27.645754078967503
G01 X36.92933701537818Y27.540537208725496
G01 X36.85626306670342Y27.442008394795444
G01 X36.773883476483185Y27.351116523516815
G01 X36.682991605204556Y27.268736933296577
G01 X36.584462791274504Y27.19566298462182
G01 X36.4792459210325Y27.132598419564555
G01 X36.36835429045636Y27.08015058436089
G01 X36.25285584656808Y27.03882458033474
G01 X36.133862902520164Y27.00901839949596
G01 X36.012521425411954Y26.991019091659755
G01 X35.89Y26.985
G01 X35.76747857458805Y26.99101909165975
G01 X35.64613709747984Y27.00901839949596
G01 X35.52714415343192Y27.038824580334737
G01 X35.41164570954364Y27.08015058436089
G01 X35.33641668706653Y27.115731262117297
G01 X32.514998999999996Y24.29431357505076
G01 X32.514998999999996Y6.831472424949239
G01 X35.041471424949236Y4.305
G01 X41.21931457505076Y4.305
G01 X43.684999999999995Y6.770685424949236
G01 X43.684999999999995Y7.904999999999999
G01 X44.125Y7.904999999999999
G01 X44.125Y9.56317829746094
G01 X44.08054381358432Y9.589824310157965
G01 X44.017485372669086Y9.636591637309811
G01 X43.95931457505076Y9.689314575050762
G01 X43.90659163730981Y9.747485372669084
G01 X43.85982431015796Y9.810543813584319
G01 X43.819462988521316Y9.877882610539203
G01 X43.78589637399097Y9.948853254107929
G01 X43.759447731414234Y10.022772258196431
G01 X43.74037177567742Y10.098927742387097
G01 X43.72885221866224Y10.176586287736352
G01 X43.725Y10.255
G01 X43.72885221866224Y10.33341371226365
G01 X43.74037177567742Y10.411072257612904
G01 X43.75296547028799Y10.461349104762773
G01 X42.35715728752538Y11.857157287525382
G01 X42.330795818654906Y11.886242686334542
G01 X42.307412155078985Y11.91777190679216
G01 X42.28723149426066Y11.9514413052696
G01 X42.27044818699549Y11.986926627053965
G01 X42.25722386570712Y12.023886129098216
G01 X42.247685887838706Y12.06196387119355
G01 X42.241926109331125Y12.100793143868176
G01 X42.24Y12.14
G01 X42.24Y13.899999999999999
G01 X41.84Y13.899999999999999
G01 X41.84Y15.5
G01 X42.24Y15.5
G01 X42.24Y16.6
G01 X42.241926109331125Y16.639206856131825
G01 X42.247685887838706Y16.678036128806454
G01 X42.25722386570712Y16.716113870901786
G01 X42.27044818699549Y16.753073372946037
G01 X42.28723149426066Y16.7885586947304
G01 X42.307412155078985Y16.822228093207844
G01 X42.330795818654906Y16.85375731366546
G01 X42.35715728752538Y16.88284271247462
G01 X43.795Y18.320685424949236
G01 X43.795Y19.255
G01 X45.295Y19.255
G01 X45.295Y17.755
G01 X44.36068542494924Y17.755
G01 X43.04Y16.434314575050763
G01 X43.04Y15.5
G01 X43.44Y15.5
G01 X43.44Y13.899999999999999
G01 X43.04Y13.899999999999999
G01 X43.04Y12.305685424949239
G01 X44.31865089523723Y11.027034529712012
G01 X44.36892774238709Y11.039628224322586
G01 X44.44658628773635Y11.051147781337757
G01 X44.525Y11.055000000000001
G01 X44.603413712263645Y11.051147781337757
G01 X44.681072257612904Y11.039628224322586
G01 X44.73134910476277Y11.027034529712012
G01 X46.14493652759372Y12.440621952542962
G01 X46.12650842073984Y12.479584910871418
G01 X46.09675369784101Y12.562743790470984
G01 X46.07529324763709Y12.648418710185483
G01 X46.06233374599502Y12.735784573703395
G01 X46.058Y12.824
G01 X46.06233374599502Y12.912215426296605
G01 X46.07529324763709Y12.999581289814515
G01 X46.09675369784101Y13.085256209529016
G01 X46.12650842073984Y13.168415089128581
G01 X46.16427086208648Y13.248257063143397
G01 X46.209677348927706Y13.324013209717641
G01 X46.26229059197353Y13.394953955747281
G01 X46.3216038969321Y13.460396103067893
G01 X46.38704604425272Y13.519709408026463
G01 X46.457986790282355Y13.572322651072291
G01 X46.5337429368566Y13.61772913791352
G01 X46.61358491087142Y13.655491579260158
G01 X46.69674379047098Y13.685246302158987
G01 X46.78241871018548Y13.706706752362907
G01 X46.86978457370339Y13.719666254004977
G01 X46.958Y13.724
G01 X47.046215426296605Y13.719666254004977
G01 X47.133581289814515Y13.706706752362907
G01 X47.219256209529014Y13.685246302158987
G01 X47.30241508912858Y13.655491579260158
G01 X47.3822570631434Y13.61772913791352
G01 X47.45801320971764Y13.572322651072291
G01 X47.528953955747276Y13.519709408026463
G01 X47.59439610306789Y13.460396103067893
G01 X47.65370940802646Y13.394953955747281
G01 X47.65370940802646Y13.394953955747281
M5
G01 X16.724589496401688Y16.420427015881693
M3
G01 X16.77418070123307Y16.559025148547633
G01 X16.83711810347747Y16.692095105238995
G01 X16.91279558154618Y16.8183553495294
G01 X17.000484319955895Y16.936589926245468
G01 X17.099339828220177Y17.045660171779822
G01 X17.208410073754532Y17.144515680044105
G01 X17.326644650470598Y17.23220441845382
G01 X17.452904894761005Y17.30788189652253
G01 X17.585974851452363Y17.37081929876693
G01 X17.724572984118307Y17.420410503598312
G01 X17.867364516975808Y17.456177920604844
G01 X18.01297428950566Y17.477777090008296
G01 X18.16Y17.485
G01 X18.30702571049434Y17.477777090008296
G01 X18.452635483024192Y17.456177920604844
G01 X18.595427015881693Y17.420410503598312
G01 X18.734025148547634Y17.37081929876693
G01 X18.867095105238995Y17.30788189652253
G01 X18.993355349529402Y17.23220441845382
G01 X19.11158992624547Y17.144515680044105
G01 X19.22066017177982Y17.045660171779822
G01 X19.319515680044105Y16.936589926245468
G01 X19.40720441845382Y16.8183553495294
G01 X19.48288189652253Y16.692095105238998
G01 X19.54581929876693Y16.559025148547637
G01 X19.595410503598313Y16.420427015881693
G01 X19.631177920604845Y16.27763548302419
G01 X19.652777090008296Y16.13202571049434
G01 X19.66Y15.985
G01 X19.652777090008296Y15.837974289505658
G01 X19.631177920604845Y15.692364516975807
G01 X19.595410503598313Y15.549572984118306
G01 X19.54581929876693Y15.410974851452364
G01 X19.48288189652253Y15.277904894761003
G01 X19.40720441845382Y15.151644650470596
G01 X19.319515680044105Y15.033410073754531
G01 X19.220660171779823Y14.924339828220178
G01 X19.11158992624547Y14.825484319955894
G01 X18.993355349529402Y14.737795581546182
G01 X18.867095105238995Y14.662118103477468
G01 X18.734025148547634Y14.59918070123307
G01 X18.595427015881693Y14.549589496401687
G01 X18.452635483024192Y14.513822079395155
G01 X18.30702571049434Y14.492222909991703
G01 X18.16Y14.485
G01 X18.01297428950566Y14.492222909991703
G01 X17.867364516975808Y14.513822079395155
G01 X17.724572984118307Y14.549589496401687
G01 X17.585974851452367Y14.59918070123307
G01 X17.452904894761005Y14.662118103477466
G01 X17.326644650470598Y14.737795581546182
G01 X17.208410073754532Y14.825484319955894
G01 X17.099339828220177Y14.924339828220178
G01 X17.000484319955895Y15.033410073754531
G01 X16.91279558154618Y15.151644650470596
G01 X16.83711810347747Y15.277904894761003
G01 X16.77418070123307Y15.410974851452364
G01 X16.724589496401688Y15.549572984118306
G01 X16.688822079395155Y15.692364516975806
G01 X16.667222909991704Y15.837974289505658
G01 X16.66Y15.985
G01 X16.667222909991704Y16.13202571049434
G01 X16.688822079395155Y16.27763548302419
G01 X16.724589496401688Y16.420427015881693
G01 X16.724589496401688Y16.420427015881693
M5
G01 X4.674589496401687Y15.599572984118307
M3
G01 X4.638822079395155Y15.742364516975806
G01 X4.617222909991705Y15.887974289505658
G01 X4.61Y16.035
G01 X4.617222909991705Y16.18202571049434
G01 X4.638822079395155Y16.327635483024192
G01 X4.674589496401687Y16.470427015881693
G01 X4.72418070123307Y16.609025148547634
G01 X4.787118103477468Y16.742095105238995
G01 X4.862795581546182Y16.868355349529402
G01 X4.950484319955894Y16.98658992624547
G01 X5.0493398282201785Y17.095660171779823
G01 X5.158410073754531Y17.194515680044105
G01 X5.2766446504705975Y17.28220441845382
G01 X5.402904894761003Y17.35788189652253
G01 X5.535974851452365Y17.42081929876693
G01 X5.674572984118306Y17.470410503598313
G01 X5.8173645169758075Y17.506177920604845
G01 X5.962974289505659Y17.527777090008296
G01 X6.11Y17.535
G01 X6.25702571049434Y17.527777090008296
G01 X6.402635483024193Y17.506177920604845
G01 X6.545427015881693Y17.470410503598313
G01 X6.684025148547636Y17.42081929876693
G01 X6.817095105238996Y17.35788189652253
G01 X6.943355349529403Y17.28220441845382
G01 X7.061589926245468Y17.194515680044105
G01 X7.170660171779821Y17.095660171779823
G01 X7.269515680044105Y16.98658992624547
G01 X7.357204418453819Y16.868355349529402
G01 X7.432881896522533Y16.742095105239
G01 X7.49581929876693Y16.609025148547637
G01 X7.545410503598314Y16.470427015881693
G01 X7.581177920604846Y16.327635483024192
G01 X7.602777090008296Y16.18202571049434
G01 X7.61Y16.035
G01 X7.602777090008296Y15.887974289505658
G01 X7.581177920604846Y15.742364516975808
G01 X7.545410503598314Y15.599572984118307
G01 X7.49581929876693Y15.460974851452365
G01 X7.432881896522533Y15.327904894761003
G01 X7.357204418453819Y15.201644650470596
G01 X7.269515680044106Y15.083410073754532
G01 X7.170660171779822Y14.97433982822018
G01 X7.061589926245468Y14.875484319955895
G01 X6.943355349529404Y14.787795581546183
G01 X6.86Y14.737834307739265
G01 X6.86Y7.945
G01 X8.58Y7.945
G01 X8.58Y4.945
G01 X5.58Y4.945
G01 X5.58Y6.884339828220179
G01 X5.57966991411009Y6.8846699141100896
G01 X5.530242159977948Y6.939205036877266
G01 X5.486397790773092Y6.998322325235298
G01 X5.448559051738734Y7.061452447380502
G01 X5.417090350616535Y7.127987425726182
G01 X5.392294748200843Y7.1972864920591535
G01 X5.374411039697577Y7.268682258487903
G01 X5.363611454995853Y7.341487144752829
G01 X5.36Y7.415
G01 X5.36Y14.737834307739263
G01 X5.2766446504705975Y14.787795581546183
G01 X5.158410073754532Y14.875484319955895
G01 X5.049339828220179Y14.97433982822018
G01 X4.950484319955895Y15.083410073754532
G01 X4.862795581546182Y15.201644650470596
G01 X4.787118103477468Y15.327904894761003
G01 X4.72418070123307Y15.460974851452365
G01 X4.674589496401687Y15.599572984118307
G01 X4.674589496401687Y15.599572984118307
M5
G01 X16.55211810347747Y7.152095105238997
M3
G01 X16.62779558154618Y7.278355349529403
G01 X16.715484319955895Y7.396589926245468
G01 X16.814339828220177Y7.505660171779821
G01 X16.923410073754532Y7.604515680044106
G01 X17.041644650470598Y7.692204418453818
G01 X17.167904894761Y7.767881896522533
G01 X17.300974851452363Y7.83081929876693
G01 X17.439572984118307Y7.880410503598314
G01 X17.582364516975808Y7.916177920604846
G01 X17.72797428950566Y7.937777090008296
G01 X17.875Y7.945
G01 X18.02202571049434Y7.937777090008296
G01 X18.167635483024192Y7.916177920604846
G01 X18.310427015881693Y7.880410503598314
G01 X18.449025148547634Y7.83081929876693
G01 X18.582095105238995Y7.767881896522533
G01 X18.708355349529402Y7.6922044184538185
G01 X18.826589926245468Y7.604515680044106
G01 X18.935660171779823Y7.505660171779821
G01 X19.034515680044105Y7.396589926245469
G01 X19.12220441845382Y7.278355349529404
G01 X19.19788189652253Y7.152095105238997
G01 X19.26081929876693Y7.019025148547636
G01 X19.310410503598312Y6.880427015881694
G01 X19.346177920604845Y6.737635483024193
G01 X19.367777090008296Y6.592025710494341
G01 X19.375Y6.445
G01 X19.367777090008296Y6.297974289505659
G01 X19.346177920604845Y6.152364516975808
G01 X19.310410503598312Y6.009572984118307
G01 X19.26081929876693Y5.870974851452366
G01 X19.19788189652253Y5.737904894761003
G01 X19.12220441845382Y5.611644650470597
G01 X19.034515680044105Y5.493410073754532
G01 X18.935660171779823Y5.384339828220179
G01 X18.826589926245468Y5.285484319955895
G01 X18.708355349529402Y5.197795581546183
G01 X18.582095105238995Y5.122118103477468
G01 X18.449025148547634Y5.05918070123307
G01 X18.310427015881693Y5.009589496401687
G01 X18.167635483024192Y4.973822079395155
G01 X18.02202571049434Y4.952222909991705
G01 X17.875Y4.945
G01 X17.72797428950566Y4.952222909991705
G01 X17.582364516975808Y4.973822079395155
G01 X17.488095428569803Y4.997435256789981
G01 X15.955330085889912Y3.4646699141100896
G01 X15.900794963122735Y3.4152421599779474
G01 X15.841677674764702Y3.371397790773091
G01 X15.778547552619498Y3.333559051738734
G01 X15.712012574273817Y3.302090350616535
G01 X15.642713507940847Y3.2772947482008434
G01 X15.571317741512097Y3.2594110396975773
G01 X15.49851285524717Y3.2486114549958525
G01 X15.425Y3.245
G01 X5.085Y3.245
G01 X5.011487144752829Y3.2486114549958525
G01 X4.975084701620366Y3.254011247346715
G01 X4.938682258487903Y3.2594110396975773
G01 X4.867286492059153Y3.2772947482008434
G01 X4.797987425726182Y3.302090350616535
G01 X4.7314524473805015Y3.333559051738734
G01 X4.668322325235298Y3.371397790773091
G01 X4.609205036877266Y3.4152421599779474
G01 X4.5546699141100895Y3.4646699141100896
G01 X3.1296699141100897Y4.889669914110089
G01 X3.0802421599779475Y4.944205036877266
G01 X3.036397790773091Y5.003322325235298
G01 X2.998559051738734Y5.0664524473805015
G01 X2.967090350616535Y5.132987425726182
G01 X2.9422947482008435Y5.202286492059153
G01 X2.9244110396975773Y5.273682258487903
G01 X2.9136114549958525Y5.346487144752829
G01 X2.91Y5.42
G01 X2.91Y21.685
G01 X2.9136114549958525Y21.75851285524717
G01 X2.9244110396975773Y21.831317741512095
G01 X2.9422947482008435Y21.902713507940845
G01 X2.967090350616535Y21.972012574273815
G01 X2.998559051738734Y22.038547552619498
G01 X3.036397790773091Y22.1016776747647
G01 X3.0802421599779475Y22.160794963122733
G01 X3.1296699141100897Y22.21533008588991
G01 X10.71243525678998Y29.798095428569802
G01 X10.688822079395155Y29.892364516975807
G01 X10.667222909991704Y30.03797428950566
G01 X10.66Y30.185
G01 X10.667222909991704Y30.33202571049434
G01 X10.688822079395155Y30.47763548302419
G01 X10.724589496401688Y30.620427015881692
G01 X10.77418070123307Y30.759025148547632
G01 X10.837118103477467Y30.892095105238994
G01 X10.912795581546181Y31.0183553495294
G01 X11.000484319955895Y31.136589926245467
G01 X11.09933982822018Y31.24566017177982
G01 X11.208410073754532Y31.344515680044104
G01 X11.326644650470596Y31.432204418453818
G01 X11.452904894761003Y31.50788189652253
G01 X11.585974851452365Y31.570819298766928
G01 X11.724572984118307Y31.62041050359831
G01 X11.867364516975806Y31.656177920604843
G01 X12.01297428950566Y31.677777090008295
G01 X12.16Y31.685
G01 X12.30702571049434Y31.677777090008295
G01 X12.452635483024192Y31.656177920604843
G01 X12.595427015881693Y31.62041050359831
G01 X12.734025148547635Y31.570819298766928
G01 X12.867095105238997Y31.50788189652253
G01 X12.993355349529402Y31.432204418453818
G01 X13.111589926245468Y31.344515680044104
G01 X13.220660171779821Y31.24566017177982
G01 X13.319515680044105Y31.136589926245467
G01 X13.407204418453817Y31.0183553495294
G01 X13.482881896522532Y30.892095105238997
G01 X13.54581929876693Y30.759025148547636
G01 X13.595410503598313Y30.620427015881692
G01 X13.631177920604845Y30.47763548302419
G01 X13.652777090008296Y30.33202571049434
G01 X13.66Y30.185
G01 X13.652777090008296Y30.03797428950566
G01 X13.631177920604845Y29.892364516975807
G01 X13.595410503598313Y29.749572984118306
G01 X13.54581929876693Y29.610974851452365
G01 X13.482881896522533Y29.477904894761004
G01 X13.407204418453817Y29.351644650470597
G01 X13.319515680044105Y29.23341007375453
G01 X13.220660171779821Y29.124339828220176
G01 X13.111589926245468Y29.025484319955893
G01 X12.993355349529404Y28.93779558154618
G01 X12.867095105238997Y28.862118103477467
G01 X12.734025148547635Y28.79918070123307
G01 X12.595427015881693Y28.749589496401686
G01 X12.452635483024192Y28.713822079395154
G01 X12.307025710494342Y28.692222909991703
G01 X12.16Y28.685
G01 X12.012974289505658Y28.692222909991703
G01 X11.867364516975808Y28.713822079395154
G01 X11.773095428569803Y28.73743525678998
G01 X4.41Y21.374339828220176
G01 X4.41Y5.730660171779821
G01 X5.395660171779821Y4.745
G01 X15.114339828220178Y4.745
G01 X16.42743525678998Y6.0580954285698025
G01 X16.403822079395155Y6.152364516975807
G01 X16.382222909991704Y6.297974289505659
G01 X16.375Y6.445
G01 X16.382222909991704Y6.592025710494341
G01 X16.403822079395155Y6.737635483024193
G01 X16.439589496401688Y6.880427015881693
G01 X16.48918070123307Y7.019025148547635
G01 X16.55211810347747Y7.152095105238997
G01 X16.55211810347747Y7.152095105238997
M5
G01 X41.56236752581408Y28.674169511984562
M3
G01 X41.52419293987706Y28.70876893987706
G01 X41.48959351198456Y28.746943525814086
G01 X41.458902453541164Y28.788325627664708
G01 X41.43241533621711Y28.83251671316635
G01 X41.41038724543157Y28.879091198008325
G01 X41.39303032374059Y28.927600544441404
G01 X41.3805117277883Y28.97757758094153
G01 X41.372952018497095Y29.02854100132698
G01 X41.370424Y29.53
G01 X41.372952018497095Y29.58145899867302
G01 X41.3805117277883Y29.632422419058468
G01 X41.39303032374059Y29.682399455558595
G01 X41.41038724543157Y29.730908801991674
G01 X41.43241533621711Y29.77748328683365
G01 X41.458902453541164Y29.82167437233529
G01 X41.48959351198456Y29.863056474185914
G01 X41.52419293987706Y29.90123106012294
G01 X41.56236752581408Y29.935830488015437
G01 X41.603749627664705Y29.966521546458836
G01 X41.64794071316635Y29.993008663782888
G01 X41.694515198008325Y30.015036754568428
G01 X41.743024544441404Y30.03239367625941
G01 X41.79300158094153Y30.044912272211697
G01 X41.84396500132698Y30.052471981502904
G01 X41.895424Y30.055
G01 X41.94688299867302Y30.052471981502904
G01 X41.99784641905847Y30.044912272211697
G01 X42.04782345555859Y30.03239367625941
G01 X42.09633280199167Y30.015036754568428
G01 X42.14290728683365Y29.993008663782888
G01 X42.18709837233529Y29.96652154645884
G01 X42.228480474185915Y29.935830488015437
G01 X42.266655060122936Y29.90123106012294
G01 X42.30125448801544Y29.863056474185914
G01 X42.33194554645883Y29.82167437233529
G01 X42.358432663782885Y29.77748328683365
G01 X42.380460754568425Y29.730908801991674
G01 X42.39781767625941Y29.682399455558595
G01 X42.410336272211694Y29.632422419058468
G01 X42.4178959815029Y29.58145899867302
G01 X42.420424Y29.08
G01 X42.4178959815029Y29.02854100132698
G01 X42.410336272211694Y28.97757758094153
G01 X42.405Y28.95627398810134
G01 X42.405Y26.821821702539058
G01 X42.44945618641568Y26.795175689842036
G01 X42.512514627330916Y26.74840836269019
G01 X42.57068542494924Y26.695685424949236
G01 X42.62340836269019Y26.637514627330916
G01 X42.67017568984204Y26.57445618641568
G01 X42.710537011478685Y26.5071173894608
G01 X42.74410362600903Y26.43614674589207
G01 X42.77055226858577Y26.36222774180357
G01 X42.789628224322584Y26.2860722576129
G01 X42.80114778133776Y26.20841371226365
G01 X42.805Y26.13
G01 X42.80114778133776Y26.05158628773635
G01 X42.789628224322584Y25.973927742387097
G01 X42.77055226858577Y25.89777225819643
G01 X42.74410362600903Y25.823853254107927
G01 X42.710537011478685Y25.7528826105392
G01 X42.67017568984204Y25.685543813584317
G01 X42.62340836269019Y25.622485372669082
G01 X42.57068542494924Y25.564314575050762
G01 X42.512514627330916Y25.51159163730981
G01 X42.44945618641569Y25.46482431015796
G01 X42.3821173894608Y25.424462988521316
G01 X42.311146745892074Y25.39089637399097
G01 X42.23722774180357Y25.36444773141423
G01 X42.16107225761291Y25.345371775677414
G01 X42.08341371226365Y25.33385221866224
G01 X42.005Y25.33
G01 X41.926586287736356Y25.33385221866224
G01 X41.8489277423871Y25.345371775677414
G01 X41.79865089523723Y25.357965470287986
G01 X39.865Y23.42431457505076
G01 X39.865Y19.20182170253906
G01 X39.90945618641568Y19.17517568984204
G01 X39.972514627330916Y19.12840836269019
G01 X40.03068542494924Y19.07568542494924
G01 X40.08340836269019Y19.017514627330918
G01 X40.13017568984204Y18.954456186415683
G01 X40.170537011478686Y18.8871173894608
G01 X40.20410362600903Y18.816146745892073
G01 X40.23055226858577Y18.74222774180357
G01 X40.249628224322585Y18.666072257612903
G01 X40.26114778133776Y18.58841371226365
G01 X40.265Y18.51
G01 X40.26114778133776Y18.43158628773635
G01 X40.249628224322585Y18.3539277423871
G01 X40.23055226858577Y18.277772258196432
G01 X40.20410362600903Y18.20385325410793
G01 X40.170537011478686Y18.132882610539202
G01 X40.13017568984204Y18.06554381358432
G01 X40.08340836269019Y18.002485372669085
G01 X40.03068542494924Y17.944314575050765
G01 X39.972514627330916Y17.891591637309812
G01 X39.90945618641569Y17.844824310157964
G01 X39.8421173894608Y17.80446298852132
G01 X39.771146745892075Y17.770896373990972
G01 X39.69722774180357Y17.744447731414233
G01 X39.62107225761291Y17.725371775677417
G01 X39.54341371226365Y17.713852218662243
G01 X39.465Y17.71
G01 X39.38658628773636Y17.713852218662243
G01 X39.3089277423871Y17.725371775677417
G01 X39.232772258196434Y17.744447731414233
G01 X39.15885325410793Y17.770896373990972
G01 X39.087882610539204Y17.80446298852132
G01 X39.020543813584325Y17.844824310157964
G01 X38.95748537266909Y17.891591637309812
G01 X38.89931457505077Y17.944314575050765
G01 X38.846591637309814Y18.002485372669085
G01 X38.799824310157966Y18.06554381358432
G01 X38.75946298852132Y18.132882610539202
G01 X38.72589637399098Y18.20385325410793
G01 X38.69944773141424Y18.277772258196432
G01 X38.68037177567742Y18.3539277423871
G01 X38.668852218662245Y18.43158628773635
G01 X38.665000000000006Y18.51
G01 X38.668852218662245Y18.58841371226365
G01 X38.68037177567742Y18.666072257612903
G01 X38.69944773141424Y18.74222774180357
G01 X38.72589637399098Y18.816146745892073
G01 X38.75946298852132Y18.8871173894608
G01 X38.799824310157966Y18.954456186415683
G01 X38.846591637309814Y19.017514627330918
G01 X38.89931457505077Y19.07568542494924
G01 X38.95748537266908Y19.12840836269019
G01 X39.020543813584325Y19.17517568984204
G01 X39.065000000000005Y19.20182170253906
G01 X39.065000000000005Y23.59
G01 X39.06692610933113Y23.629206856131823
G01 X39.07268588783871Y23.668036128806452
G01 X39.08222386570712Y23.706113870901785
G01 X39.09544818699549Y23.743073372946036
G01 X39.11223149426066Y23.7785586947304
G01 X39.13241215507899Y23.812228093207843
G01 X39.15579581865491Y23.843757313665456
G01 X39.182157287525385Y23.87284271247462
G01 X41.23296547028799Y25.923650895237227
G01 X41.22037177567742Y25.973927742387097
G01 X41.208852218662244Y26.05158628773635
G01 X41.205000000000005Y26.13
G01 X41.208852218662244Y26.20841371226365
G01 X41.22037177567742Y26.2860722576129
G01 X41.23944773141424Y26.36222774180357
G01 X41.26589637399097Y26.43614674589207
G01 X41.29946298852132Y26.5071173894608
G01 X41.339824310157965Y26.57445618641568
G01 X41.38659163730981Y26.637514627330916
G01 X41.439314575050766Y26.695685424949236
G01 X41.49748537266908Y26.74840836269019
G01 X41.56054381358432Y26.795175689842036
G01 X41.605000000000004Y26.82182170253906
G01 X41.605000000000004Y28.64272900920487
G01 X41.603749627664705Y28.643478453541164
G01 X41.56236752581408Y28.674169511984562
G01 X41.56236752581408Y28.674169511984562
M5
G01 X40.265Y26.13
M3
G01 X40.26114778133776Y26.05158628773635
G01 X40.249628224322585Y25.973927742387097
G01 X40.23055226858577Y25.89777225819643
G01 X40.20410362600903Y25.823853254107927
G01 X40.170537011478686Y25.7528826105392
G01 X40.13017568984204Y25.685543813584317
G01 X40.08340836269019Y25.622485372669082
G01 X40.03068542494924Y25.564314575050762
G01 X39.972514627330916Y25.51159163730981
G01 X39.90945618641569Y25.46482431015796
G01 X39.8421173894608Y25.424462988521316
G01 X39.771146745892075Y25.39089637399097
G01 X39.69722774180357Y25.36444773141423
G01 X39.62107225761291Y25.345371775677414
G01 X39.54341371226365Y25.33385221866224
G01 X39.465Y25.33
G01 X39.38658628773636Y25.33385221866224
G01 X39.3089277423871Y25.345371775677414
G01 X39.232772258196434Y25.36444773141423
G01 X39.15885325410793Y25.39089637399097
G01 X39.087882610539204Y25.424462988521316
G01 X39.020543813584325Y25.46482431015796
G01 X38.95748537266909Y25.51159163730981
G01 X38.89931457505077Y25.564314575050762
G01 X38.846591637309814Y25.622485372669082
G01 X38.799824310157966Y25.685543813584317
G01 X38.773178297460944Y25.73
G01 X38.36068542494924Y25.73
G01 X33.515Y20.884314575050762
G01 X33.515Y7.245685424949239
G01 X35.18568542494924Y5.575
G01 X37.409314575050765Y5.575
G01 X38.641856823377935Y6.8075422483271755
G01 X38.64160071462762Y6.808258024333707
G01 X38.62133251165725Y6.889173226286291
G01 X38.60909298232863Y6.971685430719873
G01 X38.605Y7.055
G01 X38.60909298232863Y7.138314569280126
G01 X38.62133251165725Y7.220826773713709
G01 X38.64160071462762Y7.3017419756662925
G01 X38.669702397365405Y7.380280917510326
G01 X38.7053669253039Y7.455687226302098
G01 X38.74825082954283Y7.527234698066661
G01 X38.797941114641674Y7.594234291539098
G01 X38.85395923599143Y7.656040764008565
G01 X38.9157657084609Y7.712058885358326
G01 X38.982765301933334Y7.761749170457163
G01 X39.0543127736979Y7.804633074696102
G01 X39.12971908248967Y7.840297602634593
G01 X39.2082580243337Y7.868399285372377
G01 X39.28917322628629Y7.888667488342746
G01 X39.37168543071987Y7.900907017671367
G01 X39.455Y7.904999999999999
G01 X39.538314569280125Y7.900907017671367
G01 X39.62082677371371Y7.888667488342746
G01 X39.701741975666295Y7.868399285372377
G01 X39.780280917510325Y7.840297602634593
G01 X39.855687226302095Y7.804633074696102
G01 X39.92723469806666Y7.761749170457163
G01 X39.994234291539094Y7.712058885358326
G01 X40.056040764008564Y7.656040764008566
G01 X40.11205888535832Y7.594234291539099
G01 X40.16174917045716Y7.527234698066661
G01 X40.2046330746961Y7.455687226302098
G01 X40.20495810853006Y7.455
G01 X41.24504189146994Y7.455
G01 X41.2453669253039Y7.455687226302098
G01 X41.28825082954283Y7.527234698066661
G01 X41.33794111464167Y7.594234291539098
G01 X41.39395923599143Y7.656040764008565
G01 X41.4557657084609Y7.712058885358326
G01 X41.52276530193333Y7.761749170457163
G01 X41.5943127736979Y7.804633074696102
G01 X41.595Y7.804958108530061
G01 X41.595Y9.5811596054714
G01 X41.58054381358432Y9.589824310157965
G01 X41.517485372669086Y9.636591637309811
G01 X41.45931457505076Y9.689314575050762
G01 X41.40659163730981Y9.747485372669084
G01 X41.35982431015796Y9.810543813584319
G01 X41.319462988521316Y9.877882610539203
G01 X41.28589637399097Y9.948853254107929
G01 X41.259447731414234Y10.022772258196431
G01 X41.24037177567742Y10.098927742387097
G01 X41.22885221866224Y10.176586287736352
G01 X41.225Y10.255
G01 X41.22885221866224Y10.33341371226365
G01 X41.24037177567742Y10.411072257612904
G01 X41.25296547028799Y10.461349104762773
G01 X40.35715728752538Y11.357157287525382
G01 X40.330795818654906Y11.386242686334542
G01 X40.307412155078985Y11.41777190679216
G01 X40.28723149426066Y11.4514413052696
G01 X40.27044818699549Y11.486926627053965
G01 X40.25722386570712Y11.523886129098216
G01 X40.247685887838706Y11.56196387119355
G01 X40.241926109331125Y11.600793143868176
G01 X40.24Y11.64
G01 X40.24Y14.008178297460939
G01 X40.19554381358432Y14.034824310157964
G01 X40.13248537266909Y14.08159163730981
G01 X40.074314575050764Y14.13431457505076
G01 X40.02159163730981Y14.192485372669083
G01 X39.97482431015796Y14.255543813584318
G01 X39.93446298852132Y14.322882610539201
G01 X39.900896373990975Y14.393853254107928
G01 X39.874447731414236Y14.46777225819643
G01 X39.85537177567742Y14.543927742387096
G01 X39.84385221866224Y14.621586287736351
G01 X39.84Y14.7
G01 X39.84385221866224Y14.778413712263648
G01 X39.85537177567742Y14.856072257612903
G01 X39.874447731414236Y14.932227741803569
G01 X39.900896373990975Y15.006146745892071
G01 X39.93446298852132Y15.077117389460797
G01 X39.97482431015796Y15.144456186415681
G01 X40.02159163730981Y15.207514627330916
G01 X40.074314575050764Y15.265685424949238
G01 X40.13248537266908Y15.318408362690189
G01 X40.19554381358432Y15.365175689842035
G01 X40.2628826105392Y15.405537011478684
G01 X40.33385325410793Y15.439103626009029
G01 X40.40777225819643Y15.465552268585766
G01 X40.483927742387095Y15.484628224322584
G01 X40.561586287736354Y15.496147781337758
G01 X40.64Y15.5
G01 X40.71841371226365Y15.496147781337758
G01 X40.796072257612906Y15.484628224322584
G01 X40.87222774180357Y15.465552268585766
G01 X40.94614674589207Y15.439103626009029
G01 X41.0171173894608Y15.405537011478684
G01 X41.08445618641568Y15.365175689842037
G01 X41.147514627330914Y15.318408362690189
G01 X41.20568542494924Y15.265685424949238
G01 X41.25840836269019Y15.207514627330916
G01 X41.30517568984204Y15.144456186415681
G01 X41.34553701147868Y15.077117389460797
G01 X41.37910362600903Y15.006146745892071
G01 X41.405552268585765Y14.932227741803569
G01 X41.42462822432258Y14.856072257612903
G01 X41.43614778133776Y14.778413712263648
G01 X41.44Y14.7
G01 X41.43614778133776Y14.621586287736351
G01 X41.42462822432258Y14.543927742387096
G01 X41.405552268585765Y14.46777225819643
G01 X41.37910362600903Y14.393853254107928
G01 X41.34553701147868Y14.322882610539201
G01 X41.30517568984204Y14.255543813584318
G01 X41.25840836269019Y14.192485372669083
G01 X41.20568542494924Y14.13431457505076
G01 X41.147514627330914Y14.08159163730981
G01 X41.084456186415686Y14.034824310157964
G01 X41.04Y14.008178297460937
G01 X41.04Y11.805685424949239
G01 X41.81865089523723Y11.027034529712012
G01 X41.86892774238709Y11.039628224322586
G01 X41.94658628773635Y11.051147781337757
G01 X42.025Y11.055000000000001
G01 X42.103413712263645Y11.051147781337757
G01 X42.181072257612904Y11.039628224322586
G01 X42.25722774180357Y11.020552268585767
G01 X42.33114674589207Y10.99410362600903
G01 X42.4021173894608Y10.960537011478685
G01 X42.46945618641568Y10.920175689842036
G01 X42.53251462733091Y10.87340836269019
G01 X42.590685424949235Y10.82068542494924
G01 X42.64340836269019Y10.762514627330917
G01 X42.690175689842036Y10.699456186415683
G01 X42.73053701147868Y10.632117389460799
G01 X42.764103626009025Y10.561146745892072
G01 X42.79055226858576Y10.48722774180357
G01 X42.80962822432258Y10.411072257612904
G01 X42.82114778133776Y10.33341371226365
G01 X42.824999999999996Y10.255
G01 X42.82114778133776Y10.176586287736352
G01 X42.80962822432258Y10.098927742387097
G01 X42.79055226858576Y10.022772258196431
G01 X42.764103626009025Y9.948853254107929
G01 X42.73053701147868Y9.877882610539203
G01 X42.690175689842036Y9.810543813584319
G01 X42.64340836269019Y9.747485372669084
G01 X42.590685424949235Y9.689314575050762
G01 X42.53251462733091Y9.636591637309811
G01 X42.469456186415684Y9.589824310157965
G01 X42.4021173894608Y9.549462988521316
G01 X42.394999999999996Y9.546096714010057
G01 X42.394999999999996Y7.804958108530061
G01 X42.395687226302094Y7.804633074696102
G01 X42.46723469806666Y7.761749170457163
G01 X42.53423429153909Y7.712058885358326
G01 X42.59604076400856Y7.656040764008566
G01 X42.65205888535832Y7.594234291539099
G01 X42.70174917045716Y7.527234698066661
G01 X42.7446330746961Y7.455687226302098
G01 X42.78029760263459Y7.380280917510326
G01 X42.808399285372374Y7.3017419756662925
G01 X42.828667488342745Y7.220826773713709
G01 X42.84090701767136Y7.138314569280126
G01 X42.845Y7.055
G01 X42.84090701767136Y6.971685430719873
G01 X42.828667488342745Y6.889173226286291
G01 X42.808399285372374Y6.808258024333707
G01 X42.78029760263459Y6.729719082489673
G01 X42.7446330746961Y6.654312773697901
G01 X42.70174917045716Y6.582765301933338
G01 X42.65205888535832Y6.515765708460901
G01 X42.59604076400856Y6.453959235991435
G01 X42.53423429153909Y6.397941114641673
G01 X42.46723469806666Y6.348250829542836
G01 X42.395687226302094Y6.305366925303898
G01 X42.320280917510324Y6.269702397365406
G01 X42.241741975666294Y6.241600714627622
G01 X42.16082677371371Y6.221332511657254
G01 X42.078314569280124Y6.209092982328633
G01 X41.995Y6.205
G01 X41.91168543071987Y6.209092982328633
G01 X41.82917322628629Y6.221332511657254
G01 X41.7482580243337Y6.241600714627622
G01 X41.66971908248967Y6.269702397365406
G01 X41.5943127736979Y6.305366925303898
G01 X41.52276530193333Y6.348250829542836
G01 X41.4557657084609Y6.397941114641673
G01 X41.39395923599143Y6.453959235991435
G01 X41.33794111464167Y6.515765708460901
G01 X41.28825082954283Y6.582765301933338
G01 X41.2453669253039Y6.654312773697901
G01 X41.24504189146994Y6.654999999999999
G01 X40.20495810853006Y6.654999999999999
G01 X40.2046330746961Y6.654312773697901
G01 X40.16174917045716Y6.582765301933338
G01 X40.11205888535832Y6.515765708460901
G01 X40.056040764008564Y6.453959235991435
G01 X39.994234291539094Y6.397941114641673
G01 X39.92723469806666Y6.348250829542836
G01 X39.855687226302095Y6.305366925303898
G01 X39.780280917510325Y6.269702397365406
G01 X39.701741975666295Y6.241600714627622
G01 X39.62082677371371Y6.221332511657254
G01 X39.538314569280125Y6.209092982328633
G01 X39.455Y6.205
G01 X39.37168543071987Y6.209092982328633
G01 X39.28917322628629Y6.221332511657254
G01 X39.2082580243337Y6.241600714627622
G01 X39.20754224832717Y6.241856823377938
G01 X37.85784271247463Y4.89215728752539
G01 X37.85784271247462Y4.8921572875253805
G01 X37.82875731366546Y4.865795818654905
G01 X37.79722809320784Y4.842412155078982
G01 X37.7635586947304Y4.822231494260658
G01 X37.72807337294604Y4.805448186995485
G01 X37.69111387090179Y4.792223865707117
G01 X37.653036128806455Y4.782685887838707
G01 X37.61420685613183Y4.7769261093311215
G01 X37.575Y4.7749999999999995
G01 X35.02Y4.7749999999999995
G01 X34.980793143868176Y4.7769261093311215
G01 X34.94196387119355Y4.782685887838707
G01 X34.90388612909822Y4.792223865707117
G01 X34.866926627053964Y4.805448186995485
G01 X34.83144130526961Y4.822231494260658
G01 X34.797771906792164Y4.842412155078982
G01 X34.76624268633454Y4.865795818654905
G01 X34.737157287525385Y4.8921572875253805
G01 X32.83215728752538Y6.797157287525381
G01 X32.80579581865491Y6.826242686334542
G01 X32.78241215507899Y6.857771906792159
G01 X32.76223149426066Y6.891441305269601
G01 X32.74544818699549Y6.926926627053964
G01 X32.73222386570712Y6.963886129098215
G01 X32.72268588783871Y7.001963871193548
G01 X32.716926109331126Y7.040793143868176
G01 X32.715Y7.08
G01 X32.715Y21.05
G01 X32.716926109331126Y21.089206856131824
G01 X32.72268588783871Y21.128036128806453
G01 X32.73222386570712Y21.166113870901786
G01 X32.74544818699549Y21.203073372946037
G01 X32.76223149426066Y21.2385586947304
G01 X32.78241215507899Y21.272228093207843
G01 X32.80579581865491Y21.303757313665457
G01 X32.83215728752538Y21.33284271247462
G01 X37.91215728752538Y26.412842712474617
G01 X37.94124268633454Y26.439204181345094
G01 X37.97277190679216Y26.462587844921018
G01 X38.006441305269604Y26.48276850573934
G01 X38.04192662705396Y26.499551813004512
G01 X38.078886129098215Y26.51277613429288
G01 X38.11696387119355Y26.52231411216129
G01 X38.15579314386817Y26.528073890668878
G01 X38.195Y26.529999999999998
G01 X38.773178297460944Y26.529999999999998
G01 X38.799824310157966Y26.57445618641568
G01 X38.846591637309814Y26.637514627330916
G01 X38.89931457505077Y26.695685424949236
G01 X38.95748537266908Y26.74840836269019
G01 X39.020543813584325Y26.795175689842036
G01 X39.065000000000005Y26.821821702539058
G01 X39.065000000000005Y28.144576
G01 X39.06692610933113Y28.183782856131824
G01 X39.07268588783871Y28.222612128806453
G01 X39.08222386570712Y28.260689870901786
G01 X39.09544818699549Y28.297649372946037
G01 X39.11223149426066Y28.3331346947304
G01 X39.13241215507899Y28.36680409320784
G01 X39.15579581865491Y28.398333313665457
G01 X39.182157287525385Y28.42741871247462
G01 X40.100424000000004Y29.345685424949238
G01 X40.100424000000004Y30.055
G01 X41.150424Y30.055
G01 X41.150424Y28.555
G01 X40.44110942494924Y28.555
G01 X39.865Y27.978890575050762
G01 X39.865Y26.821821702539058
G01 X39.90945618641568Y26.795175689842036
G01 X39.972514627330916Y26.74840836269019
G01 X40.03068542494924Y26.695685424949236
G01 X40.08340836269019Y26.637514627330916
G01 X40.13017568984204Y26.57445618641568
G01 X40.170537011478686Y26.5071173894608
G01 X40.20410362600903Y26.43614674589207
G01 X40.23055226858577Y26.36222774180357
G01 X40.249628224322585Y26.2860722576129
G01 X40.26114778133776Y26.20841371226365
G01 X40.265Y26.13
G01 X40.265Y26.13
M5
G01 X37.240280917510326Y6.269702397365406
M3
G01 X37.161741975666295Y6.241600714627622
G01 X37.08082677371371Y6.221332511657254
G01 X36.998314569280126Y6.209092982328633
G01 X36.915Y6.205
G01 X36.83168543071987Y6.209092982328633
G01 X36.74917322628629Y6.221332511657254
G01 X36.6682580243337Y6.241600714627622
G01 X36.58971908248967Y6.269702397365406
G01 X36.5143127736979Y6.305366925303898
G01 X36.442765301933335Y6.348250829542836
G01 X36.375765708460904Y6.397941114641673
G01 X36.31395923599143Y6.453959235991435
G01 X36.257941114641675Y6.515765708460901
G01 X36.208250829542834Y6.582765301933338
G01 X36.1653669253039Y6.654312773697901
G01 X36.129702397365406Y6.729719082489673
G01 X36.10160071462762Y6.808258024333707
G01 X36.08133251165725Y6.889173226286291
G01 X36.069092982328634Y6.971685430719873
G01 X36.065Y7.055
G01 X36.069092982328634Y7.138314569280126
G01 X36.08133251165725Y7.220826773713709
G01 X36.10160071462762Y7.3017419756662925
G01 X36.129702397365406Y7.380280917510326
G01 X36.1653669253039Y7.455687226302098
G01 X36.208250829542834Y7.527234698066661
G01 X36.257941114641675Y7.594234291539098
G01 X36.31395923599143Y7.656040764008565
G01 X36.375765708460904Y7.712058885358326
G01 X36.442765301933335Y7.761749170457163
G01 X36.5143127736979Y7.804633074696102
G01 X36.515Y7.804958108530061
G01 X36.515Y8.975
G01 X36.51692610933112Y9.014206856131825
G01 X36.522685887838705Y9.05303612880645
G01 X36.53222386570712Y9.091113870901784
G01 X36.545448186995486Y9.128073372946035
G01 X36.56223149426066Y9.1635586947304
G01 X36.582412155078984Y9.19722809320784
G01 X36.605795818654904Y9.228757313665458
G01 X36.63215728752538Y9.257842712474618
G01 X38.43Y11.055685424949239
G01 X38.43Y15.335
G01 X38.43192610933112Y15.374206856131826
G01 X38.437685887838704Y15.413036128806452
G01 X38.447223865707116Y15.451113870901786
G01 X38.460448186995485Y15.488073372946037
G01 X38.47723149426066Y15.5235586947304
G01 X38.49741215507898Y15.557228093207842
G01 X38.5207958186549Y15.58875731366546
G01 X38.54715728752538Y15.61784271247462
G01 X41.23296547028799Y18.30365089523723
G01 X41.22037177567742Y18.3539277423871
G01 X41.208852218662244Y18.43158628773635
G01 X41.205000000000005Y18.51
G01 X41.208852218662244Y18.58841371226365
G01 X41.22037177567742Y18.666072257612903
G01 X41.23944773141424Y18.74222774180357
G01 X41.26589637399097Y18.816146745892073
G01 X41.29946298852132Y18.8871173894608
G01 X41.339824310157965Y18.954456186415683
G01 X41.38659163730981Y19.017514627330918
G01 X41.439314575050766Y19.07568542494924
G01 X41.49748537266908Y19.12840836269019
G01 X41.56054381358432Y19.17517568984204
G01 X41.6278826105392Y19.215537011478684
G01 X41.69885325410793Y19.24910362600903
G01 X41.77277225819643Y19.27555226858577
G01 X41.8489277423871Y19.294628224322587
G01 X41.926586287736356Y19.30614778133776
G01 X42.005Y19.310000000000002
G01 X42.08341371226365Y19.30614778133776
G01 X42.16107225761291Y19.294628224322587
G01 X42.23722774180357Y19.27555226858577
G01 X42.311146745892074Y19.24910362600903
G01 X42.3821173894608Y19.215537011478684
G01 X42.44945618641568Y19.17517568984204
G01 X42.512514627330916Y19.12840836269019
G01 X42.57068542494924Y19.07568542494924
G01 X42.62340836269019Y19.017514627330918
G01 X42.67017568984204Y18.954456186415683
G01 X42.710537011478685Y18.8871173894608
G01 X42.74410362600903Y18.816146745892073
G01 X42.77055226858577Y18.74222774180357
G01 X42.789628224322584Y18.666072257612903
G01 X42.80114778133776Y18.58841371226365
G01 X42.805Y18.51
G01 X42.80114778133776Y18.43158628773635
G01 X42.789628224322584Y18.3539277423871
G01 X42.77055226858577Y18.277772258196432
G01 X42.74410362600903Y18.20385325410793
G01 X42.710537011478685Y18.132882610539202
G01 X42.67017568984204Y18.06554381358432
G01 X42.62340836269019Y18.002485372669085
G01 X42.57068542494924Y17.944314575050765
G01 X42.512514627330916Y17.891591637309812
G01 X42.44945618641569Y17.844824310157964
G01 X42.3821173894608Y17.80446298852132
G01 X42.311146745892074Y17.770896373990972
G01 X42.23722774180357Y17.744447731414233
G01 X42.16107225761291Y17.725371775677417
G01 X42.08341371226365Y17.713852218662243
G01 X42.005Y17.71
G01 X41.926586287736356Y17.713852218662243
G01 X41.8489277423871Y17.725371775677417
G01 X41.79865089523723Y17.73796547028799
G01 X39.23Y15.169314575050763
G01 X39.23Y10.89
G01 X39.228073890668874Y10.850793143868176
G01 X39.22231411216129Y10.81196387119355
G01 X39.21277613429288Y10.773886129098216
G01 X39.19955181300451Y10.736926627053965
G01 X39.18276850573934Y10.7014413052696
G01 X39.16258784492101Y10.66777190679216
G01 X39.13920418134509Y10.636242686334542
G01 X39.11284271247462Y10.607157287525382
G01 X37.315Y8.809314575050761
G01 X37.315Y7.804958108530061
G01 X37.315687226302096Y7.804633074696102
G01 X37.38723469806666Y7.761749170457163
G01 X37.454234291539095Y7.712058885358326
G01 X37.516040764008565Y7.656040764008566
G01 X37.572058885358324Y7.594234291539099
G01 X37.621749170457164Y7.527234698066661
G01 X37.6646330746961Y7.455687226302098
G01 X37.70029760263459Y7.380280917510326
G01 X37.728399285372376Y7.3017419756662925
G01 X37.74866748834275Y7.220826773713709
G01 X37.760907017671364Y7.138314569280126
G01 X37.765Y7.055
G01 X37.760907017671364Y6.971685430719873
G01 X37.74866748834275Y6.889173226286291
G01 X37.728399285372376Y6.808258024333707
G01 X37.70029760263459Y6.729719082489673
G01 X37.6646330746961Y6.654312773697901
G01 X37.621749170457164Y6.582765301933338
G01 X37.572058885358324Y6.515765708460901
G01 X37.516040764008565Y6.453959235991435
G01 X37.454234291539095Y6.397941114641673
G01 X37.38723469806666Y6.348250829542836
G01 X37.315687226302096Y6.305366925303898
G01 X37.240280917510326Y6.269702397365406
G01 X37.240280917510326Y6.269702397365406
M5
G01 X30.519757840022056Y12.954205036877266
M3
G01 X30.470330085889913Y12.899669914110088
G01 X24.455Y6.8843398282201775
G01 X24.455Y4.945
G01 X21.455Y4.945
G01 X21.455Y7.945
G01 X23.394339828220176Y7.945
G01 X29.19Y13.740660171779822
G01 X29.19Y28.88783430773926
G01 X29.1066446504706Y28.93779558154618
G01 X28.988410073754533Y29.025484319955893
G01 X28.87933982822018Y29.124339828220176
G01 X28.780484319955896Y29.23341007375453
G01 X28.692795581546182Y29.351644650470597
G01 X28.61711810347747Y29.477904894761004
G01 X28.554180701233072Y29.610974851452365
G01 X28.50458949640169Y29.749572984118306
G01 X28.468822079395157Y29.892364516975807
G01 X28.447222909991705Y30.03797428950566
G01 X28.44Y30.185
G01 X28.447222909991705Y30.33202571049434
G01 X28.468822079395157Y30.47763548302419
G01 X28.50458949640169Y30.620427015881692
G01 X28.554180701233072Y30.759025148547632
G01 X28.61711810347747Y30.892095105238994
G01 X28.692795581546182Y31.0183553495294
G01 X28.780484319955896Y31.136589926245467
G01 X28.87933982822018Y31.24566017177982
G01 X28.988410073754533Y31.344515680044104
G01 X29.1066446504706Y31.432204418453818
G01 X29.232904894761006Y31.50788189652253
G01 X29.365974851452364Y31.570819298766928
G01 X29.504572984118308Y31.62041050359831
G01 X29.64736451697581Y31.656177920604843
G01 X29.79297428950566Y31.677777090008295
G01 X29.94Y31.685
G01 X30.08702571049434Y31.677777090008295
G01 X30.232635483024193Y31.656177920604843
G01 X30.375427015881694Y31.62041050359831
G01 X30.514025148547635Y31.570819298766928
G01 X30.647095105238996Y31.50788189652253
G01 X30.773355349529403Y31.432204418453818
G01 X30.89158992624547Y31.344515680044104
G01 X31.00066017177982Y31.24566017177982
G01 X31.099515680044107Y31.136589926245467
G01 X31.18720441845382Y31.0183553495294
G01 X31.262881896522533Y30.892095105238997
G01 X31.32581929876693Y30.759025148547636
G01 X31.375410503598314Y30.620427015881692
G01 X31.411177920604846Y30.47763548302419
G01 X31.432777090008297Y30.33202571049434
G01 X31.44Y30.185
G01 X31.432777090008297Y30.03797428950566
G01 X31.411177920604846Y29.892364516975807
G01 X31.375410503598314Y29.749572984118306
G01 X31.32581929876693Y29.610974851452365
G01 X31.262881896522533Y29.477904894761004
G01 X31.18720441845382Y29.351644650470597
G01 X31.099515680044107Y29.23341007375453
G01 X31.000660171779824Y29.124339828220176
G01 X30.89158992624547Y29.025484319955893
G01 X30.773355349529403Y28.93779558154618
G01 X30.69Y28.88783430773926
G01 X30.69Y13.43
G01 X30.68638854500415Y13.35648714475283
G01 X30.675588960302424Y13.283682258487904
G01 X30.657705251799158Y13.212286492059153
G01 X30.632909649383468Y13.142987425726183
G01 X30.601440948261267Y13.076452447380502
G01 X30.56360220922691Y13.013322325235299
G01 X30.519757840022056Y12.954205036877266
G01 X30.519757840022056Y12.954205036877266
M5
G01 X46.37946298852132Y18.132882610539202
M3
G01 X46.345896373990975Y18.20385325410793
G01 X46.319447731414236Y18.277772258196432
G01 X46.30037177567742Y18.3539277423871
G01 X46.28885221866224Y18.43158628773635
G01 X46.285000000000004Y18.51
G01 X46.28885221866224Y18.58841371226365
G01 X46.30037177567742Y18.666072257612903
G01 X46.319447731414236Y18.74222774180357
G01 X46.34589637399097Y18.816146745892073
G01 X46.37946298852132Y18.8871173894608
G01 X46.41982431015796Y18.954456186415683
G01 X46.46659163730981Y19.017514627330918
G01 X46.519314575050764Y19.07568542494924
G01 X46.57748537266908Y19.12840836269019
G01 X46.640543813584316Y19.17517568984204
G01 X46.7078826105392Y19.215537011478684
G01 X46.77885325410793Y19.24910362600903
G01 X46.85277225819643Y19.27555226858577
G01 X46.928927742387096Y19.294628224322587
G01 X47.006586287736354Y19.30614778133776
G01 X47.085Y19.310000000000002
G01 X47.16341371226365Y19.30614778133776
G01 X47.241072257612906Y19.294628224322587
G01 X47.31722774180357Y19.27555226858577
G01 X47.39114674589207Y19.24910362600903
G01 X47.4621173894608Y19.215537011478684
G01 X47.52945618641568Y19.17517568984204
G01 X47.592514627330914Y19.12840836269019
G01 X47.65068542494924Y19.07568542494924
G01 X47.70340836269019Y19.017514627330918
G01 X47.75017568984204Y18.954456186415683
G01 X47.79053701147868Y18.8871173894608
G01 X47.82410362600903Y18.816146745892073
G01 X47.850552268585766Y18.74222774180357
G01 X47.86962822432258Y18.666072257612903
G01 X47.88114778133776Y18.58841371226365
G01 X47.885Y18.51
G01 X47.88114778133776Y18.43158628773635
G01 X47.86962822432258Y18.3539277423871
G01 X47.850552268585766Y18.277772258196432
G01 X47.82410362600903Y18.20385325410793
G01 X47.79053701147868Y18.132882610539202
G01 X47.75017568984204Y18.06554381358432
G01 X47.70340836269019Y18.002485372669085
G01 X47.65068542494924Y17.944314575050765
G01 X47.592514627330914Y17.891591637309812
G01 X47.529456186415686Y17.844824310157964
G01 X47.485Y17.81817829746094
G01 X47.485Y16.264
G01 X47.858Y16.264
G01 X47.858Y14.464
G01 X46.058Y14.464
G01 X46.058Y16.264
G01 X46.685Y16.264
G01 X46.685Y17.818178297460943
G01 X46.64054381358432Y17.844824310157964
G01 X46.57748537266909Y17.891591637309812
G01 X46.519314575050764Y17.944314575050765
G01 X46.46659163730981Y18.002485372669085
G01 X46.41982431015796Y18.06554381358432
G01 X46.37946298852132Y18.132882610539202
G01 X46.37946298852132Y18.132882610539202
M5
G01 X24.182635483024193Y17.506177920604845
M3
G01 X24.325427015881694Y17.470410503598313
G01 X24.464025148547634Y17.42081929876693
G01 X24.597095105238996Y17.35788189652253
G01 X24.723355349529403Y17.28220441845382
G01 X24.84158992624547Y17.194515680044105
G01 X24.950660171779823Y17.095660171779823
G01 X25.049515680044106Y16.98658992624547
G01 X25.13720441845382Y16.868355349529402
G01 X25.212881896522532Y16.742095105239
G01 X25.27581929876693Y16.609025148547637
G01 X25.325410503598313Y16.470427015881693
G01 X25.361177920604845Y16.327635483024192
G01 X25.382777090008297Y16.18202571049434
G01 X25.39Y16.035
G01 X25.382777090008297Y15.887974289505658
G01 X25.361177920604845Y15.742364516975808
G01 X25.325410503598313Y15.599572984118307
G01 X25.27581929876693Y15.460974851452365
G01 X25.212881896522532Y15.327904894761003
G01 X25.13720441845382Y15.201644650470596
G01 X25.049515680044106Y15.083410073754532
G01 X24.950660171779823Y14.97433982822018
G01 X24.84158992624547Y14.875484319955895
G01 X24.723355349529403Y14.787795581546183
G01 X24.597095105238996Y14.712118103477469
G01 X24.464025148547634Y14.649180701233071
G01 X24.325427015881694Y14.599589496401688
G01 X24.182635483024193Y14.563822079395155
G01 X24.03702571049434Y14.542222909991704
G01 X23.89Y14.535
G01 X23.74297428950566Y14.542222909991704
G01 X23.59736451697581Y14.563822079395155
G01 X23.454572984118307Y14.599589496401688
G01 X23.315974851452367Y14.649180701233071
G01 X23.182904894761005Y14.712118103477467
G01 X23.0566446504706Y14.787795581546183
G01 X22.938410073754532Y14.875484319955895
G01 X22.829339828220178Y14.97433982822018
G01 X22.730484319955895Y15.083410073754532
G01 X22.64279558154618Y15.201644650470596
G01 X22.592834307739263Y15.285
G01 X22.060660171779823Y15.285
G01 X13.60756474321002Y6.831904571430198
G01 X13.631177920604845Y6.737635483024193
G01 X13.652777090008296Y6.592025710494341
G01 X13.66Y6.445
G01 X13.652777090008296Y6.297974289505659
G01 X13.631177920604845Y6.152364516975808
G01 X13.595410503598313Y6.009572984118307
G01 X13.54581929876693Y5.870974851452366
G01 X13.482881896522533Y5.737904894761003
G01 X13.407204418453817Y5.611644650470597
G01 X13.319515680044105Y5.493410073754532
G01 X13.220660171779821Y5.384339828220179
G01 X13.111589926245468Y5.285484319955895
G01 X12.993355349529404Y5.197795581546183
G01 X12.867095105238997Y5.122118103477468
G01 X12.734025148547635Y5.05918070123307
G01 X12.595427015881693Y5.009589496401687
G01 X12.452635483024192Y4.973822079395155
G01 X12.307025710494342Y4.952222909991705
G01 X12.16Y4.945
G01 X12.012974289505658Y4.952222909991705
G01 X11.867364516975808Y4.973822079395155
G01 X11.724572984118307Y5.009589496401687
G01 X11.585974851452365Y5.05918070123307
G01 X11.452904894761003Y5.122118103477468
G01 X11.326644650470596Y5.197795581546182
G01 X11.208410073754532Y5.285484319955895
G01 X11.09933982822018Y5.384339828220179
G01 X11.000484319955895Y5.493410073754532
G01 X10.912795581546183Y5.611644650470597
G01 X10.837118103477469Y5.737904894761003
G01 X10.774180701233071Y5.870974851452365
G01 X10.724589496401688Y6.009572984118306
G01 X10.688822079395155Y6.152364516975807
G01 X10.667222909991704Y6.297974289505659
G01 X10.66Y6.445
G01 X10.667222909991704Y6.592025710494341
G01 X10.688822079395155Y6.737635483024193
G01 X10.724589496401688Y6.880427015881693
G01 X10.77418070123307Y7.019025148547635
G01 X10.837118103477467Y7.152095105238997
G01 X10.912795581546181Y7.278355349529403
G01 X11.000484319955895Y7.396589926245468
G01 X11.09933982822018Y7.505660171779821
G01 X11.208410073754532Y7.604515680044106
G01 X11.326644650470596Y7.692204418453818
G01 X11.452904894761003Y7.767881896522533
G01 X11.585974851452365Y7.83081929876693
G01 X11.724572984118307Y7.880410503598314
G01 X11.867364516975806Y7.916177920604846
G01 X12.01297428950566Y7.937777090008296
G01 X12.16Y7.945
G01 X12.30702571049434Y7.937777090008296
G01 X12.452635483024192Y7.916177920604846
G01 X12.546904571430199Y7.89256474321002
G01 X21.21966991411009Y16.56533008588991
G01 X21.274205036877266Y16.614757840022055
G01 X21.333322325235297Y16.65860220922691
G01 X21.3964524473805Y16.696440948261266
G01 X21.462987425726183Y16.727909649383466
G01 X21.532286492059153Y16.752705251799156
G01 X21.603682258487904Y16.770588960302423
G01 X21.67648714475283Y16.78138854500415
G01 X21.75Y16.785
G01 X22.592834307739263Y16.785
G01 X22.64279558154618Y16.868355349529402
G01 X22.730484319955895Y16.98658992624547
G01 X22.829339828220178Y17.095660171779823
G01 X22.938410073754532Y17.194515680044105
G01 X23.0566446504706Y17.28220441845382
G01 X23.182904894761002Y17.35788189652253
G01 X23.315974851452363Y17.42081929876693
G01 X23.454572984118307Y17.470410503598313
G01 X23.59736451697581Y17.506177920604845
G01 X23.74297428950566Y17.527777090008296
G01 X23.89Y17.535
G01 X24.03702571049434Y17.527777090008296
G01 X24.182635483024193Y17.506177920604845
G01 X24.182635483024193Y17.506177920604845
M5
G01 X37.09951568004411Y15.033410073754531
M3
G01 X37.00066017177982Y14.924339828220178
G01 X36.891589926245466Y14.825484319955894
G01 X36.7733553495294Y14.737795581546182
G01 X36.647095105238996Y14.662118103477468
G01 X36.51402514854763Y14.59918070123307
G01 X36.37542701588169Y14.549589496401687
G01 X36.23263548302419Y14.513822079395155
G01 X36.08702571049434Y14.492222909991703
G01 X35.94Y14.485
G01 X35.79297428950566Y14.492222909991703
G01 X35.647364516975806Y14.513822079395155
G01 X35.504572984118305Y14.549589496401687
G01 X35.365974851452364Y14.59918070123307
G01 X35.232904894761Y14.662118103477466
G01 X35.10664465047059Y14.737795581546182
G01 X34.98841007375453Y14.825484319955894
G01 X34.879339828220175Y14.924339828220178
G01 X34.78048431995589Y15.033410073754531
G01 X34.69279558154618Y15.151644650470596
G01 X34.617118103477466Y15.277904894761003
G01 X34.554180701233065Y15.410974851452364
G01 X34.504589496401685Y15.549572984118306
G01 X34.46882207939515Y15.692364516975806
G01 X34.4472229099917Y15.837974289505658
G01 X34.44Y15.985
G01 X34.4472229099917Y16.13202571049434
G01 X34.46882207939515Y16.27763548302419
G01 X34.504589496401685Y16.420427015881693
G01 X34.554180701233065Y16.559025148547633
G01 X34.617118103477466Y16.692095105238995
G01 X34.69279558154618Y16.8183553495294
G01 X34.78048431995589Y16.936589926245468
G01 X34.879339828220175Y17.045660171779822
G01 X34.98841007375453Y17.144515680044105
G01 X35.10664465047059Y17.23220441845382
G01 X35.232904894761Y17.30788189652253
G01 X35.365974851452364Y17.37081929876693
G01 X35.504572984118305Y17.420410503598312
G01 X35.647364516975806Y17.456177920604844
G01 X35.79297428950566Y17.477777090008296
G01 X35.94Y17.485
G01 X36.08702571049434Y17.477777090008296
G01 X36.23263548302419Y17.456177920604844
G01 X36.37542701588169Y17.420410503598312
G01 X36.51402514854763Y17.37081929876693
G01 X36.647095105238996Y17.30788189652253
G01 X36.7733553495294Y17.23220441845382
G01 X36.891589926245466Y17.144515680044105
G01 X37.00066017177982Y17.045660171779822
G01 X37.0995156800441Y16.936589926245468
G01 X37.18720441845382Y16.8183553495294
G01 X37.26288189652253Y16.692095105238998
G01 X37.32581929876693Y16.559025148547637
G01 X37.37541050359831Y16.420427015881693
G01 X37.41117792060484Y16.27763548302419
G01 X37.432777090008294Y16.13202571049434
G01 X37.44Y15.985
G01 X37.432777090008294Y15.837974289505658
G01 X37.41117792060484Y15.692364516975807
G01 X37.37541050359831Y15.549572984118306
G01 X37.32581929876693Y15.410974851452364
G01 X37.26288189652253Y15.277904894761003
G01 X37.18720441845382Y15.151644650470596
G01 X37.09951568004411Y15.033410073754531
G01 X37.09951568004411Y15.033410073754531
M5

M5 ; Disable End-Effector Signal

; Returning the Deactivating Tool-1
C0 ; PWM Tool select demultiplexer to select tool zero which is the empty tool slot in multiplexers
#TODO X-0.0Y-0.0Z-0.0 ;  ;Remove tool offset coordinate
G00X165.0Y0.0Z11.0 ; Go to Tool-1 Home Pos
G00X92 ; Enter Female Kinematic Mount Home Pos
A0 ; Latch OFF Kinematic Mount
G4 P5 ; Wait for Kinematic Mount to fully detach
G00X188 ; Exit Female Kinematic Mount Home Pos


; The following gcode is the PCB holes drill gcode

; Getting and Activating Tool-2, The Tool.Spindle
G00X165.0Y91.0Z12.0 ; Go to Tool-2 Home Pos
G00X188 ; Enter Female Kinematic Mount Home Pos
A1 ; Latch on Kinematic Mount
G4 P5 ; Wait for Kinematic Mount to fully attach
G00X92 ; Exit Female Kinematic Mount Home Pos
#TODO X0.0Y0.0Z0.0 ;  ;Add tool offset coordinate
C2 ; Choosing tool 2 in the choose demultiplexer circuits

F700 ; setting default feedrate

S230 ; sets pwm speed when we enable it

G01 Z20F20 ; Moving Spindle to UP Postion

M3 ; Turn Motor ON
G4 P2 ; dwell for 2 seconds so motor reaches full RPM

G01 X44.545Y26.125F700
G01 Z25F1
G01 Z20F20
G01 X44.545Y18.505F700
G01 Z25F1
G01 Z20F20
G01 X18.11Y28.235F700
G01 Z25F1
G01 Z20F20
G01 X18.16Y15.985F700
G01 Z25F1
G01 Z20F20
G01 X6.11Y16.035F700
G01 Z25F1
G01 Z20F20
G01 X6.11Y28.235F700
G01 Z25F1
G01 Z20F20
G01 X12.16Y30.185F700
G01 Z25F1
G01 Z20F20
G01 X43.165424Y29.305F700
G01 Z25F1
G01 Z20F20
G01 X41.895424Y29.305F700
G01 Z25F1
G01 Z20F20
G01 X40.625424Y29.305F700
G01 Z25F1
G01 Z20F20
G01 X36.915Y7.055F700
G01 Z25F1
G01 Z20F20
G01 X39.455Y7.055F700
G01 Z25F1
G01 Z20F20
G01 X41.995Y7.055F700
G01 Z25F1
G01 Z20F20
G01 X44.535Y7.055F700
G01 Z25F1
G01 Z20F20
G01 X17.875Y6.445F700
G01 Z25F1
G01 Z20F20
G01 X22.955Y6.445F700
G01 Z25F1
G01 Z20F20
G01 X47.085Y26.13F700
G01 Z25F1
G01 Z20F20
G01 X47.085Y18.51F700
G01 Z25F1
G01 Z20F20
G01 X39.465Y26.13F700
G01 Z25F1
G01 Z20F20
G01 X39.465Y18.51F700
G01 Z25F1
G01 Z20F20
G01 X42.005Y18.51F700
G01 Z25F1
G01 Z20F20
G01 X42.005Y26.13F700
G01 Z25F1
G01 Z20F20
G01 X42.025Y10.255F700
G01 Z25F1
G01 Z20F20
G01 X44.525Y10.255F700
G01 Z25F1
G01 Z20F20
G01 X40.64Y14.7F700
G01 Z25F1
G01 Z20F20
G01 X42.64Y14.7F700
G01 Z25F1
G01 Z20F20
G01 X46.958Y12.824F700
G01 Z25F1
G01 Z20F20
G01 X46.958Y15.364F700
G01 Z25F1
G01 Z20F20
G01 X12.16Y6.445F700
G01 Z25F1
G01 Z20F20
G01 X7.08Y6.445F700
G01 Z25F1
G01 Z20F20
G01 X35.89Y28.235F700
G01 Z25F1
G01 Z20F20
G01 X35.94Y15.985F700
G01 Z25F1
G01 Z20F20
G01 X23.89Y16.035F700
G01 Z25F1
G01 Z20F20
G01 X23.89Y28.235F700
G01 Z25F1
G01 Z20F20
G01 X29.94Y30.185F700
G01 Z25F1
G01 Z20F20

M5 ; disabling spindle PWM

; Returning the Deactivating Tool-2
C0 ; PWM Tool select demultiplexer to select tool zero which is the empty tool slot in multiplexers
#TODO X-0.0Y-0.0Z-0.0 ;  ;Remove tool offset coordinate
G00X165.0Y91.0Z12.0 ; Go to Tool-2 Home Pos
G00X92 ; Enter Female Kinematic Mount Home Pos
A0 ; Latch OFF Kinematic Mount
G4 P5 ; Wait for Kinematic Mount to fully detach
G00X188 ; Exit Female Kinematic Mount Home Pos

; Machine deinitialization Sequence... 

G00X0.0Y0.0Z0.0
B0 ; Turn Machine OFF
