; This gcode is generated by my specialised python script for my PCB manufacturer project :))

; Machine Initialization Sequence...

G21 ; to set metric units
G90 ; to set absolute mode , G91 for incremental mode
G94 ; To set the active feed rate mode to units per minute mode

M5 ; disabling spindle PWM
C0 ; Choosing the empty tool slot in the multiplexer circuits

B1 ; Turn ON Machine

$H ; Homing :)
G10 P0 L20 X0.0Y0.0Z0.0 ; Force Reset current coordinates after homing


; The following gcode is the PCB trace laser marking gcode

M5 ; Being extra sure it won't light up before activation

; Getting and Activating Tool-1, The Tool.Laser
G00X165.0Y0.0Z10.5 ; Go to Tool-1 Home Pos
G00X188 ; Enter Female Kinematic Mount Home Pos
A1 ; Latch on Kinematic Mount
G4 P5 ; Wait for Kinematic Mount to fully attach
G00X92 ; Exit Female Kinematic Mount Home Pos
#TODO X0.0Y0.0Z0.0 ;  ;Add tool offset coordinate
C1 ; Choosing tool 1 in the choose demultiplexer circuits

F400 ; setting default feedrate

G00Z16 ; Moving to correct focal length Z position

S200 ; Setting Laser Power

; Number of passes: 1

; Pass number: 1
G01 X18.965371775677415Y8.406072257612903
M3
G01 X18.98444773141423Y8.48222774180357
G01 X19.01089637399097Y8.556146745892072
G01 X19.044462988521317Y8.627117389460798
G01 X19.084824310157963Y8.694456186415682
G01 X19.13159163730981Y8.757514627330917
G01 X19.184314575050763Y8.815685424949239
G01 X19.242485372669083Y8.86840836269019
G01 X19.30554381358432Y8.915175689842036
G01 X19.3728826105392Y8.955537011478684
G01 X19.44385325410793Y8.98910362600903
G01 X19.51777225819643Y9.015552268585767
G01 X19.5939277423871Y9.034628224322585
G01 X19.67158628773635Y9.046147781337758
G01 X19.75Y9.05
G01 X19.828413712263647Y9.046147781337758
G01 X19.9060722576129Y9.034628224322585
G01 X19.956349104762772Y9.022034529712009
G01 X19.970000000000006Y9.035685424949243
G01 X19.970000000000006Y10.05817829746094
G01 X19.925543813584323Y10.084824310157964
G01 X19.862485372669088Y10.13159163730981
G01 X19.804314575050768Y10.184314575050761
G01 X19.751591637309815Y10.242485372669083
G01 X19.704824310157967Y10.305543813584318
G01 X19.664462988521322Y10.372882610539202
G01 X19.630896373990975Y10.443853254107928
G01 X19.604447731414236Y10.51777225819643
G01 X19.58537177567742Y10.593927742387097
G01 X19.573852218662246Y10.671586287736352
G01 X19.570000000000004Y10.75
G01 X19.573852218662246Y10.828413712263648
G01 X19.58537177567742Y10.906072257612903
G01 X19.604447731414236Y10.98222774180357
G01 X19.630896373990975Y11.056146745892072
G01 X19.664462988521322Y11.127117389460798
G01 X19.704824310157967Y11.194456186415682
G01 X19.751591637309815Y11.257514627330917
G01 X19.804314575050768Y11.315685424949239
G01 X19.862485372669088Y11.36840836269019
G01 X19.925543813584323Y11.415175689842036
G01 X19.970000000000006Y11.44182170253906
G01 X19.970000000000006Y13.05817829746094
G01 X19.925543813584323Y13.084824310157964
G01 X19.862485372669088Y13.13159163730981
G01 X19.804314575050768Y13.184314575050761
G01 X19.751591637309815Y13.242485372669083
G01 X19.704824310157967Y13.305543813584318
G01 X19.664462988521322Y13.372882610539202
G01 X19.630896373990975Y13.443853254107928
G01 X19.604447731414236Y13.51777225819643
G01 X19.58537177567742Y13.593927742387097
G01 X19.573852218662246Y13.671586287736352
G01 X19.570000000000004Y13.75
G01 X19.573852218662246Y13.828413712263648
G01 X19.58537177567742Y13.906072257612903
G01 X19.604447731414236Y13.98222774180357
G01 X19.630896373990975Y14.056146745892072
G01 X19.664462988521322Y14.127117389460798
G01 X19.704824310157967Y14.194456186415682
G01 X19.751591637309815Y14.257514627330917
G01 X19.804314575050768Y14.315685424949239
G01 X19.862485372669088Y14.36840836269019
G01 X19.925543813584323Y14.415175689842036
G01 X19.992882610539205Y14.455537011478684
G01 X20.063853254107933Y14.48910362600903
G01 X20.137772258196435Y14.515552268585767
G01 X20.213927742387103Y14.534628224322585
G01 X20.291586287736354Y14.546147781337758
G01 X20.370000000000005Y14.55
G01 X20.44841371226365Y14.546147781337758
G01 X20.526072257612906Y14.534628224322585
G01 X20.576349104762777Y14.52203452971201
G01 X20.90315728752539Y14.848842712474621
G01 X20.93224268633455Y14.875204181345097
G01 X20.963771906792168Y14.898587844921021
G01 X20.997441305269607Y14.918768505739344
G01 X21.03292662705397Y14.935551813004517
G01 X21.069886129098222Y14.948776134292887
G01 X21.107963871193554Y14.958314112161295
G01 X21.146793143868184Y14.964073890668882
G01 X21.186000000000007Y14.966000000000003
G01 X21.81017829746095Y14.966000000000003
G01 X21.836824310157972Y15.010456186415684
G01 X21.88359163730982Y15.073514627330919
G01 X21.936314575050773Y15.131685424949241
G01 X21.994485372669093Y15.184408362690192
G01 X22.057543813584328Y15.231175689842038
G01 X22.12488261053921Y15.271537011478687
G01 X22.195853254107938Y15.305103626009032
G01 X22.26977225819644Y15.331552268585769
G01 X22.345927742387108Y15.350628224322588
G01 X22.42358628773636Y15.362147781337761
G01 X22.50200000000001Y15.366000000000003
G01 X22.580413712263656Y15.362147781337761
G01 X22.65807225761291Y15.350628224322588
G01 X22.73422774180358Y15.331552268585769
G01 X22.80814674589208Y15.305103626009032
G01 X22.87911738946081Y15.271537011478687
G01 X22.94645618641569Y15.23117568984204
G01 X23.009514627330926Y15.184408362690192
G01 X23.067685424949246Y15.131685424949241
G01 X23.1204083626902Y15.073514627330919
G01 X23.167175689842047Y15.010456186415684
G01 X23.207537011478692Y14.9431173894608
G01 X23.24110362600904Y14.872146745892074
G01 X23.267552268585778Y14.798227741803572
G01 X23.286628224322595Y14.722072257612906
G01 X23.298147781337768Y14.64441371226365
G01 X23.30200000000001Y14.566000000000003
G01 X23.298147781337768Y14.487586287736354
G01 X23.286628224322595Y14.409927742387099
G01 X23.267552268585778Y14.333772258196433
G01 X23.24110362600904Y14.25985325410793
G01 X23.207537011478692Y14.188882610539205
G01 X23.167175689842047Y14.12154381358432
G01 X23.1204083626902Y14.058485372669086
G01 X23.067685424949246Y14.000314575050764
G01 X23.009514627330926Y13.947591637309813
G01 X22.94645618641569Y13.900824310157967
G01 X22.87911738946081Y13.860462988521318
G01 X22.80814674589208Y13.826896373990973
G01 X22.73422774180358Y13.800447731414236
G01 X22.65807225761291Y13.781371775677417
G01 X22.58041371226366Y13.769852218662244
G01 X22.50200000000001Y13.766000000000002
G01 X22.42358628773636Y13.769852218662244
G01 X22.345927742387108Y13.781371775677417
G01 X22.26977225819644Y13.800447731414236
G01 X22.195853254107938Y13.826896373990973
G01 X22.12488261053921Y13.860462988521318
G01 X22.057543813584328Y13.900824310157967
G01 X21.994485372669093Y13.947591637309813
G01 X21.936314575050773Y14.000314575050764
G01 X21.88359163730982Y14.058485372669086
G01 X21.836824310157972Y14.12154381358432
G01 X21.81017829746095Y14.166000000000002
G01 X21.351685424949245Y14.166000000000002
G01 X21.142034529712017Y13.956349104762774
G01 X21.15462822432259Y13.906072257612903
G01 X21.166147781337763Y13.828413712263648
G01 X21.170000000000005Y13.75
G01 X21.166147781337763Y13.671586287736352
G01 X21.15462822432259Y13.593927742387097
G01 X21.135552268585773Y13.51777225819643
G01 X21.109103626009034Y13.443853254107928
G01 X21.075537011478687Y13.372882610539202
G01 X21.035175689842042Y13.305543813584318
G01 X20.988408362690194Y13.242485372669083
G01 X20.93568542494924Y13.184314575050761
G01 X20.87751462733092Y13.13159163730981
G01 X20.814456186415686Y13.084824310157964
G01 X20.770000000000003Y13.05817829746094
G01 X20.770000000000003Y11.44182170253906
G01 X20.814456186415686Y11.415175689842037
G01 X20.87751462733092Y11.36840836269019
G01 X20.93568542494924Y11.315685424949239
G01 X20.988408362690194Y11.257514627330917
G01 X21.035175689842042Y11.194456186415682
G01 X21.075537011478687Y11.127117389460798
G01 X21.109103626009034Y11.056146745892072
G01 X21.135552268585773Y10.98222774180357
G01 X21.15462822432259Y10.906072257612903
G01 X21.166147781337763Y10.828413712263648
G01 X21.170000000000005Y10.75
G01 X21.166147781337763Y10.671586287736352
G01 X21.15462822432259Y10.593927742387097
G01 X21.135552268585773Y10.51777225819643
G01 X21.109103626009034Y10.443853254107928
G01 X21.075537011478687Y10.372882610539202
G01 X21.035175689842042Y10.305543813584318
G01 X20.988408362690194Y10.242485372669083
G01 X20.93568542494924Y10.184314575050761
G01 X20.87751462733092Y10.13159163730981
G01 X20.814456186415686Y10.084824310157964
G01 X20.770000000000003Y10.05817829746094
G01 X20.770000000000003Y8.870000000000005
G01 X20.768073890668884Y8.83079314386818
G01 X20.762314112161295Y8.791963871193554
G01 X20.752776134292887Y8.75388612909822
G01 X20.739551813004518Y8.716926627053969
G01 X20.722768505739346Y8.681441305269605
G01 X20.702587844921023Y8.647771906792164
G01 X20.6792041813451Y8.616242686334546
G01 X20.652842712474623Y8.587157287525386
G01 X20.522034529712013Y8.456349104762774
G01 X20.534628224322585Y8.406072257612903
G01 X20.54614778133776Y8.328413712263648
G01 X20.55Y8.25
G01 X20.54614778133776Y8.171586287736352
G01 X20.534628224322585Y8.093927742387097
G01 X20.51555226858577Y8.01777225819643
G01 X20.48910362600903Y7.943853254107928
G01 X20.455537011478683Y7.872882610539202
G01 X20.415175689842037Y7.805543813584318
G01 X20.36840836269019Y7.742485372669083
G01 X20.315685424949237Y7.684314575050762
G01 X20.257514627330917Y7.6315916373098105
G01 X20.19445618641568Y7.5848243101579635
G01 X20.1271173894608Y7.544462988521316
G01 X20.05614674589207Y7.51089637399097
G01 X19.98222774180357Y7.484447731414233
G01 X19.9060722576129Y7.465371775677416
G01 X19.82841371226365Y7.4538522186622425
G01 X19.75Y7.45
G01 X19.67158628773635Y7.4538522186622425
G01 X19.5939277423871Y7.465371775677416
G01 X19.543650895237224Y7.47796547028799
G01 X17.632842712474613Y5.567157287525388
G01 X17.61830003866358Y5.553976576286789
G01 X17.603757360945657Y5.54079585745678
G01 X17.60375733635244Y5.5407958392172025
G01 X17.60375731366545Y5.540795818654913
G01 X17.587992729961915Y5.529104006539435
G01 X17.57222814406362Y5.517412189059745
G01 X17.572228117801043Y5.517412173318558
G01 X17.572228093207833Y5.51741215507899
G01 X17.555393418495196Y5.507321839370196
G01 X17.53855874867199Y5.497231523093056
G01 X17.538558720992974Y5.497231510001852
G01 X17.53855869473039Y5.4972314942606655
G01 X17.52081606033207Y5.488839853158742
G01 X17.503073429453952Y5.480448210401846
G01 X17.50307340062505Y5.480448200086695
G01 X17.50307337294603Y5.480448186995494
G01 X17.484593649250545Y5.4738360361289375
G01 X17.466113929431824Y5.467223883462025
G01 X17.46611389973069Y5.467223876022273
G01 X17.46611387090178Y5.467223865707124
G01 X17.447075028979995Y5.462454884068574
G01 X17.428036188794938Y5.457685899771174
G01 X17.428036158507584Y5.457685895278464
G01 X17.428036128806443Y5.457685887838716
G01 X17.40862152247473Y5.4548060030358325
G01 X17.389206917001033Y5.451926115326229
G01 X17.38920688641917Y5.451926113823833
G01 X17.389206856131818Y5.451926109331129
G01 X17.3696034551136Y5.450963055994337
G01 X17.35000006116373Y5.4500000000000135
G01 X10.810177061163746Y5.449999000000002
G01 X10.810177030581885Y5.449999001502388
G01 X10.81017700000001Y5.4499989999999965
G01 X10.790573600282457Y5.4509620532728915
G01 X10.770970204737402Y5.451925103336028
G01 X10.770970174450055Y5.4519251078287265
G01 X10.770970143868187Y5.451925109331118
G01 X10.751555536707865Y5.454804994256913
G01 X10.732140931182052Y5.457684875906256
G01 X10.73214090148091Y5.457684883346
G01 X10.73214087119356Y5.457684887838704
G01 X10.713102026682945Y5.4624538701257235
G01 X10.694063187628272Y5.467222847952223
G01 X10.694063158799375Y5.467222858267362
G01 X10.694063129098225Y5.467222865707113
G01 X10.675583403625494Y5.473835017209578
G01 X10.6571036835619Y5.4804471635891385
G01 X10.65710365588288Y5.480447176680334
G01 X10.657103627053974Y5.480447186995482
G01 X10.639360993545571Y5.488838827676506
G01 X10.621618359211212Y5.497230465428274
G01 X10.621618332948628Y5.497230481169455
G01 X10.621618305269612Y5.497230494260655
G01 X10.60478363118832Y5.507320809591033
G01 X10.58794895764796Y5.517411121098232
G01 X10.587948933054754Y5.51741113933779
G01 X10.58794890679217Y5.517411155078978
G01 X10.572184316802883Y5.529102971856287
G01 X10.556419733614762Y5.540794779853043
G01 X10.556419710927766Y5.54079480041533
G01 X10.556419686334552Y5.540794818654901
G01 X10.541877007123144Y5.5539755347881155
G01 X10.527334330774687Y5.567156244276089
G01 X10.52733431021239Y5.56715626696308
G01 X10.527334287525392Y5.5671562875253775
G01 X6.6421572875253645Y9.45233328752539
G01 X6.615795818654888Y9.481418686334552
G01 X6.592412155078965Y9.512947906792169
G01 X6.572231494260641Y9.54661730526961
G01 X6.555448186995468Y9.582102627053974
G01 X6.5422238657071Y9.619062129098225
G01 X6.53268588783869Y9.657139871193557
G01 X6.531368120331652Y9.666023538123662
G01 X6.526926109331104Y9.695969143868185
G01 X6.524999999999983Y9.73517600000001
G01 X6.524999999999983Y13.174999999999997
G01 X6.524999999999983Y13.174999999999999
G01 X6.525172339690312Y13.178508054986988
G01 X6.526926109331104Y13.214206856131822
G01 X6.53268588783869Y13.253036128806448
G01 X6.537447234162424Y13.272044488842822
G01 X6.5422238657071Y13.291113870901784
G01 X6.555448186995468Y13.328073372946035
G01 X6.563610033858964Y13.345330148248411
G01 X6.572231494260641Y13.363558694730397
G01 X6.592412155078965Y13.397228093207838
G01 X6.615795818654888Y13.428757313665455
G01 X6.630319035301123Y13.444781213935316
G01 X6.6421572875253645Y13.457842712474617
G01 X8.775000000000006Y15.590685424949246
G01 X8.775000000000006Y16.349999999999994
G01 X10.224999999999994Y16.349999999999994
G01 X10.224999999999994Y15.150000000000006
G01 X9.465685424949243Y15.150000000000006
G01 X7.324999999999983Y13.009314575050759
G01 X7.324999999999983Y9.900861424949248
G01 X10.975862399614398Y6.249999025334846
G01 X17.184314549715907Y6.24999997466516
G01 X18.977965470287987Y8.04365089523723
G01 X18.965371775677415Y8.093927742387097
G01 X18.95385221866224Y8.171586287736352
G01 X18.95Y8.25
G01 X18.95385221866224Y8.328413712263648
G01 X18.965371775677415Y8.406072257612903
G01 X18.965371775677415Y8.406072257612903
M5
G01 X9.950280917510327Y14.035297602634593
M3
G01 X10.025687226302098Y13.999633074696101
G01 X10.09723469806666Y13.956749170457163
G01 X10.164234291539099Y13.907058885358326
G01 X10.226040764008566Y13.851040764008566
G01 X10.282058885358326Y13.789234291539099
G01 X10.331749170457163Y13.722234698066663
G01 X10.374633074696101Y13.650687226302098
G01 X10.410297602634593Y13.575280917510327
G01 X10.438399285372377Y13.496741975666293
G01 X10.458667488342746Y13.41582677371371
G01 X10.470907017671367Y13.333314569280127
G01 X10.475Y13.25
G01 X10.470907017671367Y13.166685430719873
G01 X10.458667488342746Y13.08417322628629
G01 X10.438399285372377Y13.003258024333707
G01 X10.410297602634593Y12.924719082489673
G01 X10.374633074696101Y12.849312773697902
G01 X10.331749170457163Y12.777765301933337
G01 X10.282058885358326Y12.710765708460901
G01 X10.226040764008566Y12.648959235991434
G01 X10.164234291539099Y12.592941114641674
G01 X10.097234698066663Y12.543250829542837
G01 X10.025687226302098Y12.500366925303899
G01 X9.950280917510327Y12.464702397365407
G01 X9.871741975666293Y12.436600714627623
G01 X9.79082677371371Y12.416332511657254
G01 X9.708314569280127Y12.404092982328633
G01 X9.375Y12.4
G01 X9.291685430719873Y12.404092982328633
G01 X9.22906697739059Y12.413381552441356
G01 X8.324999999999983Y11.509314575050757
G01 X8.324999999999983Y10.315075424949237
G01 X11.390075424949236Y7.250000000000009
G01 X15.184314575050758Y7.250000000000009
G01 X15.97796547028799Y8.043650895237231
G01 X15.965371775677415Y8.093927742387097
G01 X15.953852218662242Y8.171586287736352
G01 X15.95Y8.25
G01 X15.953852218662242Y8.328413712263648
G01 X15.965371775677415Y8.406072257612903
G01 X15.984447731414233Y8.48222774180357
G01 X16.01089637399097Y8.556146745892072
G01 X16.044462988521317Y8.627117389460798
G01 X16.084824310157963Y8.694456186415682
G01 X16.13159163730981Y8.757514627330917
G01 X16.184314575050763Y8.815685424949239
G01 X16.242485372669083Y8.86840836269019
G01 X16.30554381358432Y8.915175689842036
G01 X16.35Y8.94182170253906
G01 X16.35Y16.25
G01 X16.35192610933112Y16.289206856131823
G01 X16.35768588783871Y16.328036128806453
G01 X16.367223865707118Y16.366113870901785
G01 X16.380448186995487Y16.403073372946036
G01 X16.39723149426066Y16.4385586947304
G01 X16.41741215507898Y16.47222809320784
G01 X16.440795818654905Y16.503757313665457
G01 X16.46715728752538Y16.53284271247462
G01 X16.96715728752538Y17.03284271247462
G01 X16.996242686334543Y17.059204181345095
G01 X17.02777190679216Y17.08258784492102
G01 X17.0614413052696Y17.10276850573934
G01 X17.096926627053964Y17.119551813004513
G01 X17.133886129098215Y17.132776134292882
G01 X17.171963871193547Y17.14231411216129
G01 X17.210793143868177Y17.14807389066888
G01 X17.25Y17.15
G01 X19.678178297460946Y17.15
G01 X19.704824310157967Y17.19445618641568
G01 X19.751591637309815Y17.257514627330917
G01 X19.804314575050768Y17.315685424949237
G01 X19.862485372669088Y17.36840836269019
G01 X19.925543813584323Y17.415175689842037
G01 X19.970000000000006Y17.44182170253906
G01 X19.970000000000006Y19.05817829746094
G01 X19.925543813584323Y19.084824310157963
G01 X19.862485372669088Y19.13159163730981
G01 X19.804314575050768Y19.184314575050763
G01 X19.751591637309815Y19.242485372669083
G01 X19.704824310157967Y19.30554381358432
G01 X19.664462988521322Y19.3728826105392
G01 X19.630896373990975Y19.44385325410793
G01 X19.604447731414236Y19.51777225819643
G01 X19.58537177567742Y19.5939277423871
G01 X19.573852218662246Y19.67158628773635
G01 X19.570000000000004Y19.75
G01 X19.573852218662246Y19.82841371226365
G01 X19.58537177567742Y19.9060722576129
G01 X19.604447731414236Y19.98222774180357
G01 X19.630896373990975Y20.05614674589207
G01 X19.664462988521322Y20.1271173894608
G01 X19.704824310157967Y20.19445618641568
G01 X19.751591637309815Y20.257514627330917
G01 X19.804314575050768Y20.315685424949237
G01 X19.862485372669088Y20.36840836269019
G01 X19.925543813584323Y20.415175689842037
G01 X19.992882610539205Y20.455537011478683
G01 X20.063853254107933Y20.48910362600903
G01 X20.137772258196435Y20.51555226858577
G01 X20.213927742387103Y20.534628224322585
G01 X20.291586287736354Y20.54614778133776
G01 X20.370000000000005Y20.55
G01 X20.44841371226365Y20.54614778133776
G01 X20.526072257612906Y20.534628224322585
G01 X20.602227741803574Y20.51555226858577
G01 X20.60324411113297Y20.515188605824743
G01 X20.620926627053965Y20.52355181300451
G01 X20.657886129098216Y20.53677613429288
G01 X20.69596387119355Y20.546314112161287
G01 X20.734793143868178Y20.552073890668876
G01 X20.774Y20.553999999999995
G01 X21.81017829746095Y20.553999999999995
G01 X21.836824310157972Y20.598456186415678
G01 X21.88359163730982Y20.661514627330913
G01 X21.936314575050773Y20.719685424949233
G01 X21.994485372669093Y20.772408362690186
G01 X22.057543813584328Y20.819175689842034
G01 X22.12488261053921Y20.85953701147868
G01 X22.195853254107938Y20.893103626009026
G01 X22.26977225819644Y20.919552268585765
G01 X22.345927742387108Y20.93862822432258
G01 X22.42358628773636Y20.950147781337755
G01 X22.50200000000001Y20.953999999999997
G01 X22.580413712263656Y20.950147781337755
G01 X22.65807225761291Y20.93862822432258
G01 X22.73422774180358Y20.919552268585765
G01 X22.80814674589208Y20.893103626009026
G01 X22.87911738946081Y20.85953701147868
G01 X22.94645618641569Y20.819175689842034
G01 X23.009514627330926Y20.772408362690186
G01 X23.067685424949246Y20.719685424949233
G01 X23.1204083626902Y20.661514627330913
G01 X23.167175689842047Y20.598456186415678
G01 X23.207537011478692Y20.531117389460796
G01 X23.24110362600904Y20.460146745892068
G01 X23.267552268585778Y20.386227741803566
G01 X23.286628224322595Y20.310072257612898
G01 X23.298147781337768Y20.232413712263646
G01 X23.30200000000001Y20.153999999999996
G01 X23.298147781337768Y20.075586287736346
G01 X23.286628224322595Y19.997927742387095
G01 X23.267552268585778Y19.921772258196427
G01 X23.24110362600904Y19.847853254107925
G01 X23.207537011478692Y19.776882610539197
G01 X23.167175689842047Y19.709543813584315
G01 X23.1204083626902Y19.64648537266908
G01 X23.067685424949246Y19.58831457505076
G01 X23.009514627330926Y19.535591637309807
G01 X22.94645618641569Y19.48882431015796
G01 X22.87911738946081Y19.448462988521314
G01 X22.80814674589208Y19.414896373990967
G01 X22.73422774180358Y19.388447731414228
G01 X22.65807225761291Y19.36937177567741
G01 X22.58041371226366Y19.357852218662238
G01 X22.50200000000001Y19.353999999999996
G01 X22.42358628773636Y19.357852218662238
G01 X22.345927742387108Y19.36937177567741
G01 X22.26977225819644Y19.388447731414228
G01 X22.195853254107938Y19.414896373990967
G01 X22.12488261053921Y19.448462988521314
G01 X22.057543813584328Y19.48882431015796
G01 X21.994485372669093Y19.535591637309807
G01 X21.936314575050773Y19.58831457505076
G01 X21.88359163730982Y19.64648537266908
G01 X21.836824310157972Y19.709543813584315
G01 X21.81017829746095Y19.753999999999998
G01 X21.169803492600927Y19.753999999999998
G01 X21.170000000000005Y19.75
G01 X21.166147781337763Y19.67158628773635
G01 X21.15462822432259Y19.5939277423871
G01 X21.135552268585773Y19.51777225819643
G01 X21.109103626009034Y19.44385325410793
G01 X21.075537011478687Y19.3728826105392
G01 X21.035175689842042Y19.30554381358432
G01 X20.988408362690194Y19.242485372669083
G01 X20.93568542494924Y19.184314575050763
G01 X20.87751462733092Y19.13159163730981
G01 X20.814456186415686Y19.084824310157963
G01 X20.770000000000003Y19.05817829746094
G01 X20.770000000000003Y17.44182170253906
G01 X20.814456186415686Y17.415175689842037
G01 X20.87751462733092Y17.36840836269019
G01 X20.93568542494924Y17.315685424949237
G01 X20.988408362690194Y17.257514627330917
G01 X21.035175689842042Y17.19445618641568
G01 X21.075537011478687Y17.1271173894608
G01 X21.109103626009034Y17.05614674589207
G01 X21.135552268585773Y16.98222774180357
G01 X21.15462822432259Y16.9060722576129
G01 X21.166147781337763Y16.82841371226365
G01 X21.170000000000005Y16.75
G01 X21.166147781337763Y16.67158628773635
G01 X21.15462822432259Y16.5939277423871
G01 X21.135552268585773Y16.51777225819643
G01 X21.109103626009034Y16.44385325410793
G01 X21.075537011478687Y16.3728826105392
G01 X21.035175689842042Y16.30554381358432
G01 X20.988408362690194Y16.242485372669083
G01 X20.93568542494924Y16.184314575050763
G01 X20.87751462733092Y16.13159163730981
G01 X20.814456186415686Y16.084824310157963
G01 X20.747117389460804Y16.044462988521317
G01 X20.676146745892076Y16.01089637399097
G01 X20.602227741803574Y15.984447731414233
G01 X20.526072257612906Y15.965371775677415
G01 X20.448413712263655Y15.953852218662242
G01 X20.370000000000005Y15.95
G01 X20.291586287736354Y15.953852218662242
G01 X20.213927742387103Y15.965371775677415
G01 X20.137772258196435Y15.984447731414233
G01 X20.063853254107933Y16.01089637399097
G01 X19.992882610539205Y16.044462988521317
G01 X19.925543813584323Y16.084824310157963
G01 X19.862485372669088Y16.13159163730981
G01 X19.804314575050768Y16.184314575050763
G01 X19.751591637309815Y16.242485372669083
G01 X19.704824310157967Y16.30554381358432
G01 X19.678178297460946Y16.35
G01 X17.41568542494924Y16.35
G01 X17.15Y16.08431457505076
G01 X17.15Y8.94182170253906
G01 X17.19445618641568Y8.915175689842037
G01 X17.257514627330917Y8.86840836269019
G01 X17.315685424949237Y8.815685424949239
G01 X17.36840836269019Y8.757514627330917
G01 X17.415175689842037Y8.694456186415682
G01 X17.455537011478683Y8.627117389460798
G01 X17.48910362600903Y8.556146745892072
G01 X17.51555226858577Y8.48222774180357
G01 X17.534628224322585Y8.406072257612903
G01 X17.54614778133776Y8.328413712263648
G01 X17.55Y8.25
G01 X17.54614778133776Y8.171586287736352
G01 X17.534628224322585Y8.093927742387097
G01 X17.51555226858577Y8.01777225819643
G01 X17.48910362600903Y7.943853254107928
G01 X17.455537011478683Y7.872882610539202
G01 X17.415175689842037Y7.805543813584318
G01 X17.36840836269019Y7.742485372669083
G01 X17.315685424949237Y7.684314575050762
G01 X17.257514627330917Y7.6315916373098105
G01 X17.19445618641568Y7.5848243101579635
G01 X17.1271173894608Y7.544462988521316
G01 X17.05614674589207Y7.51089637399097
G01 X16.98222774180357Y7.484447731414233
G01 X16.9060722576129Y7.465371775677416
G01 X16.82841371226365Y7.4538522186622425
G01 X16.75Y7.45
G01 X16.67158628773635Y7.4538522186622425
G01 X16.5939277423871Y7.465371775677416
G01 X16.543650895237224Y7.47796547028799
G01 X15.632842712474613Y6.567157287525388
G01 X15.60375731366545Y6.540795818654912
G01 X15.572228093207833Y6.517412155078989
G01 X15.545237678667494Y6.501234723172996
G01 X15.538558694730394Y6.497231494260666
G01 X15.538558694730392Y6.4972314942606655
G01 X15.503073372946028Y6.480448186995493
G01 X15.466113870901777Y6.467223865707124
G01 X15.447105510865406Y6.462462519383392
G01 X15.428036128806445Y6.457685887838716
G01 X15.38920685613182Y6.451926109331129
G01 X15.349999999999994Y6.450000000000008
G01 X15.349999999999993Y6.450000000000008
G01 X11.224390000000001Y6.450000000000008
G01 X11.22439Y6.450000000000008
G01 X11.185183143868175Y6.451926109331129
G01 X11.146353871193549Y6.457685887838716
G01 X11.127284489134588Y6.462462519383392
G01 X11.108276129098217Y6.467223865707124
G01 X11.071316627053966Y6.480448186995493
G01 X11.035831305269602Y6.4972314942606655
G01 X11.0358313052696Y6.497231494260666
G01 X11.0291523213325Y6.501234723172996
G01 X11.00216190679216Y6.517412155078989
G01 X10.985877919869765Y6.52948918287547
G01 X10.970632686334541Y6.540795818654914
G01 X10.957588019623257Y6.552618815399484
G01 X10.941547287525381Y6.567157287525388
G01 X7.642157287525365Y9.866547287525377
G01 X7.6421572875253645Y9.866547287525378
G01 X7.642157287525364Y9.866547287525378
G01 X7.637256048039992Y9.871954971967837
G01 X7.615795818654889Y9.895632686334537
G01 X7.592412155078966Y9.927161906792154
G01 X7.589058873069878Y9.932756519832214
G01 X7.572231494260641Y9.960831305269597
G01 X7.555448186995468Y9.996316627053961
G01 X7.5516838381138784Y10.006837277388337
G01 X7.5422238657071Y10.03327612909821
G01 X7.537447234162424Y10.052345511157172
G01 X7.53268588783869Y10.071353871193546
G01 X7.526926109331104Y10.110183143868172
G01 X7.525189425732839Y10.145534150627498
G01 X7.524999999999983Y10.149389999999995
G01 X7.524999999999983Y10.149389999999997
G01 X7.524999999999983Y11.674999999999997
G01 X7.524999999999983Y11.674999999999999
G01 X7.525189425732839Y11.678855849372496
G01 X7.526926109331104Y11.714206856131822
G01 X7.53268588783869Y11.753036128806448
G01 X7.537447234162424Y11.772044488842822
G01 X7.5422238657071Y11.791113870901784
G01 X7.5516838381138784Y11.817552722611657
G01 X7.555448186995468Y11.828073372946033
G01 X7.572231494260641Y11.863558694730397
G01 X7.589058873069878Y11.89163348016778
G01 X7.592412155078966Y11.89722809320784
G01 X7.615795818654889Y11.928757313665457
G01 X7.637256048039992Y11.952435028032157
G01 X7.642157287525364Y11.957842712474616
G01 X7.6421572875253645Y11.957842712474616
G01 X7.642157287525365Y11.957842712474617
G01 X8.595909609707498Y12.911595034656742
G01 X8.589702397365407Y12.924719082489673
G01 X8.561600714627623Y13.003258024333707
G01 X8.541332511657254Y13.08417322628629
G01 X8.529092982328633Y13.166685430719873
G01 X8.525Y13.25
G01 X8.529092982328633Y13.333314569280127
G01 X8.541332511657254Y13.41582677371371
G01 X8.561600714627623Y13.496741975666293
G01 X8.589702397365405Y13.575280917510327
G01 X8.625366925303899Y13.650687226302098
G01 X8.668250829542837Y13.72223469806666
G01 X8.717941114641674Y13.789234291539099
G01 X8.773959235991434Y13.851040764008566
G01 X8.835765708460901Y13.907058885358326
G01 X8.902765301933337Y13.956749170457163
G01 X8.974312773697902Y13.999633074696101
G01 X9.049719082489673Y14.035297602634593
G01 X9.128258024333707Y14.063399285372377
G01 X9.20917322628629Y14.083667488342746
G01 X9.291685430719873Y14.095907017671367
G01 X9.625Y14.1
G01 X9.708314569280127Y14.095907017671367
G01 X9.79082677371371Y14.083667488342746
G01 X9.871741975666293Y14.063399285372377
G01 X9.950280917510327Y14.035297602634593
G01 X9.950280917510327Y14.035297602634593
M5
G01 X9.291685430719873Y11.595907017671367
M3
G01 X9.625Y11.6
G01 X9.708314569280127Y11.595907017671367
G01 X9.79082677371371Y11.583667488342746
G01 X9.871741975666293Y11.563399285372377
G01 X9.950280917510327Y11.535297602634593
G01 X10.025687226302098Y11.499633074696101
G01 X10.09723469806666Y11.456749170457163
G01 X10.164234291539099Y11.407058885358326
G01 X10.226040764008566Y11.351040764008566
G01 X10.282058885358326Y11.289234291539099
G01 X10.331749170457163Y11.222234698066663
G01 X10.374633074696101Y11.150687226302098
G01 X10.410297602634593Y11.075280917510327
G01 X10.438399285372377Y10.996741975666293
G01 X10.458667488342746Y10.91582677371371
G01 X10.470907017671367Y10.833314569280127
G01 X10.475Y10.75
G01 X10.470907017671367Y10.666685430719873
G01 X10.458667488342746Y10.58417322628629
G01 X10.438399285372377Y10.503258024333707
G01 X10.410297602634593Y10.424719082489673
G01 X10.4040903902925Y10.411595034656736
G01 X12.165685424949237Y8.65
G01 X13.058178297460941Y8.65
G01 X13.084824310157963Y8.694456186415682
G01 X13.13159163730981Y8.757514627330917
G01 X13.184314575050761Y8.815685424949239
G01 X13.242485372669083Y8.86840836269019
G01 X13.305543813584318Y8.915175689842036
G01 X13.372882610539202Y8.955537011478684
G01 X13.443853254107928Y8.98910362600903
G01 X13.51777225819643Y9.015552268585767
G01 X13.593927742387097Y9.034628224322585
G01 X13.671586287736352Y9.046147781337758
G01 X13.75Y9.05
G01 X13.828413712263648Y9.046147781337758
G01 X13.906072257612903Y9.034628224322585
G01 X13.956349104762769Y9.02203452971201
G01 X14.899999999999983Y9.965685424949234
G01 X14.899999999999983Y17.680000000000007
G01 X14.901926109331104Y17.719206856131834
G01 X14.90768588783869Y17.75803612880646
G01 X14.917223865707099Y17.79611387090179
G01 X14.930448186995468Y17.833073372946043
G01 X14.947231494260642Y17.868558694730407
G01 X14.967412155078966Y17.90222809320785
G01 X14.990795818654888Y17.933757313665467
G01 X15.017157287525364Y17.962842712474625
G01 X19.597965470287992Y22.543650895237228
G01 X19.58537177567742Y22.5939277423871
G01 X19.573852218662246Y22.67158628773635
G01 X19.570000000000004Y22.75
G01 X19.573852218662246Y22.82841371226365
G01 X19.58537177567742Y22.9060722576129
G01 X19.604447731414236Y22.98222774180357
G01 X19.630896373990975Y23.05614674589207
G01 X19.664462988521322Y23.1271173894608
G01 X19.704824310157967Y23.19445618641568
G01 X19.751591637309815Y23.257514627330917
G01 X19.804314575050768Y23.315685424949237
G01 X19.862485372669088Y23.36840836269019
G01 X19.925543813584323Y23.415175689842037
G01 X19.970000000000006Y23.44182170253906
G01 X19.970000000000006Y25.05817829746094
G01 X19.925543813584323Y25.084824310157963
G01 X19.862485372669088Y25.13159163730981
G01 X19.804314575050768Y25.184314575050763
G01 X19.751591637309815Y25.242485372669083
G01 X19.704824310157967Y25.30554381358432
G01 X19.664462988521322Y25.3728826105392
G01 X19.630896373990975Y25.44385325410793
G01 X19.604447731414236Y25.51777225819643
G01 X19.58537177567742Y25.5939277423871
G01 X19.573852218662246Y25.67158628773635
G01 X19.570000000000004Y25.75
G01 X19.573852218662246Y25.82841371226365
G01 X19.58537177567742Y25.9060722576129
G01 X19.604447731414236Y25.98222774180357
G01 X19.630896373990975Y26.05614674589207
G01 X19.664462988521322Y26.1271173894608
G01 X19.704824310157967Y26.19445618641568
G01 X19.751591637309815Y26.257514627330917
G01 X19.804314575050768Y26.315685424949237
G01 X19.862485372669088Y26.36840836269019
G01 X19.925543813584323Y26.415175689842037
G01 X19.992882610539205Y26.455537011478683
G01 X20.063853254107933Y26.48910362600903
G01 X20.137772258196435Y26.51555226858577
G01 X20.213927742387103Y26.534628224322585
G01 X20.291586287736354Y26.54614778133776
G01 X20.370000000000005Y26.55
G01 X20.44841371226365Y26.54614778133776
G01 X20.526072257612906Y26.534628224322585
G01 X20.602227741803574Y26.51555226858577
G01 X20.676146745892076Y26.48910362600903
G01 X20.747117389460804Y26.455537011478683
G01 X20.814456186415686Y26.415175689842037
G01 X20.87751462733092Y26.36840836269019
G01 X20.93568542494924Y26.315685424949237
G01 X20.988408362690194Y26.257514627330917
G01 X21.035175689842042Y26.19445618641568
G01 X21.061821702539063Y26.15
G01 X21.8149733129304Y26.15
G01 X21.836824310157972Y26.186456186415686
G01 X21.88359163730982Y26.24951462733092
G01 X21.936314575050773Y26.30768542494924
G01 X21.994485372669093Y26.360408362690194
G01 X22.057543813584328Y26.407175689842042
G01 X22.12488261053921Y26.447537011478687
G01 X22.195853254107938Y26.481103626009034
G01 X22.26977225819644Y26.507552268585773
G01 X22.345927742387108Y26.52662822432259
G01 X22.42358628773636Y26.538147781337763
G01 X22.50200000000001Y26.542000000000005
G01 X22.580413712263656Y26.538147781337763
G01 X22.65807225761291Y26.52662822432259
G01 X22.73422774180358Y26.507552268585773
G01 X22.80814674589208Y26.481103626009034
G01 X22.87911738946081Y26.447537011478687
G01 X22.94645618641569Y26.407175689842042
G01 X23.009514627330926Y26.360408362690194
G01 X23.067685424949246Y26.30768542494924
G01 X23.1204083626902Y26.24951462733092
G01 X23.167175689842047Y26.186456186415686
G01 X23.207537011478692Y26.119117389460804
G01 X23.24110362600904Y26.048146745892076
G01 X23.267552268585778Y25.974227741803574
G01 X23.286628224322595Y25.898072257612906
G01 X23.298147781337768Y25.820413712263655
G01 X23.30200000000001Y25.742000000000004
G01 X23.298147781337768Y25.663586287736354
G01 X23.286628224322595Y25.585927742387103
G01 X23.267552268585778Y25.509772258196435
G01 X23.24110362600904Y25.435853254107933
G01 X23.207537011478692Y25.364882610539205
G01 X23.167175689842047Y25.297543813584323
G01 X23.1204083626902Y25.234485372669088
G01 X23.067685424949246Y25.176314575050768
G01 X23.009514627330926Y25.123591637309815
G01 X22.94645618641569Y25.076824310157967
G01 X22.87911738946081Y25.036462988521322
G01 X22.80814674589208Y25.002896373990975
G01 X22.73422774180358Y24.976447731414236
G01 X22.65807225761291Y24.95737177567742
G01 X22.58041371226366Y24.945852218662246
G01 X22.50200000000001Y24.942000000000004
G01 X22.42358628773636Y24.945852218662246
G01 X22.345927742387108Y24.95737177567742
G01 X22.26977225819644Y24.976447731414236
G01 X22.195853254107938Y25.002896373990975
G01 X22.12488261053921Y25.036462988521322
G01 X22.057543813584328Y25.076824310157967
G01 X21.994485372669093Y25.123591637309815
G01 X21.936314575050773Y25.176314575050768
G01 X21.88359163730982Y25.234485372669088
G01 X21.836824310157972Y25.297543813584323
G01 X21.805383281991496Y25.35
G01 X21.061821702539063Y25.35
G01 X21.035175689842042Y25.30554381358432
G01 X20.988408362690194Y25.242485372669083
G01 X20.93568542494924Y25.184314575050763
G01 X20.87751462733092Y25.13159163730981
G01 X20.814456186415686Y25.084824310157963
G01 X20.770000000000003Y25.05817829746094
G01 X20.770000000000003Y23.44182170253906
G01 X20.814456186415686Y23.415175689842037
G01 X20.87751462733092Y23.36840836269019
G01 X20.93568542494924Y23.315685424949237
G01 X20.988408362690194Y23.257514627330917
G01 X21.035175689842042Y23.19445618641568
G01 X21.075537011478687Y23.1271173894608
G01 X21.109103626009034Y23.05614674589207
G01 X21.135552268585773Y22.98222774180357
G01 X21.15462822432259Y22.9060722576129
G01 X21.166147781337763Y22.82841371226365
G01 X21.170000000000005Y22.75
G01 X21.166147781337763Y22.67158628773635
G01 X21.15462822432259Y22.5939277423871
G01 X21.135552268585773Y22.51777225819643
G01 X21.109103626009034Y22.44385325410793
G01 X21.075537011478687Y22.3728826105392
G01 X21.035175689842042Y22.30554381358432
G01 X20.988408362690194Y22.242485372669083
G01 X20.93568542494924Y22.184314575050763
G01 X20.87751462733092Y22.13159163730981
G01 X20.814456186415686Y22.084824310157963
G01 X20.747117389460804Y22.044462988521317
G01 X20.676146745892076Y22.01089637399097
G01 X20.602227741803574Y21.98444773141423
G01 X20.526072257612906Y21.965371775677415
G01 X20.448413712263655Y21.95385221866224
G01 X20.370000000000005Y21.95
G01 X20.291586287736354Y21.95385221866224
G01 X20.213927742387103Y21.965371775677415
G01 X20.16365089523723Y21.97796547028799
G01 X15.699999999999983Y17.51431457505077
G01 X15.699999999999983Y9.799999999999999
G01 X15.699999999999983Y9.799999999999997
G01 X15.698073890668862Y9.760793143868172
G01 X15.692314112161275Y9.721963871193546
G01 X15.682776134292867Y9.683886129098212
G01 X15.669551813004498Y9.646926627053961
G01 X15.661615128544762Y9.630145917655934
G01 X15.652768505739326Y9.611441305269599
G01 X15.644683422480442Y9.5979521587834
G01 X15.632587844921002Y9.577771906792156
G01 X15.615242695243317Y9.554384679795735
G01 X15.60920418134508Y9.54624268633454
G01 X15.582842712474603Y9.517157287525379
G01 X14.522034529712009Y8.456349104762776
G01 X14.534628224322585Y8.406072257612903
G01 X14.546147781337758Y8.328413712263648
G01 X14.55Y8.25
G01 X14.546147781337758Y8.171586287736352
G01 X14.534628224322585Y8.093927742387097
G01 X14.515552268585767Y8.01777225819643
G01 X14.48910362600903Y7.943853254107928
G01 X14.455537011478684Y7.872882610539202
G01 X14.415175689842036Y7.805543813584318
G01 X14.36840836269019Y7.742485372669083
G01 X14.315685424949239Y7.684314575050762
G01 X14.257514627330917Y7.6315916373098105
G01 X14.194456186415682Y7.5848243101579635
G01 X14.127117389460798Y7.544462988521316
G01 X14.056146745892072Y7.51089637399097
G01 X13.98222774180357Y7.484447731414233
G01 X13.906072257612903Y7.465371775677416
G01 X13.828413712263648Y7.4538522186622425
G01 X13.75Y7.45
G01 X13.671586287736352Y7.4538522186622425
G01 X13.593927742387098Y7.465371775677416
G01 X13.51777225819643Y7.484447731414233
G01 X13.443853254107928Y7.51089637399097
G01 X13.372882610539202Y7.544462988521316
G01 X13.305543813584318Y7.5848243101579635
G01 X13.242485372669083Y7.6315916373098105
G01 X13.184314575050761Y7.684314575050762
G01 X13.13159163730981Y7.742485372669083
G01 X13.084824310157964Y7.805543813584318
G01 X13.058178297460941Y7.85
G01 X12.0Y7.85
G01 X11.960793143868175Y7.851926109331121
G01 X11.92196387119355Y7.8576858878387075
G01 X11.883886129098215Y7.867223865707117
G01 X11.846926627053964Y7.880448186995485
G01 X11.8114413052696Y7.897231494260658
G01 X11.77777190679216Y7.917412155078982
G01 X11.746242686334542Y7.940795818654905
G01 X11.717157287525382Y7.967157287525381
G01 X9.770933022609407Y9.913381552441356
G01 X9.708314569280127Y9.904092982328633
G01 X9.375Y9.9
G01 X9.291685430719873Y9.904092982328633
G01 X9.20917322628629Y9.916332511657254
G01 X9.128258024333707Y9.936600714627623
G01 X9.049719082489673Y9.964702397365407
G01 X8.974312773697902Y10.000366925303899
G01 X8.90276530193334Y10.043250829542837
G01 X8.835765708460901Y10.092941114641674
G01 X8.773959235991434Y10.148959235991434
G01 X8.717941114641674Y10.210765708460901
G01 X8.668250829542837Y10.277765301933337
G01 X8.625366925303899Y10.349312773697902
G01 X8.589702397365407Y10.424719082489673
G01 X8.561600714627623Y10.503258024333707
G01 X8.541332511657254Y10.58417322628629
G01 X8.529092982328633Y10.666685430719873
G01 X8.525Y10.75
G01 X8.529092982328633Y10.833314569280127
G01 X8.541332511657254Y10.91582677371371
G01 X8.561600714627623Y10.996741975666293
G01 X8.589702397365405Y11.075280917510327
G01 X8.625366925303899Y11.150687226302098
G01 X8.668250829542837Y11.22223469806666
G01 X8.717941114641674Y11.289234291539099
G01 X8.773959235991434Y11.351040764008566
G01 X8.835765708460901Y11.407058885358326
G01 X8.902765301933337Y11.456749170457163
G01 X8.974312773697902Y11.499633074696101
G01 X9.049719082489673Y11.535297602634593
G01 X9.128258024333707Y11.563399285372377
G01 X9.20917322628629Y11.583667488342746
G01 X9.291685430719873Y11.595907017671367
G01 X9.291685430719873Y11.595907017671367
M5
G01 X22.73422774180358Y16.848447731414236
M3
G01 X22.65807225761291Y16.82937177567742
G01 X22.58041371226366Y16.817852218662246
G01 X22.50200000000001Y16.814000000000004
G01 X22.42358628773636Y16.817852218662246
G01 X22.345927742387108Y16.82937177567742
G01 X22.26977225819644Y16.848447731414236
G01 X22.195853254107938Y16.874896373990975
G01 X22.12488261053921Y16.908462988521322
G01 X22.057543813584328Y16.948824310157967
G01 X21.994485372669093Y16.995591637309815
G01 X21.936314575050773Y17.048314575050767
G01 X21.88359163730982Y17.106485372669088
G01 X21.836824310157972Y17.169543813584323
G01 X21.796462988521327Y17.236882610539205
G01 X21.76289637399098Y17.307853254107933
G01 X21.73644773141424Y17.381772258196435
G01 X21.717371775677424Y17.457927742387103
G01 X21.70585221866225Y17.535586287736354
G01 X21.70200000000001Y17.614000000000004
G01 X21.70585221866225Y17.692413712263654
G01 X21.717371775677424Y17.770072257612906
G01 X21.73644773141424Y17.846227741803574
G01 X21.76289637399098Y17.920146745892076
G01 X21.796462988521327Y17.991117389460804
G01 X21.836824310157972Y18.058456186415686
G01 X21.88359163730982Y18.12151462733092
G01 X21.936314575050773Y18.17968542494924
G01 X21.994485372669093Y18.232408362690194
G01 X22.057543813584328Y18.27917568984204
G01 X22.12488261053921Y18.319537011478687
G01 X22.195853254107938Y18.353103626009034
G01 X22.26977225819644Y18.379552268585773
G01 X22.345927742387108Y18.39862822432259
G01 X22.42358628773636Y18.410147781337763
G01 X22.50200000000001Y18.414000000000005
G01 X22.580413712263656Y18.410147781337763
G01 X22.65807225761291Y18.39862822432259
G01 X22.708349104762775Y18.386034529712017
G01 X23.50199999999999Y19.179685424949245
G01 X23.50199999999999Y21.636314575050765
G01 X22.708349104762778Y22.429965470287986
G01 X22.65807225761291Y22.417371775677413
G01 X22.58041371226366Y22.40585221866224
G01 X22.50200000000001Y22.401999999999997
G01 X22.42358628773636Y22.40585221866224
G01 X22.345927742387108Y22.417371775677413
G01 X22.26977225819644Y22.43644773141423
G01 X22.195853254107938Y22.46289637399097
G01 X22.12488261053921Y22.496462988521316
G01 X22.057543813584328Y22.53682431015796
G01 X21.994485372669093Y22.58359163730981
G01 X21.936314575050773Y22.63631457505076
G01 X21.88359163730982Y22.69448537266908
G01 X21.836824310157972Y22.757543813584316
G01 X21.796462988521327Y22.8248826105392
G01 X21.76289637399098Y22.895853254107926
G01 X21.73644773141424Y22.96977225819643
G01 X21.717371775677424Y23.045927742387097
G01 X21.70585221866225Y23.123586287736348
G01 X21.70200000000001Y23.201999999999998
G01 X21.70585221866225Y23.28041371226365
G01 X21.717371775677424Y23.3580722576129
G01 X21.73644773141424Y23.434227741803568
G01 X21.76289637399098Y23.50814674589207
G01 X21.796462988521327Y23.579117389460798
G01 X21.836824310157972Y23.64645618641568
G01 X21.88359163730982Y23.709514627330915
G01 X21.936314575050773Y23.767685424949235
G01 X21.994485372669093Y23.820408362690188
G01 X22.057543813584328Y23.867175689842036
G01 X22.12488261053921Y23.90753701147868
G01 X22.195853254107938Y23.941103626009028
G01 X22.26977225819644Y23.967552268585766
G01 X22.345927742387108Y23.986628224322583
G01 X22.42358628773636Y23.998147781337757
G01 X22.50200000000001Y24.002
G01 X22.580413712263656Y23.998147781337757
G01 X22.65807225761291Y23.986628224322583
G01 X22.73422774180358Y23.967552268585766
G01 X22.80814674589208Y23.941103626009028
G01 X22.87911738946081Y23.90753701147868
G01 X22.94645618641569Y23.867175689842036
G01 X23.009514627330926Y23.820408362690188
G01 X23.067685424949246Y23.767685424949235
G01 X23.1204083626902Y23.709514627330915
G01 X23.167175689842047Y23.64645618641568
G01 X23.207537011478692Y23.579117389460798
G01 X23.24110362600904Y23.50814674589207
G01 X23.267552268585778Y23.434227741803568
G01 X23.286628224322595Y23.3580722576129
G01 X23.298147781337768Y23.28041371226365
G01 X23.30200000000001Y23.201999999999998
G01 X23.298147781337768Y23.123586287736348
G01 X23.286628224322595Y23.045927742387097
G01 X23.27403452971202Y22.995650895237222
G01 X24.18484271247461Y22.084842712474625
G01 X24.21120418134508Y22.055757313665463
G01 X24.234587844921005Y22.024228093207846
G01 X24.254768505739328Y21.990558694730407
G01 X24.262705190199064Y21.973777985332376
G01 X24.271551813004503Y21.95507337294604
G01 X24.28004770232106Y21.93132895297046
G01 X24.28477613429287Y21.91811387090179
G01 X24.287165407306Y21.908575358352856
G01 X24.29431411216128Y21.880036128806456
G01 X24.300073890668866Y21.84120685613183
G01 X24.301999999999985Y21.802000000000007
G01 X24.301999999999985Y21.802000000000003
G01 X24.301999999999985Y19.014000000000014
G01 X24.301999999999985Y19.01400000000001
G01 X24.301999999999985Y13.426000000000005
G01 X24.301999999999985Y13.426000000000002
G01 X24.300073890668866Y13.386793143868177
G01 X24.298880741014607Y13.378749582261445
G01 X24.29431411216128Y13.347963871193555
G01 X24.284776134292873Y13.30988612909822
G01 X24.271551813004503Y13.27292662705397
G01 X24.25476850573933Y13.237441305269606
G01 X24.23458784492101Y13.203771906792165
G01 X24.211204181345085Y13.172242686334547
G01 X24.18484271247461Y13.143157287525385
G01 X23.27403452971202Y12.232349104762777
G01 X23.286628224322595Y12.1820722576129
G01 X23.298147781337768Y12.104413712263645
G01 X23.30200000000001Y12.025999999999996
G01 X23.298147781337768Y11.947586287736348
G01 X23.286628224322595Y11.869927742387093
G01 X23.267552268585778Y11.793772258196427
G01 X23.24110362600904Y11.719853254107925
G01 X23.207537011478692Y11.648882610539198
G01 X23.167175689842047Y11.581543813584315
G01 X23.1204083626902Y11.51848537266908
G01 X23.067685424949246Y11.460314575050758
G01 X23.009514627330926Y11.407591637309807
G01 X22.94645618641569Y11.36082431015796
G01 X22.902000000000008Y11.334178297460936
G01 X22.902000000000008Y6.0020000000000095
G01 X22.90007389066889Y5.962793143868185
G01 X22.8943141121613Y5.923963871193558
G01 X22.884776134292892Y5.885886129098225
G01 X22.871551813004523Y5.848926627053974
G01 X22.85476850573935Y5.813441305269611
G01 X22.834587844921028Y5.779771906792169
G01 X22.811204181345104Y5.748242686334551
G01 X22.784842712474628Y5.71915728752539
G01 X20.522034529712013Y3.456349104762774
G01 X20.534628224322585Y3.406072257612903
G01 X20.54614778133776Y3.3284137122636483
G01 X20.55Y3.25
G01 X20.54614778133776Y3.1715862877363517
G01 X20.534628224322585Y3.0939277423870974
G01 X20.51555226858577Y3.0177722581964304
G01 X20.48910362600903Y2.9438532541079283
G01 X20.455537011478683Y2.872882610539202
G01 X20.415175689842037Y2.8055438135843183
G01 X20.36840836269019Y2.7424853726690834
G01 X20.315685424949237Y2.684314575050762
G01 X20.257514627330917Y2.6315916373098105
G01 X20.19445618641568Y2.5848243101579635
G01 X20.1271173894608Y2.544462988521316
G01 X20.05614674589207Y2.5108963739909704
G01 X19.98222774180357Y2.484447731414233
G01 X19.9060722576129Y2.465371775677416
G01 X19.82841371226365Y2.4538522186622425
G01 X19.75Y2.45
G01 X19.67158628773635Y2.4538522186622425
G01 X19.5939277423871Y2.465371775677416
G01 X19.51777225819643Y2.4844477314142326
G01 X19.44385325410793Y2.5108963739909704
G01 X19.3728826105392Y2.5444629885213157
G01 X19.30554381358432Y2.5848243101579635
G01 X19.242485372669083Y2.6315916373098105
G01 X19.184314575050763Y2.6843145750507618
G01 X19.13159163730981Y2.7424853726690834
G01 X19.084824310157963Y2.8055438135843183
G01 X19.05817829746094Y2.85
G01 X17.44182170253906Y2.85
G01 X17.415175689842037Y2.8055438135843183
G01 X17.36840836269019Y2.7424853726690834
G01 X17.315685424949237Y2.684314575050762
G01 X17.257514627330917Y2.6315916373098105
G01 X17.19445618641568Y2.5848243101579635
G01 X17.1271173894608Y2.544462988521316
G01 X17.05614674589207Y2.5108963739909704
G01 X16.98222774180357Y2.484447731414233
G01 X16.9060722576129Y2.465371775677416
G01 X16.82841371226365Y2.4538522186622425
G01 X16.75Y2.45
G01 X16.67158628773635Y2.4538522186622425
G01 X16.5939277423871Y2.465371775677416
G01 X16.51777225819643Y2.4844477314142326
G01 X16.44385325410793Y2.5108963739909704
G01 X16.3728826105392Y2.5444629885213157
G01 X16.30554381358432Y2.5848243101579635
G01 X16.242485372669083Y2.6315916373098105
G01 X16.184314575050763Y2.6843145750507618
G01 X16.13159163730981Y2.7424853726690834
G01 X16.084824310157963Y2.8055438135843183
G01 X16.05817829746094Y2.85
G01 X14.441821702539059Y2.85
G01 X14.415175689842036Y2.8055438135843183
G01 X14.36840836269019Y2.7424853726690834
G01 X14.315685424949239Y2.684314575050762
G01 X14.257514627330917Y2.6315916373098105
G01 X14.194456186415682Y2.5848243101579635
G01 X14.127117389460798Y2.544462988521316
G01 X14.056146745892072Y2.5108963739909704
G01 X13.98222774180357Y2.484447731414233
G01 X13.906072257612903Y2.465371775677416
G01 X13.828413712263648Y2.4538522186622425
G01 X13.75Y2.45
G01 X13.671586287736352Y2.4538522186622425
G01 X13.593927742387098Y2.465371775677416
G01 X13.51777225819643Y2.4844477314142326
G01 X13.443853254107928Y2.5108963739909704
G01 X13.372882610539202Y2.5444629885213157
G01 X13.305543813584318Y2.5848243101579635
G01 X13.242485372669083Y2.6315916373098105
G01 X13.184314575050761Y2.6843145750507618
G01 X13.13159163730981Y2.7424853726690834
G01 X13.084824310157964Y2.8055438135843183
G01 X13.058178297460941Y2.85
G01 X11.995961999999992Y2.85
G01 X11.956755143868167Y2.8519261093311212
G01 X11.91792587119354Y2.857685887838708
G01 X11.879848129098207Y2.8672238657071163
G01 X11.842888627053956Y2.880448186995485
G01 X11.807403305269592Y2.897231494260658
G01 X11.77373390679215Y2.9174121550789818
G01 X11.742204686334533Y2.9407958186549052
G01 X11.713119287525373Y2.967157287525381
G01 X5.642157287525364Y9.03811928752539
G01 X5.615795818654888Y9.06720468633455
G01 X5.592412155078964Y9.098733906792168
G01 X5.572231494260641Y9.132403305269609
G01 X5.555448186995468Y9.167888627053973
G01 X5.5422238657071Y9.204848129098224
G01 X5.53268588783869Y9.242925871193558
G01 X5.526926109331104Y9.281755143868184
G01 X5.524999999999983Y9.320962000000009
G01 X5.524999999999983Y18.174999999999997
G01 X5.526926109331104Y18.21420685613182
G01 X5.53268588783869Y18.25303612880645
G01 X5.5422238657071Y18.291113870901782
G01 X5.555448186995468Y18.328073372946033
G01 X5.572231494260641Y18.363558694730397
G01 X5.578170466747997Y18.373467271710282
G01 X5.592412155078965Y18.39722809320784
G01 X5.615795818654888Y18.428757313665457
G01 X5.636457995367115Y18.45155451259596
G01 X5.642157287525364Y18.457842712474616
G01 X5.642157287525373Y18.457842712474623
G01 X8.578937038191066Y21.394622463140305
G01 X8.564702397365407Y21.424719082489673
G01 X8.536600714627623Y21.503258024333707
G01 X8.516332511657254Y21.58417322628629
G01 X8.504092982328633Y21.666685430719873
G01 X8.5Y21.75
G01 X8.504092982328633Y21.833314569280127
G01 X8.516332511657254Y21.915826773713707
G01 X8.536600714627623Y21.996741975666293
G01 X8.564702397365405Y22.075280917510327
G01 X8.600366925303899Y22.150687226302097
G01 X8.643250829542836Y22.22223469806666
G01 X8.692941114641673Y22.2892342915391
G01 X8.748959235991434Y22.351040764008566
G01 X8.8107657084609Y22.407058885358325
G01 X8.877765301933337Y22.456749170457165
G01 X8.949312773697901Y22.499633074696103
G01 X9.024719082489673Y22.535297602634593
G01 X9.103258024333707Y22.563399285372377
G01 X9.18417322628629Y22.583667488342744
G01 X9.266685430719873Y22.59590701767137
G01 X9.65Y22.6
G01 X9.733314569280127Y22.59590701767137
G01 X9.81582677371371Y22.583667488342744
G01 X9.896741975666293Y22.563399285372377
G01 X9.975280917510327Y22.535297602634593
G01 X10.050687226302099Y22.499633074696103
G01 X10.122234698066661Y22.456749170457165
G01 X10.1892342915391Y22.407058885358325
G01 X10.251040764008566Y22.351040764008566
G01 X10.307058885358327Y22.2892342915391
G01 X10.356749170457164Y22.22223469806666
G01 X10.399633074696101Y22.150687226302097
G01 X10.435297602634593Y22.075280917510327
G01 X10.463399285372377Y21.996741975666293
G01 X10.483667488342746Y21.91582677371371
G01 X10.495907017671367Y21.833314569280127
G01 X10.5Y21.75
G01 X10.495907017671367Y21.666685430719873
G01 X10.483667488342746Y21.584173226286293
G01 X10.463399285372377Y21.503258024333707
G01 X10.435297602634593Y21.424719082489673
G01 X10.399633074696101Y21.349312773697903
G01 X10.356749170457164Y21.27776530193334
G01 X10.307058885358327Y21.2107657084609
G01 X10.251040764008566Y21.148959235991434
G01 X10.1892342915391Y21.092941114641672
G01 X10.122234698066663Y21.043250829542835
G01 X10.050687226302099Y21.000366925303897
G01 X9.975280917510327Y20.964702397365407
G01 X9.896741975666293Y20.936600714627623
G01 X9.81582677371371Y20.916332511657256
G01 X9.733314569280127Y20.90409298232863
G01 X9.35Y20.9
G01 X9.266685430719873Y20.90409298232863
G01 X9.22583760921899Y20.910152184269755
G01 X6.324999999999983Y18.00931457505076
G01 X6.324999999999983Y9.486647424949245
G01 X12.161647424949228Y3.65
G01 X13.05817829746094Y3.65
G01 X13.084824310157963Y3.6944561864156817
G01 X13.13159163730981Y3.757514627330916
G01 X13.184314575050761Y3.815685424949238
G01 X13.242485372669083Y3.8684083626901895
G01 X13.305543813584318Y3.9151756898420365
G01 X13.372882610539202Y3.955537011478684
G01 X13.443853254107928Y3.989103626009029
G01 X13.51777225819643Y4.015552268585767
G01 X13.593927742387097Y4.034628224322584
G01 X13.671586287736352Y4.0461477813377575
G01 X13.75Y4.05
G01 X13.828413712263648Y4.0461477813377575
G01 X13.906072257612903Y4.034628224322584
G01 X13.98222774180357Y4.015552268585767
G01 X14.056146745892072Y3.9891036260090296
G01 X14.127117389460798Y3.9555370114786843
G01 X14.194456186415682Y3.9151756898420365
G01 X14.257514627330917Y3.8684083626901895
G01 X14.315685424949239Y3.8156854249492382
G01 X14.36840836269019Y3.7575146273309166
G01 X14.415175689842036Y3.6944561864156817
G01 X14.441821702539059Y3.65
G01 X16.05817829746094Y3.65
G01 X16.084824310157963Y3.6944561864156817
G01 X16.13159163730981Y3.757514627330916
G01 X16.184314575050763Y3.815685424949238
G01 X16.242485372669083Y3.8684083626901895
G01 X16.30554381358432Y3.9151756898420365
G01 X16.3728826105392Y3.955537011478684
G01 X16.44385325410793Y3.989103626009029
G01 X16.51777225819643Y4.015552268585767
G01 X16.5939277423871Y4.034628224322584
G01 X16.67158628773635Y4.0461477813377575
G01 X16.75Y4.05
G01 X16.828413712263647Y4.0461477813377575
G01 X16.9060722576129Y4.034628224322584
G01 X16.98222774180357Y4.015552268585767
G01 X17.05614674589207Y3.9891036260090296
G01 X17.1271173894608Y3.9555370114786843
G01 X17.19445618641568Y3.9151756898420365
G01 X17.257514627330917Y3.8684083626901895
G01 X17.315685424949237Y3.8156854249492382
G01 X17.36840836269019Y3.7575146273309166
G01 X17.415175689842037Y3.6944561864156817
G01 X17.44182170253906Y3.65
G01 X19.05817829746094Y3.65
G01 X19.084824310157963Y3.6944561864156817
G01 X19.13159163730981Y3.757514627330916
G01 X19.184314575050763Y3.815685424949238
G01 X19.242485372669083Y3.8684083626901895
G01 X19.30554381358432Y3.9151756898420365
G01 X19.3728826105392Y3.955537011478684
G01 X19.44385325410793Y3.989103626009029
G01 X19.51777225819643Y4.015552268585767
G01 X19.5939277423871Y4.034628224322584
G01 X19.67158628773635Y4.0461477813377575
G01 X19.75Y4.05
G01 X19.828413712263647Y4.0461477813377575
G01 X19.9060722576129Y4.034628224322584
G01 X19.956349104762772Y4.022034529712011
G01 X22.10200000000001Y6.167685424949249
G01 X22.10200000000001Y11.334178297460936
G01 X22.057543813584328Y11.36082431015796
G01 X21.994485372669093Y11.407591637309807
G01 X21.936314575050773Y11.460314575050758
G01 X21.88359163730982Y11.51848537266908
G01 X21.836824310157972Y11.581543813584315
G01 X21.796462988521327Y11.648882610539198
G01 X21.76289637399098Y11.719853254107925
G01 X21.73644773141424Y11.793772258196427
G01 X21.717371775677424Y11.869927742387093
G01 X21.70585221866225Y11.947586287736348
G01 X21.70200000000001Y12.025999999999996
G01 X21.70585221866225Y12.104413712263645
G01 X21.717371775677424Y12.1820722576129
G01 X21.73644773141424Y12.258227741803566
G01 X21.76289637399098Y12.332146745892068
G01 X21.796462988521327Y12.403117389460794
G01 X21.836824310157972Y12.470456186415678
G01 X21.88359163730982Y12.533514627330913
G01 X21.936314575050773Y12.591685424949235
G01 X21.994485372669093Y12.644408362690186
G01 X22.057543813584328Y12.691175689842032
G01 X22.12488261053921Y12.73153701147868
G01 X22.195853254107938Y12.765103626009026
G01 X22.26977225819644Y12.791552268585763
G01 X22.345927742387108Y12.810628224322581
G01 X22.42358628773636Y12.822147781337755
G01 X22.50200000000001Y12.825999999999997
G01 X22.580413712263656Y12.822147781337755
G01 X22.65807225761291Y12.810628224322581
G01 X22.708349104762775Y12.798034529712009
G01 X23.50199999999999Y13.59168542494924
G01 X23.50199999999999Y18.04831457505076
G01 X23.27403452971202Y17.820349104762787
G01 X23.286628224322595Y17.770072257612906
G01 X23.298147781337768Y17.692413712263654
G01 X23.30200000000001Y17.614000000000004
G01 X23.298147781337768Y17.535586287736354
G01 X23.286628224322595Y17.457927742387103
G01 X23.267552268585778Y17.381772258196435
G01 X23.24110362600904Y17.307853254107933
G01 X23.207537011478692Y17.236882610539205
G01 X23.167175689842047Y17.169543813584323
G01 X23.1204083626902Y17.106485372669088
G01 X23.067685424949246Y17.048314575050767
G01 X23.009514627330926Y16.995591637309815
G01 X22.94645618641569Y16.948824310157967
G01 X22.87911738946081Y16.908462988521322
G01 X22.80814674589208Y16.874896373990975
G01 X22.73422774180358Y16.848447731414236
G01 X22.73422774180358Y16.848447731414236
M5
G01 X39.245824310157964Y15.64045618641568
M3
G01 X39.29259163730981Y15.703514627330915
G01 X39.345314575050764Y15.761685424949237
G01 X39.40348537266908Y15.814408362690187
G01 X39.46654381358432Y15.861175689842034
G01 X39.511Y15.887821702539059
G01 X39.511Y19.457178297460942
G01 X39.46654381358432Y19.483824310157964
G01 X39.40348537266909Y19.53059163730981
G01 X39.345314575050764Y19.583314575050764
G01 X39.29259163730981Y19.641485372669084
G01 X39.245824310157964Y19.70454381358432
G01 X39.20546298852132Y19.7718826105392
G01 X39.171896373990975Y19.84285325410793
G01 X39.14544773141424Y19.91677225819643
G01 X39.12637177567742Y19.9929277423871
G01 X39.11485221866224Y20.07058628773635
G01 X39.111000000000004Y20.149
G01 X39.11485221866224Y20.22741371226365
G01 X39.12637177567742Y20.305072257612903
G01 X39.14544773141424Y20.38122774180357
G01 X39.171896373990975Y20.455146745892073
G01 X39.20546298852132Y20.5261173894608
G01 X39.245824310157964Y20.593456186415683
G01 X39.29259163730981Y20.656514627330917
G01 X39.345314575050764Y20.714685424949238
G01 X39.40348537266908Y20.76740836269019
G01 X39.46654381358432Y20.81417568984204
G01 X39.511Y20.84082170253906
G01 X39.511Y25.04517829746095
G01 X39.46654381358432Y25.07182431015797
G01 X39.40348537266909Y25.11859163730982
G01 X39.345314575050764Y25.171314575050772
G01 X39.29259163730981Y25.229485372669092
G01 X39.245824310157964Y25.292543813584327
G01 X39.20546298852132Y25.35988261053921
G01 X39.171896373990975Y25.430853254107937
G01 X39.14544773141424Y25.50477225819644
G01 X39.12637177567742Y25.580927742387107
G01 X39.11485221866224Y25.65858628773636
G01 X39.111000000000004Y25.73700000000001
G01 X39.11485221866224Y25.81541371226366
G01 X39.12637177567742Y25.89307225761291
G01 X39.14544773141424Y25.96922774180358
G01 X39.171896373990975Y26.04314674589208
G01 X39.20546298852132Y26.11411738946081
G01 X39.245824310157964Y26.18145618641569
G01 X39.29259163730981Y26.244514627330926
G01 X39.345314575050764Y26.302685424949246
G01 X39.40348537266908Y26.3554083626902
G01 X39.46654381358432Y26.402175689842046
G01 X39.5338826105392Y26.44253701147869
G01 X39.60485325410793Y26.47610362600904
G01 X39.67877225819643Y26.502552268585777
G01 X39.754927742387096Y26.521628224322594
G01 X39.832586287736355Y26.533147781337767
G01 X39.911Y26.53700000000001
G01 X39.98941371226365Y26.533147781337767
G01 X40.06707225761291Y26.521628224322594
G01 X40.14322774180357Y26.502552268585777
G01 X40.21714674589207Y26.47610362600904
G01 X40.2881173894608Y26.44253701147869
G01 X40.35545618641568Y26.402175689842046
G01 X40.418514627330914Y26.3554083626902
G01 X40.47668542494924Y26.302685424949246
G01 X40.52940836269019Y26.244514627330926
G01 X40.57617568984204Y26.18145618641569
G01 X40.60282170253906Y26.137000000000008
G01 X41.513000000000005Y26.137000000000008
G01 X41.55220685613183Y26.135073890668888
G01 X41.59103612880646Y26.1293141121613
G01 X41.62911387090179Y26.11977613429289
G01 X41.666073372946045Y26.106551813004522
G01 X41.70155869473041Y26.08976850573935
G01 X41.735228093207844Y26.069587844921028
G01 X41.766757313665465Y26.046204181345104
G01 X41.795842712474624Y26.019842712474627
G01 X42.725837609219Y25.089847815730245
G01 X42.766685430719875Y25.09590701767137
G01 X43.15Y25.1
G01 X43.233314569280125Y25.09590701767137
G01 X43.31582677371371Y25.083667488342744
G01 X43.396741975666295Y25.063399285372377
G01 X43.475280917510325Y25.035297602634593
G01 X43.550687226302095Y24.999633074696103
G01 X43.62223469806666Y24.956749170457165
G01 X43.689234291539094Y24.907058885358325
G01 X43.751040764008565Y24.851040764008566
G01 X43.80705888535832Y24.7892342915391
G01 X43.856749170457164Y24.72223469806666
G01 X43.8996330746961Y24.650687226302097
G01 X43.93529760263459Y24.575280917510327
G01 X43.963399285372375Y24.496741975666293
G01 X43.983667488342746Y24.41582677371371
G01 X43.995907017671364Y24.333314569280127
G01 X44.0Y24.25
G01 X43.995907017671364Y24.166685430719873
G01 X43.983667488342746Y24.084173226286293
G01 X43.963399285372375Y24.003258024333707
G01 X43.93529760263459Y23.924719082489673
G01 X43.8996330746961Y23.849312773697903
G01 X43.856749170457164Y23.77776530193334
G01 X43.80705888535832Y23.7107657084609
G01 X43.751040764008565Y23.648959235991434
G01 X43.689234291539094Y23.592941114641672
G01 X43.62223469806666Y23.543250829542835
G01 X43.550687226302095Y23.500366925303897
G01 X43.475280917510325Y23.464702397365407
G01 X43.396741975666295Y23.436600714627623
G01 X43.31582677371371Y23.416332511657256
G01 X43.233314569280125Y23.40409298232863
G01 X42.85Y23.4
G01 X42.766685430719875Y23.40409298232863
G01 X42.68417322628629Y23.416332511657256
G01 X42.603258024333705Y23.436600714627623
G01 X42.524719082489675Y23.464702397365407
G01 X42.449312773697905Y23.500366925303897
G01 X42.37776530193334Y23.543250829542835
G01 X42.310765708460906Y23.592941114641672
G01 X42.248959235991435Y23.648959235991434
G01 X42.19294111464168Y23.7107657084609
G01 X42.143250829542836Y23.77776530193334
G01 X42.1003669253039Y23.849312773697903
G01 X42.06470239736541Y23.924719082489673
G01 X42.036600714627625Y24.003258024333707
G01 X42.016332511657254Y24.08417322628629
G01 X42.004092982328636Y24.166685430719873
G01 X42.0Y24.25
G01 X42.004092982328636Y24.333314569280127
G01 X42.016332511657254Y24.415826773713707
G01 X42.036600714627625Y24.496741975666293
G01 X42.06470239736541Y24.575280917510327
G01 X42.07893703819107Y24.6053775368597
G01 X41.34731457505077Y25.33700000000001
G01 X40.60282170253906Y25.33700000000001
G01 X40.57617568984204Y25.292543813584327
G01 X40.52940836269019Y25.229485372669092
G01 X40.47668542494924Y25.171314575050772
G01 X40.418514627330914Y25.11859163730982
G01 X40.35545618641569Y25.07182431015797
G01 X40.311Y25.045178297460946
G01 X40.311Y20.84082170253906
G01 X40.35545618641568Y20.81417568984204
G01 X40.418514627330914Y20.76740836269019
G01 X40.47668542494924Y20.714685424949238
G01 X40.52940836269019Y20.656514627330917
G01 X40.57617568984204Y20.593456186415683
G01 X40.616537011478684Y20.5261173894608
G01 X40.65010362600903Y20.455146745892073
G01 X40.676552268585766Y20.38122774180357
G01 X40.69562822432258Y20.305072257612903
G01 X40.70714778133776Y20.22741371226365
G01 X40.711Y20.149
G01 X40.70714778133776Y20.07058628773635
G01 X40.69562822432258Y19.9929277423871
G01 X40.676552268585766Y19.91677225819643
G01 X40.65010362600903Y19.84285325410793
G01 X40.616537011478684Y19.7718826105392
G01 X40.57617568984204Y19.70454381358432
G01 X40.52940836269019Y19.641485372669084
G01 X40.47668542494924Y19.583314575050764
G01 X40.418514627330914Y19.53059163730981
G01 X40.35545618641569Y19.483824310157964
G01 X40.311Y19.45717829746094
G01 X40.311Y15.887821702539059
G01 X40.35545618641568Y15.861175689842035
G01 X40.418514627330914Y15.814408362690187
G01 X40.47668542494924Y15.761685424949237
G01 X40.52940836269019Y15.703514627330915
G01 X40.57617568984204Y15.64045618641568
G01 X40.616537011478684Y15.573117389460796
G01 X40.65010362600903Y15.50214674589207
G01 X40.676552268585766Y15.428227741803568
G01 X40.69562822432258Y15.352072257612901
G01 X40.70714778133776Y15.274413712263646
G01 X40.711Y15.195999999999998
G01 X40.70714778133776Y15.11758628773635
G01 X40.69562822432258Y15.039927742387095
G01 X40.676552268585766Y14.963772258196428
G01 X40.65010362600903Y14.889853254107926
G01 X40.616537011478684Y14.8188826105392
G01 X40.57617568984204Y14.751543813584316
G01 X40.52940836269019Y14.688485372669081
G01 X40.47668542494924Y14.63031457505076
G01 X40.418514627330914Y14.577591637309808
G01 X40.35545618641569Y14.530824310157962
G01 X40.2881173894608Y14.490462988521314
G01 X40.21714674589207Y14.456896373990968
G01 X40.14322774180357Y14.430447731414231
G01 X40.06707225761291Y14.411371775677413
G01 X39.98941371226365Y14.39985221866224
G01 X39.911Y14.395999999999997
G01 X39.832586287736355Y14.39985221866224
G01 X39.754927742387096Y14.411371775677413
G01 X39.67877225819643Y14.430447731414231
G01 X39.60485325410793Y14.456896373990968
G01 X39.5338826105392Y14.490462988521314
G01 X39.46654381358432Y14.530824310157962
G01 X39.40348537266909Y14.577591637309808
G01 X39.345314575050764Y14.63031457505076
G01 X39.29259163730981Y14.688485372669081
G01 X39.245824310157964Y14.751543813584316
G01 X39.20546298852132Y14.8188826105392
G01 X39.171896373990975Y14.889853254107926
G01 X39.14544773141424Y14.963772258196428
G01 X39.12637177567742Y15.039927742387095
G01 X39.11485221866224Y15.11758628773635
G01 X39.111000000000004Y15.195999999999998
G01 X39.11485221866224Y15.274413712263646
G01 X39.12637177567742Y15.352072257612901
G01 X39.14544773141424Y15.428227741803568
G01 X39.171896373990975Y15.50214674589207
G01 X39.20546298852132Y15.573117389460796
G01 X39.245824310157964Y15.64045618641568
G01 X39.245824310157964Y15.64045618641568
M5
G01 X32.291Y20.949
M3
G01 X32.36941371226364Y20.94514778133776
G01 X32.4470722576129Y20.933628224322586
G01 X32.52322774180357Y20.91455226858577
G01 X32.59714674589207Y20.88810362600903
G01 X32.6681173894608Y20.854537011478683
G01 X32.735456186415675Y20.81417568984204
G01 X32.79851462733091Y20.76740836269019
G01 X32.856685424949234Y20.714685424949238
G01 X32.909408362690186Y20.656514627330917
G01 X32.956175689842034Y20.593456186415683
G01 X32.99653701147868Y20.5261173894608
G01 X33.03010362600902Y20.455146745892073
G01 X33.05655226858576Y20.38122774180357
G01 X33.07562822432258Y20.305072257612903
G01 X33.087147781337755Y20.22741371226365
G01 X33.090999999999994Y20.149
G01 X33.087147781337755Y20.07058628773635
G01 X33.07562822432258Y19.9929277423871
G01 X33.05655226858576Y19.91677225819643
G01 X33.03010362600902Y19.84285325410793
G01 X32.99653701147868Y19.7718826105392
G01 X32.956175689842034Y19.70454381358432
G01 X32.909408362690186Y19.641485372669084
G01 X32.856685424949234Y19.583314575050764
G01 X32.79851462733091Y19.53059163730981
G01 X32.73545618641568Y19.483824310157964
G01 X32.6681173894608Y19.44346298852132
G01 X32.59714674589207Y19.40989637399097
G01 X32.52322774180357Y19.383447731414233
G01 X32.4470722576129Y19.364371775677416
G01 X32.36941371226364Y19.352852218662242
G01 X32.291Y19.349
G01 X32.21258628773635Y19.352852218662242
G01 X32.13492774238709Y19.364371775677416
G01 X32.05877225819643Y19.383447731414233
G01 X31.984853254107925Y19.40989637399097
G01 X31.913882610539197Y19.44346298852132
G01 X31.846543813584315Y19.483824310157964
G01 X31.78348537266908Y19.53059163730981
G01 X31.72531457505076Y19.583314575050764
G01 X31.672591637309807Y19.641485372669084
G01 X31.62582431015796Y19.70454381358432
G01 X31.599178297460938Y19.749000000000002
G01 X30.921999999999986Y19.749000000000002
G01 X30.921999999999986Y19.353999999999996
G01 X29.321999999999985Y19.353999999999996
G01 X29.321999999999985Y20.953999999999997
G01 X30.921999999999986Y20.953999999999997
G01 X30.921999999999986Y20.549
G01 X31.599178297460938Y20.549
G01 X31.62582431015796Y20.593456186415683
G01 X31.672591637309807Y20.656514627330917
G01 X31.72531457505076Y20.714685424949238
G01 X31.78348537266908Y20.76740836269019
G01 X31.846543813584315Y20.81417568984204
G01 X31.913882610539197Y20.854537011478683
G01 X31.984853254107925Y20.88810362600903
G01 X32.05877225819643Y20.91455226858577
G01 X32.13492774238709Y20.933628224322586
G01 X32.21258628773635Y20.94514778133776
G01 X32.291Y20.949
G01 X32.291Y20.949
M5
G01 X39.49329314386817Y4.351926109331121
M3
G01 X39.454463871193546Y4.3576858878387075
G01 X39.416386129098214Y4.367223865707117
G01 X39.37942662705396Y4.380448186995485
G01 X39.3439413052696Y4.397231494260658
G01 X39.31027190679216Y4.417412155078982
G01 X39.27874268633454Y4.440795818654905
G01 X39.24965728752538Y4.467157287525381
G01 X35.68431457505076Y8.032499999999999
G01 X34.900000000000006Y8.032499999999999
G01 X34.900000000000006Y9.532499999999999
G01 X36.099999999999994Y9.532499999999999
G01 X36.099999999999994Y8.748185424949241
G01 X39.69818542494924Y5.15
G01 X42.38249999999999Y5.15
G01 X42.38249999999999Y5.349999999999994
G01 X43.16681457505075Y5.349999999999994
G01 X44.33249999999999Y6.515685424949245
G01 X44.33249999999999Y13.916814575050767
G01 X43.849999999999994Y13.434314575050767
G01 X43.849999999999994Y12.650000000000006
G01 X42.349999999999994Y12.650000000000006
G01 X42.349999999999994Y13.849999999999994
G01 X43.13431457505075Y13.849999999999994
G01 X44.29999999999999Y15.015685424949245
G01 X44.29999999999999Y19.88431457505076
G01 X43.03431457505076Y21.150000000000006
G01 X42.25Y21.150000000000006
G01 X42.25Y22.349999999999994
G01 X43.75Y22.349999999999994
G01 X43.75Y21.565685424949233
G01 X44.98284271247461Y20.332842712474616
G01 X45.00920418134508Y20.303757313665454
G01 X45.03258784492101Y20.272228093207836
G01 X45.04811752156224Y20.246318393036628
G01 X45.05276850573933Y20.238558694730397
G01 X45.0695518130045Y20.203073372946033
G01 X45.08277613429287Y20.166113870901782
G01 X45.09231411216128Y20.12803612880645
G01 X45.098073890668864Y20.08920685613182
G01 X45.09999999999999Y20.049999999999997
G01 X45.09999999999999Y14.974911567054997
G01 X45.1020518130045Y14.970573372946046
G01 X45.11527613429287Y14.933613870901794
G01 X45.12481411216128Y14.89553612880646
G01 X45.13057389066886Y14.856706856131835
G01 X45.132499999999986Y14.81750000000001
G01 X45.132499999999986Y6.35000000000001
G01 X45.132499999999986Y6.3500000000000085
G01 X45.13057389066886Y6.310793143868184
G01 X45.12481411216128Y6.271963871193557
G01 X45.11527613429287Y6.233886129098224
G01 X45.1020518130045Y6.196926627053973
G01 X45.08526850573933Y6.1614413052696095
G01 X45.082247352867505Y6.156400816218307
G01 X45.06508784492101Y6.127771906792169
G01 X45.046042659807284Y6.1020924473628515
G01 X45.04170418134508Y6.09624268633455
G01 X45.015342712474606Y6.067157287525389
G01 X45.015342712474585Y6.067157287525372
G01 X43.88249999999999Y4.934314575050768
G01 X43.88249999999999Y4.150000000000006
G01 X42.38249999999999Y4.150000000000006
G01 X42.38249999999999Y4.35
G01 X39.5325Y4.35
G01 X39.49329314386817Y4.351926109331121
G01 X39.49329314386817Y4.351926109331121
M5
G01 X30.629514627330902Y16.995591637309815
M3
G01 X30.566456186415667Y16.948824310157967
G01 X30.499117389460785Y16.908462988521322
G01 X30.428146745892057Y16.874896373990975
G01 X30.354227741803555Y16.848447731414236
G01 X30.278072257612887Y16.82937177567742
G01 X30.200413712263636Y16.817852218662246
G01 X30.121999999999986Y16.814000000000004
G01 X30.043586287736336Y16.817852218662246
G01 X29.965927742387084Y16.82937177567742
G01 X29.889772258196416Y16.848447731414236
G01 X29.815853254107914Y16.874896373990975
G01 X29.744882610539186Y16.908462988521322
G01 X29.677543813584304Y16.948824310157967
G01 X29.61448537266907Y16.995591637309815
G01 X29.55631457505075Y17.048314575050767
G01 X29.503591637309796Y17.106485372669088
G01 X29.45682431015795Y17.169543813584323
G01 X29.416462988521303Y17.236882610539205
G01 X29.382896373990956Y17.307853254107933
G01 X29.356447731414217Y17.381772258196435
G01 X29.3373717756774Y17.457927742387103
G01 X29.325852218662227Y17.535586287736354
G01 X29.321999999999985Y17.614000000000004
G01 X29.325852218662227Y17.692413712263654
G01 X29.3373717756774Y17.770072257612906
G01 X29.356447731414217Y17.846227741803574
G01 X29.382896373990956Y17.920146745892076
G01 X29.416462988521303Y17.991117389460804
G01 X29.45682431015795Y18.058456186415686
G01 X29.503591637309796Y18.12151462733092
G01 X29.55631457505075Y18.17968542494924
G01 X29.61448537266907Y18.232408362690194
G01 X29.677543813584304Y18.27917568984204
G01 X29.744882610539186Y18.319537011478687
G01 X29.815853254107914Y18.353103626009034
G01 X29.889772258196416Y18.379552268585773
G01 X29.965927742387084Y18.39862822432259
G01 X30.043586287736336Y18.410147781337763
G01 X30.121999999999986Y18.414000000000005
G01 X30.200413712263632Y18.410147781337763
G01 X30.278072257612887Y18.39862822432259
G01 X30.354227741803555Y18.379552268585773
G01 X30.428146745892057Y18.353103626009034
G01 X30.499117389460785Y18.319537011478687
G01 X30.566456186415667Y18.27917568984204
G01 X30.629514627330902Y18.232408362690194
G01 X30.687685424949223Y18.17968542494924
G01 X30.740408362690175Y18.12151462733092
G01 X30.787175689842023Y18.058456186415686
G01 X30.813821702539045Y18.014000000000003
G01 X31.852899000000008Y18.014000000000003
G01 X31.89210585613183Y18.012073890668884
G01 X31.93093512880646Y18.006314112161295
G01 X31.969012870901793Y17.996776134292887
G01 X32.00597237294605Y17.983551813004517
G01 X32.041457694730404Y17.966768505739346
G01 X32.07512709320785Y17.946587844921023
G01 X32.10665631366547Y17.9232041813451
G01 X32.135741712474626Y17.896842712474623
G01 X42.29048414741038Y7.74210027753884
G01 X42.32544111464167Y7.789234291539098
G01 X42.38145923599143Y7.851040764008565
G01 X42.4432657084609Y7.907058885358326
G01 X42.51026530193333Y7.956749170457163
G01 X42.5818127736979Y7.999633074696102
G01 X42.65721908248967Y8.035297602634593
G01 X42.7357580243337Y8.063399285372377
G01 X42.816673226286284Y8.083667488342746
G01 X42.89918543071987Y8.095907017671367
G01 X43.28249999999999Y8.1
G01 X43.36581456928012Y8.095907017671367
G01 X43.4483267737137Y8.083667488342746
G01 X43.52924197566629Y8.063399285372377
G01 X43.60778091751032Y8.035297602634593
G01 X43.68318722630209Y7.999633074696102
G01 X43.754734698066656Y7.956749170457163
G01 X43.82173429153909Y7.907058885358326
G01 X43.88354076400856Y7.851040764008566
G01 X43.939558885358316Y7.789234291539099
G01 X43.98924917045716Y7.722234698066662
G01 X44.03213307469609Y7.650687226302098
G01 X44.067797602634585Y7.575280917510327
G01 X44.09589928537237Y7.496741975666293
G01 X44.11616748834274Y7.415826773713709
G01 X44.12840701767136Y7.333314569280127
G01 X44.13249999999999Y7.25
G01 X44.12840701767136Y7.166685430719873
G01 X44.11616748834274Y7.084173226286291
G01 X44.09589928537237Y7.003258024333707
G01 X44.067797602634585Y6.924719082489673
G01 X44.03213307469609Y6.849312773697902
G01 X43.98924917045716Y6.777765301933338
G01 X43.939558885358316Y6.710765708460901
G01 X43.88354076400856Y6.648959235991435
G01 X43.82173429153909Y6.592941114641674
G01 X43.754734698066656Y6.543250829542837
G01 X43.68318722630209Y6.500366925303898
G01 X43.60778091751032Y6.464702397365406
G01 X43.52924197566629Y6.436600714627622
G01 X43.4483267737137Y6.416332511657254
G01 X43.36581456928012Y6.404092982328633
G01 X42.982499999999995Y6.4
G01 X42.89918543071987Y6.404092982328633
G01 X42.816673226286284Y6.416332511657254
G01 X42.7357580243337Y6.436600714627622
G01 X42.65721908248967Y6.464702397365406
G01 X42.5818127736979Y6.500366925303898
G01 X42.51026530193333Y6.543250829542837
G01 X42.4432657084609Y6.592941114641674
G01 X42.38145923599143Y6.648959235991435
G01 X42.32544111464167Y6.710765708460901
G01 X42.27575082954283Y6.777765301933338
G01 X42.232866925303895Y6.849312773697902
G01 X42.232541891469936Y6.85
G01 X42.216898999999984Y6.85
G01 X42.17769214386816Y6.851926109331121
G01 X42.13886287119353Y6.8576858878387075
G01 X42.1007851290982Y6.867223865707117
G01 X42.063825627053944Y6.880448186995485
G01 X42.02834030526959Y6.897231494260658
G01 X41.994670906792145Y6.917412155078982
G01 X41.963141686334524Y6.940795818654905
G01 X41.934056287525365Y6.967157287525381
G01 X41.93405628752536Y6.96715728752539
G01 X31.68721357505077Y17.214000000000006
G01 X30.813821702539045Y17.214000000000006
G01 X30.787175689842023Y17.169543813584323
G01 X30.740408362690175Y17.106485372669088
G01 X30.687685424949223Y17.048314575050767
G01 X30.629514627330902Y16.995591637309815
G01 X30.629514627330902Y16.995591637309815
M5
G01 X38.700240686334524Y13.486795818654912
M3
G01 X38.671155287525366Y13.513157287525388
G01 X33.408157287525384Y18.776155287525384
G01 X33.38179581865491Y18.805240686334546
G01 X33.35841215507899Y18.836769906792163
G01 X33.33823149426066Y18.870439305269603
G01 X33.32144818699549Y18.905924627053967
G01 X33.30822386570712Y18.942884129098218
G01 X33.29868588783871Y18.98096187119355
G01 X33.29292610933113Y19.01979114386818
G01 X33.291000000000004Y19.058998000000003
G01 X33.291000000000004Y20.56321357505076
G01 X31.05221357505075Y22.802
G01 X30.813821702539045Y22.802
G01 X30.787175689842023Y22.757543813584316
G01 X30.740408362690175Y22.69448537266908
G01 X30.687685424949223Y22.63631457505076
G01 X30.629514627330902Y22.58359163730981
G01 X30.566456186415667Y22.53682431015796
G01 X30.499117389460785Y22.496462988521316
G01 X30.428146745892057Y22.46289637399097
G01 X30.354227741803555Y22.43644773141423
G01 X30.278072257612887Y22.417371775677413
G01 X30.200413712263636Y22.40585221866224
G01 X30.121999999999986Y22.401999999999997
G01 X30.043586287736336Y22.40585221866224
G01 X29.965927742387084Y22.417371775677413
G01 X29.889772258196416Y22.43644773141423
G01 X29.815853254107914Y22.46289637399097
G01 X29.744882610539186Y22.496462988521316
G01 X29.677543813584304Y22.53682431015796
G01 X29.61448537266907Y22.58359163730981
G01 X29.55631457505075Y22.63631457505076
G01 X29.503591637309796Y22.69448537266908
G01 X29.45682431015795Y22.757543813584316
G01 X29.416462988521303Y22.8248826105392
G01 X29.382896373990956Y22.895853254107926
G01 X29.356447731414217Y22.96977225819643
G01 X29.3373717756774Y23.045927742387097
G01 X29.325852218662227Y23.123586287736348
G01 X29.321999999999985Y23.201999999999998
G01 X29.325852218662227Y23.28041371226365
G01 X29.3373717756774Y23.3580722576129
G01 X29.356447731414217Y23.434227741803568
G01 X29.382896373990956Y23.50814674589207
G01 X29.416462988521303Y23.579117389460798
G01 X29.45682431015795Y23.64645618641568
G01 X29.503591637309796Y23.709514627330915
G01 X29.55631457505075Y23.767685424949235
G01 X29.61448537266907Y23.820408362690188
G01 X29.677543813584304Y23.867175689842036
G01 X29.744882610539186Y23.90753701147868
G01 X29.815853254107914Y23.941103626009028
G01 X29.889772258196416Y23.967552268585766
G01 X29.965927742387084Y23.986628224322583
G01 X30.043586287736336Y23.998147781337757
G01 X30.121999999999986Y24.002
G01 X30.200413712263632Y23.998147781337757
G01 X30.278072257612887Y23.986628224322583
G01 X30.354227741803555Y23.967552268585766
G01 X30.428146745892057Y23.941103626009028
G01 X30.499117389460785Y23.90753701147868
G01 X30.566456186415667Y23.867175689842036
G01 X30.629514627330902Y23.820408362690188
G01 X30.687685424949223Y23.767685424949235
G01 X30.740408362690175Y23.709514627330915
G01 X30.787175689842023Y23.64645618641568
G01 X30.813821702539045Y23.601999999999997
G01 X31.21789899999999Y23.601999999999997
G01 X31.257105856131812Y23.600073890668877
G01 X31.29593512880644Y23.59431411216129
G01 X31.334012870901773Y23.58477613429288
G01 X31.370972372946024Y23.571551813004515
G01 X31.3950679842628Y23.56015543759811
G01 X31.40645769473039Y23.55476850573934
G01 X31.44012709320783Y23.534587844921017
G01 X31.471656313665445Y23.511204181345093
G01 X31.500741712474607Y23.484842712474617
G01 X33.97384271247462Y21.011741712474617
G01 X34.0002041813451Y20.98265631366546
G01 X34.02358784492102Y20.95112709320784
G01 X34.043768505739344Y20.9174576947304
G01 X34.060551813004516Y20.881972372946034
G01 X34.073776134292885Y20.845012870901783
G01 X34.0833141121613Y20.80693512880645
G01 X34.08907389066888Y20.768105856131825
G01 X34.091Y20.728899
G01 X34.091Y19.22468342494924
G01 X39.11968342494922Y14.196000000000007
G01 X40.325213575050746Y14.196000000000007
G01 X42.14253178670028Y16.01331821164953
G01 X42.1647023973654Y16.075280917510327
G01 X42.200366925303896Y16.150687226302097
G01 X42.24325082954283Y16.22223469806666
G01 X42.29294111464167Y16.2892342915391
G01 X42.34895923599143Y16.351040764008566
G01 X42.4107657084609Y16.407058885358325
G01 X42.47776530193333Y16.456749170457165
G01 X42.5493127736979Y16.499633074696103
G01 X42.62471908248967Y16.535297602634593
G01 X42.7032580243337Y16.563399285372377
G01 X42.784173226286285Y16.583667488342744
G01 X42.86668543071987Y16.59590701767137
G01 X43.24999999999999Y16.6
G01 X43.33331456928012Y16.59590701767137
G01 X43.415826773713704Y16.583667488342744
G01 X43.49674197566629Y16.563399285372377
G01 X43.57528091751032Y16.535297602634593
G01 X43.65068722630209Y16.499633074696103
G01 X43.72223469806666Y16.456749170457165
G01 X43.78923429153909Y16.407058885358325
G01 X43.85104076400856Y16.351040764008566
G01 X43.90705888535832Y16.2892342915391
G01 X43.95674917045716Y16.22223469806666
G01 X43.99963307469609Y16.150687226302097
G01 X44.035297602634586Y16.075280917510327
G01 X44.06339928537237Y15.996741975666293
G01 X44.08366748834274Y15.91582677371371
G01 X44.09590701767136Y15.833314569280127
G01 X44.099999999999994Y15.75
G01 X44.09590701767136Y15.666685430719873
G01 X44.08366748834274Y15.58417322628629
G01 X44.06339928537237Y15.503258024333707
G01 X44.035297602634586Y15.424719082489673
G01 X43.99963307469609Y15.349312773697902
G01 X43.95674917045716Y15.277765301933337
G01 X43.90705888535832Y15.210765708460901
G01 X43.85104076400856Y15.148959235991434
G01 X43.78923429153909Y15.092941114641674
G01 X43.72223469806666Y15.043250829542837
G01 X43.65068722630209Y15.000366925303899
G01 X43.57528091751032Y14.964702397365407
G01 X43.49674197566629Y14.936600714627623
G01 X43.415826773713704Y14.916332511657254
G01 X43.33331456928012Y14.904092982328633
G01 X42.949999999999996Y14.9
G01 X42.86668543071987Y14.904092982328633
G01 X42.784173226286285Y14.916332511657254
G01 X42.7032580243337Y14.936600714627623
G01 X42.62471908248967Y14.964702397365407
G01 X42.5493127736979Y15.000366925303899
G01 X42.47776530193333Y15.043250829542837
G01 X42.4107657084609Y15.092941114641674
G01 X42.38073960943747Y15.120155184488244
G01 X40.7737417124746Y13.513157287525386
G01 X40.744656313665445Y13.48679581865491
G01 X40.713127093207824Y13.463412155078988
G01 X40.67945769473038Y13.443231494260663
G01 X40.66718771062143Y13.437428223976381
G01 X40.643972372946024Y13.426448186995492
G01 X40.60701287090177Y13.413223865707122
G01 X40.56893512880644Y13.403685887838714
G01 X40.53010585613181Y13.397926109331127
G01 X40.490898999999985Y13.396000000000006
G01 X38.953997999999984Y13.396000000000006
G01 X38.91479114386816Y13.397926109331127
G01 X38.87596187119353Y13.403685887838714
G01 X38.8378841290982Y13.413223865707122
G01 X38.800924627053945Y13.426448186995492
G01 X38.76543930526959Y13.443231494260665
G01 X38.731769906792145Y13.463412155078988
G01 X38.700240686334524Y13.486795818654912
G01 X38.700240686334524Y13.486795818654912
M5
G01 X30.787175689842023Y11.581543813584315
M3
G01 X30.740408362690175Y11.51848537266908
G01 X30.687685424949223Y11.460314575050758
G01 X30.629514627330902Y11.407591637309807
G01 X30.566456186415667Y11.36082431015796
G01 X30.499117389460785Y11.320462988521312
G01 X30.428146745892057Y11.286896373990967
G01 X30.354227741803555Y11.26044773141423
G01 X30.278072257612887Y11.241371775677411
G01 X30.200413712263636Y11.229852218662238
G01 X30.121999999999986Y11.225999999999996
G01 X30.043586287736336Y11.229852218662238
G01 X29.965927742387084Y11.241371775677411
G01 X29.889772258196416Y11.26044773141423
G01 X29.815853254107914Y11.286896373990967
G01 X29.744882610539186Y11.320462988521312
G01 X29.677543813584304Y11.36082431015796
G01 X29.61448537266907Y11.407591637309807
G01 X29.55631457505075Y11.460314575050758
G01 X29.503591637309796Y11.51848537266908
G01 X29.45682431015795Y11.581543813584315
G01 X29.416462988521303Y11.648882610539198
G01 X29.382896373990956Y11.719853254107925
G01 X29.356447731414217Y11.793772258196427
G01 X29.3373717756774Y11.869927742387093
G01 X29.325852218662227Y11.947586287736348
G01 X29.321999999999985Y12.025999999999996
G01 X29.325852218662227Y12.104413712263645
G01 X29.3373717756774Y12.1820722576129
G01 X29.356447731414217Y12.258227741803566
G01 X29.382896373990956Y12.332146745892068
G01 X29.416462988521303Y12.403117389460794
G01 X29.45682431015795Y12.470456186415678
G01 X29.503591637309796Y12.533514627330913
G01 X29.55631457505075Y12.591685424949235
G01 X29.61448537266907Y12.644408362690186
G01 X29.677543813584304Y12.691175689842032
G01 X29.744882610539186Y12.73153701147868
G01 X29.815853254107914Y12.765103626009026
G01 X29.889772258196416Y12.791552268585763
G01 X29.965927742387084Y12.810628224322581
G01 X30.043586287736336Y12.822147781337755
G01 X30.121999999999986Y12.825999999999997
G01 X30.200413712263632Y12.822147781337755
G01 X30.278072257612887Y12.810628224322581
G01 X30.354227741803555Y12.791552268585763
G01 X30.428146745892057Y12.765103626009026
G01 X30.499117389460785Y12.73153701147868
G01 X30.566456186415667Y12.691175689842034
G01 X30.629514627330902Y12.644408362690186
G01 X30.687685424949223Y12.591685424949235
G01 X30.740408362690175Y12.533514627330913
G01 X30.787175689842023Y12.470456186415678
G01 X30.813821702539045Y12.425999999999997
G01 X34.81550999999999Y12.425999999999997
G01 X34.854716856131816Y12.424073890668875
G01 X34.89354612880644Y12.418314112161289
G01 X34.931623870901774Y12.40877613429288
G01 X34.96858337294603Y12.395551813004511
G01 X34.99179871062143Y12.384571776023622
G01 X35.004068694730385Y12.37876850573934
G01 X35.03773809320783Y12.358587844921015
G01 X35.06926731366545Y12.335204181345091
G01 X35.09835271247461Y12.308842712474616
G01 X37.685529715848Y9.721665709101234
G01 X37.753258024333704Y9.745899285372376
G01 X37.83417322628629Y9.766167488342745
G01 X37.91668543071987Y9.778407017671366
G01 X38.0Y9.782499999999999
G01 X38.08331456928013Y9.778407017671366
G01 X38.16582677371371Y9.766167488342745
G01 X38.246741975666296Y9.745899285372376
G01 X38.32528091751033Y9.717797602634592
G01 X38.4006872263021Y9.6821330746961
G01 X38.472234698066664Y9.639249170457163
G01 X38.539234291539096Y9.589558885358326
G01 X38.601040764008566Y9.533540764008565
G01 X38.657058885358325Y9.471734291539098
G01 X38.706749170457165Y9.404734698066662
G01 X38.7496330746961Y9.333187226302098
G01 X38.78529760263459Y9.257780917510326
G01 X38.81339928537238Y9.179241975666292
G01 X38.83366748834275Y9.098326773713708
G01 X38.845907017671365Y9.015814569280126
G01 X38.85Y8.632499999999999
G01 X38.845907017671365Y8.549185430719872
G01 X38.83366748834275Y8.46667322628629
G01 X38.81339928537238Y8.385758024333706
G01 X38.78529760263459Y8.307219082489672
G01 X38.7496330746961Y8.2318127736979
G01 X38.706749170457165Y8.160265301933336
G01 X38.657058885358325Y8.0932657084609
G01 X38.601040764008566Y8.031459235991433
G01 X38.539234291539096Y7.975441114641672
G01 X38.472234698066664Y7.925750829542835
G01 X38.4006872263021Y7.882866925303897
G01 X38.32528091751033Y7.847202397365405
G01 X38.246741975666296Y7.819100714627621
G01 X38.16582677371371Y7.7988325116572526
G01 X38.08331456928013Y7.7865929823286315
G01 X38.0Y7.782499999999999
G01 X37.91668543071987Y7.7865929823286315
G01 X37.83417322628629Y7.7988325116572526
G01 X37.753258024333704Y7.819100714627621
G01 X37.67471908248967Y7.847202397365405
G01 X37.5993127736979Y7.882866925303897
G01 X37.527765301933336Y7.925750829542835
G01 X37.460765708460904Y7.975441114641672
G01 X37.398959235991434Y8.031459235991433
G01 X37.342941114641675Y8.0932657084609
G01 X37.293250829542835Y8.160265301933336
G01 X37.2503669253039Y8.2318127736979
G01 X37.21470239736541Y8.307219082489672
G01 X37.18660071462762Y8.385758024333706
G01 X37.16633251165725Y8.46667322628629
G01 X37.154092982328635Y8.549185430719872
G01 X37.15Y8.9325
G01 X37.154092982328635Y9.015814569280126
G01 X37.16633251165725Y9.098326773713708
G01 X37.16856904795118Y9.10725552709958
G01 X34.64982457505075Y11.625999999999996
G01 X30.813821702539045Y11.625999999999996
G01 X30.787175689842023Y11.581543813584315
G01 X30.787175689842023Y11.581543813584315
M5
G01 X33.087147781337755Y15.274413712263646
M3
G01 X33.090999999999994Y15.195999999999998
G01 X33.087147781337755Y15.11758628773635
G01 X33.07562822432258Y15.039927742387095
G01 X33.05655226858576Y14.963772258196428
G01 X33.03010362600902Y14.889853254107926
G01 X32.99653701147868Y14.8188826105392
G01 X32.956175689842034Y14.751543813584316
G01 X32.909408362690186Y14.688485372669081
G01 X32.856685424949234Y14.63031457505076
G01 X32.79851462733091Y14.577591637309808
G01 X32.73545618641568Y14.530824310157962
G01 X32.6681173894608Y14.490462988521314
G01 X32.59714674589207Y14.456896373990968
G01 X32.52322774180357Y14.430447731414231
G01 X32.4470722576129Y14.411371775677413
G01 X32.36941371226364Y14.39985221866224
G01 X32.291Y14.395999999999997
G01 X32.21258628773635Y14.39985221866224
G01 X32.13492774238709Y14.411371775677413
G01 X32.05877225819643Y14.430447731414231
G01 X31.984853254107925Y14.456896373990968
G01 X31.913882610539197Y14.490462988521314
G01 X31.846543813584315Y14.530824310157962
G01 X31.78348537266908Y14.577591637309808
G01 X31.72531457505076Y14.63031457505076
G01 X31.672591637309807Y14.688485372669081
G01 X31.62582431015796Y14.751543813584316
G01 X31.599178297460938Y14.795999999999998
G01 X30.921999999999986Y14.795999999999998
G01 X30.921999999999986Y13.766000000000002
G01 X29.321999999999985Y13.766000000000002
G01 X29.321999999999985Y15.366000000000003
G01 X30.356314575050774Y15.366000000000003
G01 X30.469157287525398Y15.478842712474624
G01 X30.48004903613408Y15.488714417991769
G01 X30.498242686334553Y15.505204181345093
G01 X30.49824268633456Y15.505204181345098
G01 X30.499281439721724Y15.50597457336213
G01 X30.52977190679217Y15.528587844921017
G01 X30.54314512348815Y15.536603442537716
G01 X30.563441305269617Y15.548768505739345
G01 X30.59892662705398Y15.565551813004516
G01 X30.61995688916759Y15.573076561109508
G01 X30.635886129098225Y15.578776134292882
G01 X30.673963871193557Y15.58831411216129
G01 X30.673963871193564Y15.588314112161292
G01 X30.680024840670583Y15.589213172054105
G01 X30.712793143868186Y15.594073890668877
G01 X30.75200000000001Y15.595999999999998
G01 X30.75200000000002Y15.595999999999998
G01 X31.599178297460938Y15.595999999999998
G01 X31.62582431015796Y15.64045618641568
G01 X31.672591637309807Y15.703514627330915
G01 X31.72531457505076Y15.761685424949237
G01 X31.78348537266908Y15.814408362690187
G01 X31.846543813584315Y15.861175689842034
G01 X31.913882610539197Y15.901537011478682
G01 X31.984853254107925Y15.935103626009028
G01 X32.05877225819643Y15.961552268585764
G01 X32.13492774238709Y15.980628224322583
G01 X32.21258628773635Y15.992147781337756
G01 X32.291Y15.995999999999999
G01 X32.36941371226364Y15.992147781337756
G01 X32.4470722576129Y15.980628224322583
G01 X32.52322774180357Y15.961552268585764
G01 X32.59714674589207Y15.935103626009028
G01 X32.6681173894608Y15.901537011478682
G01 X32.735456186415675Y15.861175689842035
G01 X32.79851462733091Y15.814408362690187
G01 X32.856685424949234Y15.761685424949237
G01 X32.909408362690186Y15.703514627330915
G01 X32.956175689842034Y15.64045618641568
G01 X32.99653701147868Y15.573117389460796
G01 X33.03010362600902Y15.50214674589207
G01 X33.05655226858576Y15.428227741803568
G01 X33.07562822432258Y15.352072257612901
G01 X33.087147781337755Y15.274413712263646
G01 X33.087147781337755Y15.274413712263646
M5
G01 X13.415175689842036Y16.30554381358432
M3
G01 X13.36840836269019Y16.242485372669083
G01 X13.315685424949239Y16.184314575050763
G01 X13.257514627330917Y16.13159163730981
G01 X13.194456186415682Y16.084824310157963
G01 X13.15Y16.05817829746094
G01 X13.15Y14.441821702539059
G01 X13.194456186415682Y14.415175689842037
G01 X13.257514627330917Y14.36840836269019
G01 X13.315685424949239Y14.315685424949239
G01 X13.36840836269019Y14.257514627330917
G01 X13.415175689842036Y14.194456186415682
G01 X13.455537011478684Y14.127117389460798
G01 X13.48910362600903Y14.056146745892072
G01 X13.515552268585767Y13.98222774180357
G01 X13.534628224322585Y13.906072257612903
G01 X13.546147781337758Y13.828413712263648
G01 X13.55Y13.75
G01 X13.546147781337758Y13.671586287736352
G01 X13.534628224322585Y13.593927742387097
G01 X13.515552268585767Y13.51777225819643
G01 X13.48910362600903Y13.443853254107928
G01 X13.455537011478684Y13.372882610539202
G01 X13.415175689842036Y13.305543813584318
G01 X13.36840836269019Y13.242485372669083
G01 X13.315685424949239Y13.184314575050761
G01 X13.257514627330917Y13.13159163730981
G01 X13.194456186415682Y13.084824310157964
G01 X13.15Y13.058178297460941
G01 X13.15Y11.441821702539059
G01 X13.194456186415682Y11.415175689842037
G01 X13.257514627330917Y11.36840836269019
G01 X13.315685424949239Y11.315685424949239
G01 X13.36840836269019Y11.257514627330917
G01 X13.415175689842036Y11.194456186415682
G01 X13.455537011478684Y11.127117389460798
G01 X13.48910362600903Y11.056146745892072
G01 X13.515552268585767Y10.98222774180357
G01 X13.534628224322585Y10.906072257612903
G01 X13.546147781337758Y10.828413712263648
G01 X13.55Y10.75
G01 X13.546147781337758Y10.671586287736352
G01 X13.534628224322585Y10.593927742387097
G01 X13.515552268585767Y10.51777225819643
G01 X13.48910362600903Y10.443853254107928
G01 X13.455537011478684Y10.372882610539202
G01 X13.415175689842036Y10.305543813584318
G01 X13.36840836269019Y10.242485372669083
G01 X13.315685424949239Y10.184314575050761
G01 X13.257514627330917Y10.13159163730981
G01 X13.194456186415682Y10.084824310157964
G01 X13.127117389460798Y10.044462988521316
G01 X13.056146745892072Y10.01089637399097
G01 X12.98222774180357Y9.984447731414233
G01 X12.906072257612903Y9.965371775677415
G01 X12.828413712263648Y9.953852218662242
G01 X12.75Y9.95
G01 X12.671586287736352Y9.953852218662242
G01 X12.593927742387098Y9.965371775677415
G01 X12.51777225819643Y9.984447731414233
G01 X12.443853254107928Y10.01089637399097
G01 X12.372882610539202Y10.044462988521316
G01 X12.305543813584318Y10.084824310157964
G01 X12.242485372669083Y10.13159163730981
G01 X12.184314575050761Y10.184314575050761
G01 X12.13159163730981Y10.242485372669083
G01 X12.084824310157964Y10.305543813584318
G01 X12.044462988521316Y10.372882610539202
G01 X12.01089637399097Y10.443853254107928
G01 X11.984447731414233Y10.51777225819643
G01 X11.965371775677415Y10.593927742387097
G01 X11.953852218662242Y10.671586287736352
G01 X11.95Y10.75
G01 X11.953852218662242Y10.828413712263648
G01 X11.965371775677415Y10.906072257612903
G01 X11.984447731414233Y10.98222774180357
G01 X12.01089637399097Y11.056146745892072
G01 X12.044462988521316Y11.127117389460798
G01 X12.084824310157963Y11.194456186415682
G01 X12.13159163730981Y11.257514627330917
G01 X12.184314575050761Y11.315685424949239
G01 X12.242485372669083Y11.36840836269019
G01 X12.305543813584318Y11.415175689842036
G01 X12.35Y11.441821702539059
G01 X12.35Y13.058178297460941
G01 X12.305543813584318Y13.084824310157964
G01 X12.242485372669083Y13.13159163730981
G01 X12.184314575050761Y13.184314575050761
G01 X12.13159163730981Y13.242485372669083
G01 X12.084824310157964Y13.305543813584318
G01 X12.044462988521316Y13.372882610539202
G01 X12.01089637399097Y13.443853254107928
G01 X11.984447731414233Y13.51777225819643
G01 X11.965371775677415Y13.593927742387097
G01 X11.953852218662242Y13.671586287736352
G01 X11.95Y13.75
G01 X11.953852218662242Y13.828413712263648
G01 X11.965371775677415Y13.906072257612903
G01 X11.984447731414233Y13.98222774180357
G01 X12.01089637399097Y14.056146745892072
G01 X12.044462988521316Y14.127117389460798
G01 X12.084824310157963Y14.194456186415682
G01 X12.13159163730981Y14.257514627330917
G01 X12.184314575050761Y14.315685424949239
G01 X12.242485372669083Y14.36840836269019
G01 X12.305543813584318Y14.415175689842036
G01 X12.35Y14.441821702539059
G01 X12.35Y16.05817829746094
G01 X12.305543813584318Y16.084824310157963
G01 X12.242485372669083Y16.13159163730981
G01 X12.184314575050761Y16.184314575050763
G01 X12.13159163730981Y16.242485372669083
G01 X12.084824310157964Y16.30554381358432
G01 X12.044462988521316Y16.3728826105392
G01 X12.01089637399097Y16.44385325410793
G01 X11.984447731414233Y16.51777225819643
G01 X11.965371775677415Y16.5939277423871
G01 X11.953852218662242Y16.67158628773635
G01 X11.95Y16.75
G01 X11.953852218662242Y16.82841371226365
G01 X11.965371775677415Y16.9060722576129
G01 X11.984447731414233Y16.98222774180357
G01 X12.01089637399097Y17.05614674589207
G01 X12.044462988521316Y17.1271173894608
G01 X12.084824310157963Y17.19445618641568
G01 X12.13159163730981Y17.257514627330917
G01 X12.184314575050761Y17.315685424949237
G01 X12.242485372669083Y17.36840836269019
G01 X12.305543813584318Y17.415175689842037
G01 X12.35Y17.44182170253906
G01 X12.35Y19.05817829746094
G01 X12.305543813584318Y19.084824310157963
G01 X12.242485372669083Y19.13159163730981
G01 X12.184314575050761Y19.184314575050763
G01 X12.13159163730981Y19.242485372669083
G01 X12.084824310157964Y19.30554381358432
G01 X12.044462988521316Y19.3728826105392
G01 X12.01089637399097Y19.44385325410793
G01 X11.984447731414233Y19.51777225819643
G01 X11.965371775677415Y19.5939277423871
G01 X11.953852218662242Y19.67158628773635
G01 X11.95Y19.75
G01 X11.953852218662242Y19.82841371226365
G01 X11.965371775677415Y19.9060722576129
G01 X11.984447731414233Y19.98222774180357
G01 X12.01089637399097Y20.05614674589207
G01 X12.044462988521316Y20.1271173894608
G01 X12.084824310157963Y20.19445618641568
G01 X12.13159163730981Y20.257514627330917
G01 X12.184314575050761Y20.315685424949237
G01 X12.242485372669083Y20.36840836269019
G01 X12.305543813584318Y20.415175689842037
G01 X12.35Y20.44182170253906
G01 X12.35Y22.05817829746094
G01 X12.305543813584318Y22.084824310157963
G01 X12.242485372669083Y22.13159163730981
G01 X12.184314575050761Y22.184314575050763
G01 X12.13159163730981Y22.242485372669083
G01 X12.084824310157964Y22.30554381358432
G01 X12.044462988521316Y22.3728826105392
G01 X12.01089637399097Y22.44385325410793
G01 X11.984447731414233Y22.51777225819643
G01 X11.965371775677415Y22.5939277423871
G01 X11.953852218662242Y22.67158628773635
G01 X11.95Y22.75
G01 X11.953852218662242Y22.82841371226365
G01 X11.965371775677415Y22.9060722576129
G01 X11.984447731414233Y22.98222774180357
G01 X12.01089637399097Y23.05614674589207
G01 X12.044462988521316Y23.1271173894608
G01 X12.084824310157963Y23.19445618641568
G01 X12.13159163730981Y23.257514627330917
G01 X12.184314575050761Y23.315685424949237
G01 X12.242485372669083Y23.36840836269019
G01 X12.305543813584318Y23.415175689842037
G01 X12.35Y23.44182170253906
G01 X12.35Y25.05817829746094
G01 X12.305543813584318Y25.084824310157963
G01 X12.242485372669083Y25.13159163730981
G01 X12.184314575050761Y25.184314575050763
G01 X12.13159163730981Y25.242485372669083
G01 X12.084824310157964Y25.30554381358432
G01 X12.05817829746094Y25.35
G01 X11.165685424949238Y25.35
G01 X10.25Y24.434314575050763
G01 X10.25Y23.650000000000006
G01 X8.75Y23.650000000000006
G01 X8.75Y24.849999999999994
G01 X9.534314575050757Y24.849999999999994
G01 X10.717157287525382Y26.03284271247462
G01 X10.746242686334542Y26.059204181345095
G01 X10.77777190679216Y26.08258784492102
G01 X10.8114413052696Y26.10276850573934
G01 X10.846926627053964Y26.119551813004513
G01 X10.883886129098215Y26.132776134292882
G01 X10.92196387119355Y26.14231411216129
G01 X10.960793143868175Y26.14807389066888
G01 X11.0Y26.15
G01 X12.05817829746094Y26.15
G01 X12.084824310157963Y26.19445618641568
G01 X12.13159163730981Y26.257514627330917
G01 X12.184314575050761Y26.315685424949237
G01 X12.242485372669083Y26.36840836269019
G01 X12.305543813584318Y26.415175689842037
G01 X12.372882610539202Y26.455537011478683
G01 X12.443853254107928Y26.48910362600903
