; This gcode is generated by my specialised python script for my PCB manufacturer project :))

; Machine Initialization Sequence...

G21 ; to set metric units
G90 ; to set absolute mode , G91 for incremental mode
G94 ; To set the active feed rate mode to units per minute mode

M5 ; disabling spindle PWM
C0 ; Choosing the empty tool slot in the multiplexer circuits

B1 ; Turn ON Machine

$H ; Homing :)
G10 P0 L20 X0.0Y0.0Z0.0 ; Force Reset current coordinates after homing


; The following gcode is the PCB trace laser marking gcode

M5 ; Being extra sure it won't light up before activation

; Getting and Activating Tool-1, The Tool.Laser
G00X165.0Y0.0Z10.5 ; Go to Tool-1 Home Pos
G00X188 ; Enter Female Kinematic Mount Home Pos
A1 ; Latch on Kinematic Mount
G4 P5 ; Wait for Kinematic Mount to fully attach
G00X92 ; Exit Female Kinematic Mount Home Pos
#TODO X0.0Y0.0Z0.0 ;  ;Add tool offset coordinate
C1 ; Choosing tool 1 in the choose demultiplexer circuits

F400 ; setting default feedrate

G00Z16 ; Moving to correct focal length Z position

S200 ; Setting Laser Power

; Number of passes: 1

; Pass number: 1
G01 X9.35441Y10.67171
M3
G01 X9.36894Y10.66955
G01 X10.01224Y10.66955
G01 X10.7374Y11.39471
G01 X10.7374Y11.6236
G01 X10.73545Y11.62412
G01 X10.6999Y11.64069
G01 X10.66777Y11.66319
G01 X10.64004Y11.69092
G01 X10.61754Y11.72305
G01 X10.60097Y11.7586
G01 X10.59082Y11.79648
G01 X10.5874Y11.83555
G01 X10.5874Y12.33555
G01 X10.59082Y12.37462
G01 X10.60097Y12.4125
G01 X10.61754Y12.44805
G01 X10.64004Y12.48018
G01 X10.66777Y12.50791
G01 X10.6999Y12.53041
G01 X10.73545Y12.54698
G01 X10.7374Y12.5475
G01 X10.7374Y12.62049
G01 X9.68849Y13.6694
G01 X8.76275Y13.6694
G01 X8.76275Y15.0194
G01 X9.68849Y15.0194
G01 X11.25762Y16.58853
G01 X11.27943Y16.6083
G01 X11.30308Y16.62584
G01 X11.32833Y16.64098
G01 X11.35494Y16.65356
G01 X11.38266Y16.66348
G01 X11.41122Y16.67064
G01 X11.44034Y16.67496
G01 X11.46975Y16.6764
G01 X16.67675Y16.6764
G01 X16.70616Y16.67496
G01 X16.73528Y16.67064
G01 X16.76384Y16.66348
G01 X16.79156Y16.65356
G01 X16.81817Y16.64098
G01 X16.84342Y16.62584
G01 X16.86707Y16.6083
G01 X16.88888Y16.58853
G01 X19.68688Y13.79053
G01 X19.70665Y13.76872
G01 X19.72419Y13.74507
G01 X19.73933Y13.71982
G01 X19.75191Y13.69321
G01 X19.76183Y13.66549
G01 X19.76899Y13.63693
G01 X19.77331Y13.60781
G01 X19.77475Y13.5784
G01 X19.77475Y10.4442
G01 X19.78725Y10.4442
G01 X19.83066Y10.4404
G01 X19.87276Y10.42912
G01 X19.91225Y10.41071
G01 X19.94795Y10.38571
G01 X19.97876Y10.3549
G01 X20.00376Y10.3192
G01 X20.02217Y10.27971
G01 X20.03345Y10.23761
G01 X20.03725Y10.1942
G01 X20.03725Y8.9442
G01 X20.03345Y8.90079
G01 X20.02217Y8.85869
G01 X20.00376Y8.8192
G01 X19.97876Y8.7835
G01 X19.94795Y8.75269
G01 X19.91225Y8.72769
G01 X19.87276Y8.70928
G01 X19.83066Y8.698
G01 X19.78725Y8.6942
G01 X19.77475Y8.6942
G01 X19.77475Y8.1836
G01 X19.78725Y8.1836
G01 X19.83066Y8.1798
G01 X19.87276Y8.16852
G01 X19.91225Y8.15011
G01 X19.94795Y8.12511
G01 X19.97876Y8.0943
G01 X20.00376Y8.0586
G01 X20.02217Y8.01911
G01 X20.03345Y7.97701
G01 X20.03725Y7.9336
G01 X20.03725Y6.6836
G01 X20.03345Y6.64019
G01 X20.02217Y6.59809
G01 X20.00376Y6.5586
G01 X19.97876Y6.5229
G01 X19.94795Y6.49209
G01 X19.91225Y6.46709
G01 X19.87276Y6.44868
G01 X19.83066Y6.4374
G01 X19.78725Y6.4336
G01 X19.16225Y6.4336
G01 X19.11884Y6.4374
G01 X19.07674Y6.44868
G01 X19.03725Y6.46709
G01 X19.00155Y6.49209
G01 X18.97074Y6.5229
G01 X18.94574Y6.5586
G01 X18.92733Y6.59809
G01 X18.91605Y6.64019
G01 X18.91225Y6.6836
G01 X18.91225Y7.9336
G01 X18.91605Y7.97701
G01 X18.92733Y8.01911
G01 X18.94574Y8.0586
G01 X18.97074Y8.0943
G01 X19.00155Y8.12511
G01 X19.03725Y8.15011
G01 X19.07674Y8.16852
G01 X19.11884Y8.1798
G01 X19.16225Y8.1836
G01 X19.17475Y8.1836
G01 X19.17475Y8.6942
G01 X19.16225Y8.6942
G01 X19.11884Y8.698
G01 X19.07674Y8.70928
G01 X19.03725Y8.72769
G01 X19.00155Y8.75269
G01 X18.97074Y8.7835
G01 X18.94574Y8.8192
G01 X18.92733Y8.85869
G01 X18.91605Y8.90079
G01 X18.91225Y8.9442
G01 X18.91225Y10.1942
G01 X18.91605Y10.23761
G01 X18.92733Y10.27971
G01 X18.94574Y10.3192
G01 X18.97074Y10.3549
G01 X19.00155Y10.38571
G01 X19.03725Y10.41071
G01 X19.07674Y10.42912
G01 X19.11884Y10.4404
G01 X19.16225Y10.4442
G01 X19.17475Y10.4442
G01 X19.17475Y13.45414
G01 X16.55249Y16.0764
G01 X11.59401Y16.0764
G01 X10.11275Y14.59514
G01 X10.11275Y14.09366
G01 X11.24953Y12.95688
G01 X11.2693Y12.93507
G01 X11.28684Y12.91142
G01 X11.30198Y12.88617
G01 X11.31456Y12.85956
G01 X11.32448Y12.83184
G01 X11.33164Y12.80328
G01 X11.33596Y12.77416
G01 X11.3374Y12.74475
G01 X11.3374Y12.5475
G01 X11.33935Y12.54698
G01 X11.3749Y12.53041
G01 X11.40703Y12.50791
G01 X11.43476Y12.48018
G01 X11.45726Y12.44805
G01 X11.47383Y12.4125
G01 X11.48398Y12.37462
G01 X11.4874Y12.33555
G01 X11.4874Y11.83555
G01 X11.48398Y11.79648
G01 X11.47383Y11.7586
G01 X11.45726Y11.72305
G01 X11.43476Y11.69092
G01 X11.40703Y11.66319
G01 X11.3749Y11.64069
G01 X11.33935Y11.62412
G01 X11.3374Y11.6236
G01 X11.3374Y11.27045
G01 X11.3374Y11.27045
G01 X11.33596Y11.24104
G01 X11.33164Y11.21192
G01 X11.32448Y11.18336
G01 X11.32093Y11.17345
G01 X11.31456Y11.15564
G01 X11.30793Y11.14162
G01 X11.30198Y11.12903
G01 X11.28684Y11.10378
G01 X11.27383Y11.08624
G01 X11.2693Y11.08013
G01 X11.24953Y11.05832
G01 X11.24953Y11.05832
G01 X11.24953Y11.05832
G01 X10.34863Y10.15742
G01 X10.32682Y10.13765
G01 X10.30317Y10.12011
G01 X10.27792Y10.10497
G01 X10.2684Y10.10047
G01 X10.25131Y10.09239
G01 X10.2367Y10.08716
G01 X10.22359Y10.08247
G01 X10.20218Y10.07711
G01 X10.19503Y10.07531
G01 X10.18976Y10.07453
G01 X10.18165Y10.07333
G01 X10.17605Y10.07183
G01 X10.15Y10.06955
G01 X10.1365Y10.06955
G01 X10.1365Y10.06955
G01 X10.1365Y10.06955
G01 X10.1365Y10.06955
G01 X9.325Y10.06955
G01 X6.389Y10.06955
G01 X6.35959Y10.07099
G01 X6.33047Y10.07531
G01 X6.30191Y10.08247
G01 X6.27419Y10.09239
G01 X6.24758Y10.10497
G01 X6.22233Y10.12011
G01 X6.19868Y10.13765
G01 X6.17687Y10.15742
G01 X5.73049Y10.6038
G01 X5.47975Y10.6038
G01 X5.44502Y10.60684
G01 X5.41135Y10.61586
G01 X5.37975Y10.63059
G01 X5.35119Y10.65059
G01 X5.32654Y10.67524
G01 X5.30654Y10.7038
G01 X5.29181Y10.7354
G01 X5.28279Y10.76907
G01 X5.27975Y10.8038
G01 X5.27975Y11.2038
G01 X5.28279Y11.23853
G01 X5.29181Y11.2722
G01 X5.30654Y11.3038
G01 X5.32654Y11.33236
G01 X5.35119Y11.35701
G01 X5.37975Y11.37701
G01 X5.41135Y11.39174
G01 X5.44502Y11.40076
G01 X5.47975Y11.4038
G01 X6.02975Y11.4038
G01 X6.06448Y11.40076
G01 X6.09815Y11.39174
G01 X6.12975Y11.37701
G01 X6.15831Y11.35701
G01 X6.18296Y11.33236
G01 X6.20296Y11.3038
G01 X6.21769Y11.2722
G01 X6.22671Y11.23853
G01 X6.22975Y11.2038
G01 X6.22975Y10.95306
G01 X6.51326Y10.66955
G01 X9.28106Y10.66955
G01 X9.29559Y10.67171
G01 X9.325Y10.67315
G01 X9.35441Y10.67171
G01 X9.35441Y10.67171
M5
G01 X5.46568Y7.53542
M3
G01 X5.4278Y7.54557
G01 X5.39225Y7.56214
G01 X5.36012Y7.58464
G01 X5.33239Y7.61237
G01 X5.30989Y7.6445
G01 X5.29332Y7.68005
G01 X5.28317Y7.71793
G01 X5.27975Y7.757
G01 X5.27975Y8.207
G01 X5.28317Y8.24607
G01 X5.29332Y8.28395
G01 X5.30989Y8.3195
G01 X5.33239Y8.35163
G01 X5.36012Y8.37936
G01 X5.39225Y8.40186
G01 X5.4278Y8.41843
G01 X5.45475Y8.42565
G01 X5.45475Y8.95599
G01 X5.44502Y8.95684
G01 X5.41135Y8.96586
G01 X5.37975Y8.98059
G01 X5.35119Y9.00059
G01 X5.32654Y9.02524
G01 X5.30654Y9.0538
G01 X5.29181Y9.0854
G01 X5.28279Y9.11907
G01 X5.27975Y9.1538
G01 X5.27975Y9.5538
G01 X5.28279Y9.58853
G01 X5.29181Y9.6222
G01 X5.30654Y9.6538
G01 X5.32654Y9.68236
G01 X5.35119Y9.70701
G01 X5.37975Y9.72701
G01 X5.41135Y9.74174
G01 X5.44502Y9.75076
G01 X5.47975Y9.7538
G01 X6.02975Y9.7538
G01 X6.06448Y9.75076
G01 X6.09815Y9.74174
G01 X6.12975Y9.72701
G01 X6.15831Y9.70701
G01 X6.18296Y9.68236
G01 X6.20296Y9.6538
G01 X6.21769Y9.6222
G01 X6.22671Y9.58853
G01 X6.22975Y9.5538
G01 X6.22975Y9.39955
G01 X9.325Y9.39955
G01 X10.15Y9.39955
G01 X10.17605Y9.39727
G01 X10.2013Y9.3905
G01 X10.225Y9.37945
G01 X10.24642Y9.36446
G01 X10.26491Y9.34597
G01 X10.2799Y9.32455
G01 X10.29095Y9.30085
G01 X10.29772Y9.2756
G01 X10.3Y9.24955
G01 X10.3Y8.94955
G01 X10.29772Y8.9235
G01 X10.29095Y8.89825
G01 X10.2799Y8.87455
G01 X10.26491Y8.85313
G01 X10.24642Y8.83464
G01 X10.225Y8.81965
G01 X10.2013Y8.8086
G01 X10.17605Y8.80183
G01 X10.15Y8.79955
G01 X9.325Y8.79955
G01 X6.05475Y8.79955
G01 X6.05475Y8.42565
G01 X6.0817Y8.41843
G01 X6.11725Y8.40186
G01 X6.14938Y8.37936
G01 X6.17711Y8.35163
G01 X6.19961Y8.3195
G01 X6.21618Y8.28395
G01 X6.22633Y8.24607
G01 X6.22975Y8.207
G01 X6.22975Y7.757
G01 X6.22633Y7.71793
G01 X6.21618Y7.68005
G01 X6.19961Y7.6445
G01 X6.17711Y7.61237
G01 X6.14938Y7.58464
G01 X6.11725Y7.56214
G01 X6.0817Y7.54557
G01 X6.04382Y7.53542
G01 X6.00475Y7.532
G01 X5.50475Y7.532
G01 X5.46568Y7.53542
G01 X5.46568Y7.53542
M5
G01 X10.26491Y7.58313
M3
G01 X10.24642Y7.56464
G01 X10.225Y7.54965
G01 X10.2013Y7.5386
G01 X10.17605Y7.53183
G01 X10.15Y7.52955
G01 X9.325Y7.52955
G01 X9.325Y7.52955
G01 X8.47426Y7.52955
G01 X7.68035Y6.73564
G01 X7.68035Y4.8594
G01 X8.08075Y4.8594
G01 X8.08075Y3.5094
G01 X6.73075Y3.5094
G01 X6.73075Y4.8594
G01 X7.08035Y4.8594
G01 X7.08035Y6.8599
G01 X7.08179Y6.88931
G01 X7.08611Y6.91843
G01 X7.09327Y6.94699
G01 X7.10319Y6.97471
G01 X7.11577Y7.00132
G01 X7.13091Y7.02657
G01 X7.14845Y7.05022
G01 X7.16822Y7.07203
G01 X8.13787Y8.04168
G01 X8.15968Y8.06145
G01 X8.18333Y8.07899
G01 X8.20858Y8.09413
G01 X8.23519Y8.10671
G01 X8.26291Y8.11663
G01 X8.29147Y8.12379
G01 X8.32059Y8.12811
G01 X8.35Y8.12955
G01 X9.325Y8.12955
G01 X9.325Y8.12955
G01 X10.15Y8.12955
G01 X10.17605Y8.12727
G01 X10.2013Y8.1205
G01 X10.225Y8.10945
G01 X10.24642Y8.09446
G01 X10.26491Y8.07597
G01 X10.2799Y8.05455
G01 X10.29095Y8.03085
G01 X10.29772Y8.0056
G01 X10.3Y7.97955
G01 X10.3Y7.67955
G01 X10.29772Y7.6535
G01 X10.29095Y7.62825
G01 X10.2799Y7.60455
G01 X10.26491Y7.58313
G01 X10.26491Y7.58313
M5
G01 X12.2499Y11.64069
M3
G01 X12.21777Y11.66319
G01 X12.19004Y11.69092
G01 X12.16754Y11.72305
G01 X12.15097Y11.7586
G01 X12.14082Y11.79648
G01 X12.1374Y11.83555
G01 X12.1374Y12.33555
G01 X12.14082Y12.37462
G01 X12.15097Y12.4125
G01 X12.16754Y12.44805
G01 X12.19004Y12.48018
G01 X12.21777Y12.50791
G01 X12.2499Y12.53041
G01 X12.28545Y12.54698
G01 X12.2874Y12.5475
G01 X12.2874Y12.76965
G01 X12.28884Y12.79906
G01 X12.29316Y12.82818
G01 X12.30032Y12.85674
G01 X12.31024Y12.88446
G01 X12.32282Y12.91107
G01 X12.33796Y12.93632
G01 X12.3555Y12.95997
G01 X12.37527Y12.98178
G01 X13.53795Y14.14446
G01 X13.53795Y15.0194
G01 X14.88795Y15.0194
G01 X14.88795Y13.6694
G01 X13.91141Y13.6694
G01 X12.8874Y12.64539
G01 X12.8874Y12.5475
G01 X12.88935Y12.54698
G01 X12.9249Y12.53041
G01 X12.95703Y12.50791
G01 X12.98476Y12.48018
G01 X13.00726Y12.44805
G01 X13.02383Y12.4125
G01 X13.03398Y12.37462
G01 X13.0374Y12.33555
G01 X13.0374Y11.83555
G01 X13.03398Y11.79648
G01 X13.02383Y11.7586
G01 X13.00726Y11.72305
G01 X12.98476Y11.69092
G01 X12.95703Y11.66319
G01 X12.9249Y11.64069
G01 X12.88935Y11.62412
G01 X12.8874Y11.6236
G01 X12.8874Y11.36981
G01 X13.58766Y10.66955
G01 X14.275Y10.66955
G01 X15.1Y10.66955
G01 X15.12605Y10.66727
G01 X15.1513Y10.6605
G01 X15.175Y10.64945
G01 X15.19642Y10.63446
G01 X15.21491Y10.61597
G01 X15.2299Y10.59455
G01 X15.24095Y10.57085
G01 X15.24772Y10.5456
G01 X15.25Y10.51955
G01 X15.25Y10.21955
G01 X15.24772Y10.1935
G01 X15.24095Y10.16825
G01 X15.2299Y10.14455
G01 X15.21491Y10.12313
G01 X15.19642Y10.10464
G01 X15.175Y10.08965
G01 X15.1513Y10.0786
G01 X15.12605Y10.07183
G01 X15.1Y10.06955
G01 X14.275Y10.06955
G01 X13.4634Y10.06955
G01 X13.45Y10.06955
G01 X13.42395Y10.07183
G01 X13.41847Y10.0733
G01 X13.411Y10.07441
G01 X13.40487Y10.07531
G01 X13.37631Y10.08247
G01 X13.3664Y10.08602
G01 X13.34859Y10.09239
G01 X13.33457Y10.09902
G01 X13.32198Y10.10497
G01 X13.29673Y10.12011
G01 X13.27919Y10.13312
G01 X13.27308Y10.13765
G01 X13.25127Y10.15742
G01 X12.5874Y10.82129
G01 X11.97295Y10.20684
G01 X11.97295Y7.9325
G01 X11.97151Y7.90309
G01 X11.96719Y7.87397
G01 X11.96003Y7.84541
G01 X11.95011Y7.81769
G01 X11.93753Y7.79108
G01 X11.92239Y7.76583
G01 X11.90485Y7.74218
G01 X11.88508Y7.72037
G01 X11.49693Y7.33222
G01 X10.78985Y6.62514
G01 X10.78985Y5.51835
G01 X10.80235Y5.51835
G01 X10.84576Y5.51455
G01 X10.88786Y5.50327
G01 X10.92735Y5.48486
G01 X10.96305Y5.45986
G01 X10.99386Y5.42905
G01 X11.01886Y5.39335
G01 X11.03727Y5.35386
G01 X11.04855Y5.31176
G01 X11.05235Y5.26835
G01 X11.05235Y4.01835
G01 X11.04855Y3.97494
G01 X11.03727Y3.93284
G01 X11.01886Y3.89335
G01 X10.99386Y3.85765
G01 X10.96305Y3.82684
G01 X10.92735Y3.80184
G01 X10.88786Y3.78343
G01 X10.84576Y3.77215
G01 X10.80235Y3.76835
G01 X10.78985Y3.76835
G01 X10.78985Y3.4839
G01 X10.78841Y3.45449
G01 X10.78409Y3.42537
G01 X10.77693Y3.39681
G01 X10.77427Y3.38937
G01 X10.76701Y3.36909
G01 X10.75889Y3.35191
G01 X10.75443Y3.34248
G01 X10.73929Y3.31723
G01 X10.72175Y3.29358
G01 X10.70198Y3.27177
G01 X9.21808Y1.78787
G01 X9.19627Y1.7681
G01 X9.18033Y1.75628
G01 X9.17262Y1.75056
G01 X9.14737Y1.73542
G01 X9.1445Y1.73407
G01 X9.12076Y1.72284
G01 X9.09304Y1.71292
G01 X9.09294Y1.7129
G01 X9.06448Y1.70576
G01 X9.03993Y1.70212
G01 X9.03536Y1.70144
G01 X9.0175Y1.70057
G01 X9.00595Y1.7
G01 X5.83095Y1.7
G01 X5.81795Y1.70064
G01 X5.80154Y1.70144
G01 X5.79069Y1.70306
G01 X5.77242Y1.70576
G01 X5.76275Y1.70819
G01 X5.74386Y1.71292
G01 X5.73381Y1.71652
G01 X5.71614Y1.72284
G01 X5.70841Y1.7265
G01 X5.68953Y1.73542
G01 X5.66428Y1.75056
G01 X5.64552Y1.76447
G01 X5.64063Y1.7681
G01 X5.61882Y1.78787
G01 X5.06002Y2.34667
G01 X5.05237Y2.35511
G01 X5.04025Y2.36848
G01 X5.03175Y2.37993
G01 X5.02271Y2.39213
G01 X5.01334Y2.40776
G01 X5.00757Y2.41738
G01 X5.00296Y2.42713
G01 X4.99499Y2.44399
G01 X4.98507Y2.47171
G01 X4.98151Y2.48594
G01 X4.97791Y2.50027
G01 X4.97359Y2.52939
G01 X4.97275Y2.54652
G01 X4.97215Y2.5588
G01 X4.97215Y5.9494
G01 X4.9725Y5.95662
G01 X4.97359Y5.97881
G01 X4.97791Y6.00793
G01 X4.98507Y6.03649
G01 X4.99499Y6.06421
G01 X5.00358Y6.08236
G01 X5.00757Y6.09082
G01 X5.02271Y6.11607
G01 X5.04025Y6.13972
G01 X5.06002Y6.16153
G01 X5.27975Y6.38126
G01 X5.27975Y6.657
G01 X5.28317Y6.69607
G01 X5.29332Y6.73395
G01 X5.30989Y6.7695
G01 X5.33239Y6.80163
G01 X5.36012Y6.82936
G01 X5.39225Y6.85186
G01 X5.4278Y6.86843
G01 X5.46568Y6.87858
G01 X5.50475Y6.882
G01 X6.00475Y6.882
G01 X6.04382Y6.87858
G01 X6.0817Y6.86843
G01 X6.11725Y6.85186
G01 X6.14938Y6.82936
G01 X6.17711Y6.80163
G01 X6.19961Y6.7695
G01 X6.21618Y6.73395
G01 X6.22633Y6.69607
G01 X6.22975Y6.657
G01 X6.22975Y6.207
G01 X6.22633Y6.16793
G01 X6.21618Y6.13005
G01 X6.19961Y6.0945
G01 X6.17711Y6.06237
G01 X6.14938Y6.03464
G01 X6.11725Y6.01214
G01 X6.0817Y5.99557
G01 X6.04382Y5.98542
G01 X6.00475Y5.982
G01 X5.72901Y5.982
G01 X5.57215Y5.82514
G01 X5.57215Y2.68306
G01 X5.95521Y2.3
G01 X8.88169Y2.3
G01 X10.18985Y3.60816
G01 X10.18985Y3.76835
G01 X10.17735Y3.76835
G01 X10.13394Y3.77215
G01 X10.09184Y3.78343
G01 X10.05235Y3.80184
G01 X10.01665Y3.82684
G01 X9.98584Y3.85765
G01 X9.96084Y3.89335
G01 X9.94243Y3.93284
G01 X9.93115Y3.97494
G01 X9.92735Y4.01835
G01 X9.92735Y5.26835
G01 X9.93115Y5.31176
G01 X9.94243Y5.35386
G01 X9.96084Y5.39335
G01 X9.98584Y5.42905
G01 X10.01665Y5.45986
G01 X10.05235Y5.48486
G01 X10.09184Y5.50327
G01 X10.13394Y5.51455
G01 X10.17735Y5.51835
G01 X10.18985Y5.51835
G01 X10.18985Y6.25955
G01 X9.325Y6.25955
G01 X8.5Y6.25955
G01 X8.47395Y6.26183
G01 X8.4487Y6.2686
G01 X8.425Y6.27965
G01 X8.40358Y6.29464
G01 X8.38509Y6.31313
G01 X8.3701Y6.33455
G01 X8.35905Y6.35825
G01 X8.35228Y6.3835
G01 X8.35Y6.40955
G01 X8.35Y6.70955
G01 X8.35228Y6.7356
G01 X8.35905Y6.76085
G01 X8.3701Y6.78455
G01 X8.38509Y6.80597
G01 X8.40358Y6.82446
G01 X8.425Y6.83945
G01 X8.4487Y6.8505
G01 X8.47395Y6.85727
G01 X8.5Y6.85955
G01 X9.325Y6.85955
G01 X10.17574Y6.85955
G01 X11.07267Y7.75648
G01 X11.37295Y8.05676
G01 X11.37295Y10.3311
G01 X11.37439Y10.36051
G01 X11.37871Y10.38963
G01 X11.38587Y10.41819
G01 X11.38942Y10.4281
G01 X11.39579Y10.44591
G01 X11.40242Y10.45993
G01 X11.40837Y10.47252
G01 X11.42351Y10.49777
G01 X11.43652Y10.51531
G01 X11.44105Y10.52142
G01 X11.46082Y10.54323
G01 X12.2874Y11.36981
G01 X12.2874Y11.6236
G01 X12.28545Y11.62412
G01 X12.2499Y11.64069
G01 X12.2499Y11.64069
M5
G01 X15.24772Y6.3835
M3
G01 X15.24095Y6.35825
G01 X15.2299Y6.33455
G01 X15.21491Y6.31313
G01 X15.19642Y6.29464
G01 X15.175Y6.27965
G01 X15.1513Y6.2686
G01 X15.12605Y6.26183
G01 X15.1Y6.25955
G01 X14.39926Y6.25955
G01 X13.71485Y5.57514
G01 X13.71485Y5.51835
G01 X13.72735Y5.51835
G01 X13.77076Y5.51455
G01 X13.81286Y5.50327
G01 X13.85235Y5.48486
G01 X13.88805Y5.45986
G01 X13.91886Y5.42905
G01 X13.94386Y5.39335
G01 X13.96227Y5.35386
G01 X13.97355Y5.31176
G01 X13.97735Y5.26835
G01 X13.97735Y4.01835
G01 X13.97355Y3.97494
G01 X13.96227Y3.93284
G01 X13.94386Y3.89335
G01 X13.91886Y3.85765
G01 X13.88805Y3.82684
G01 X13.85235Y3.80184
G01 X13.81286Y3.78343
G01 X13.77076Y3.77215
G01 X13.72735Y3.76835
G01 X13.10235Y3.76835
G01 X13.05894Y3.77215
G01 X13.01684Y3.78343
G01 X12.97735Y3.80184
G01 X12.94165Y3.82684
G01 X12.91084Y3.85765
G01 X12.88584Y3.89335
G01 X12.86743Y3.93284
G01 X12.85615Y3.97494
G01 X12.85235Y4.01835
G01 X12.85235Y5.26835
G01 X12.85615Y5.31176
G01 X12.86743Y5.35386
G01 X12.88584Y5.39335
G01 X12.91084Y5.42905
G01 X12.94165Y5.45986
G01 X12.97735Y5.48486
G01 X13.01684Y5.50327
G01 X13.05894Y5.51455
G01 X13.10235Y5.51835
G01 X13.11485Y5.51835
G01 X13.11485Y5.6994
G01 X13.11629Y5.72881
G01 X13.12061Y5.75793
G01 X13.12777Y5.78649
G01 X13.13769Y5.81421
G01 X13.15027Y5.84082
G01 X13.16541Y5.86607
G01 X13.18295Y5.88972
G01 X13.20272Y5.91153
G01 X13.55074Y6.25955
G01 X13.45Y6.25955
G01 X13.42395Y6.26183
G01 X13.3987Y6.2686
G01 X13.375Y6.27965
G01 X13.35358Y6.29464
G01 X13.33509Y6.31313
G01 X13.3201Y6.33455
G01 X13.30905Y6.35825
G01 X13.30228Y6.3835
G01 X13.3Y6.40955
G01 X13.3Y6.70955
G01 X13.30228Y6.7356
G01 X13.30905Y6.76085
G01 X13.3201Y6.78455
G01 X13.33509Y6.80597
G01 X13.35358Y6.82446
G01 X13.375Y6.83945
G01 X13.3987Y6.8505
G01 X13.42395Y6.85727
G01 X13.45Y6.85955
G01 X14.275Y6.85955
G01 X14.275Y6.85955
G01 X14.275Y6.85955
G01 X15.1Y6.85955
G01 X15.12605Y6.85727
G01 X15.1513Y6.8505
G01 X15.175Y6.83945
G01 X15.19642Y6.82446
G01 X15.21491Y6.80597
G01 X15.2299Y6.78455
G01 X15.24095Y6.76085
G01 X15.24772Y6.7356
G01 X15.25Y6.70955
G01 X15.25Y6.40955
G01 X15.24772Y6.3835
G01 X15.24772Y6.3835
M5
G01 X13.33509Y7.58313
M3
G01 X13.3201Y7.60455
G01 X13.30905Y7.62825
G01 X13.30228Y7.6535
G01 X13.3Y7.67955
G01 X13.3Y7.97955
G01 X13.30228Y8.0056
G01 X13.30905Y8.03085
G01 X13.3201Y8.05455
G01 X13.33509Y8.07597
G01 X13.35358Y8.09446
G01 X13.375Y8.10945
G01 X13.3987Y8.1205
G01 X13.42395Y8.12727
G01 X13.45Y8.12955
G01 X14.275Y8.12955
G01 X14.275Y8.12955
G01 X16.0288Y8.12955
G01 X16.05821Y8.12811
G01 X16.07687Y8.12534
G01 X16.11225Y8.15011
G01 X16.15174Y8.16852
G01 X16.19384Y8.1798
G01 X16.23725Y8.1836
G01 X16.86225Y8.1836
G01 X16.90566Y8.1798
G01 X16.94776Y8.16852
G01 X16.98725Y8.15011
G01 X17.02295Y8.12511
G01 X17.05376Y8.0943
G01 X17.07876Y8.0586
G01 X17.09717Y8.01911
G01 X17.10845Y7.97701
G01 X17.11225Y7.9336
G01 X17.11225Y6.6836
G01 X17.10845Y6.64019
G01 X17.09717Y6.59809
G01 X17.07876Y6.5586
G01 X17.05376Y6.5229
G01 X17.02295Y6.49209
G01 X16.98725Y6.46709
G01 X16.94776Y6.44868
G01 X16.90566Y6.4374
G01 X16.86225Y6.4336
G01 X16.84975Y6.4336
G01 X16.84975Y5.46636
G01 X16.97411Y5.342
G01 X17.91055Y5.342
G01 X17.91055Y3.992
G01 X16.56055Y3.992
G01 X16.56055Y4.90704
G01 X16.33762Y5.12997
G01 X16.33762Y5.12997
G01 X16.31785Y5.15178
G01 X16.30829Y5.16466
G01 X16.30031Y5.17543
G01 X16.29497Y5.18433
G01 X16.28517Y5.20068
G01 X16.27705Y5.21785
G01 X16.27259Y5.22729
G01 X16.26267Y5.25501
G01 X16.25551Y5.28357
G01 X16.25119Y5.31269
G01 X16.24975Y5.3421
G01 X16.24975Y5.3421
G01 X16.24975Y5.3421
G01 X16.24975Y6.4336
G01 X16.23725Y6.4336
G01 X16.19384Y6.4374
G01 X16.15174Y6.44868
G01 X16.11225Y6.46709
G01 X16.07655Y6.49209
G01 X16.04574Y6.5229
G01 X16.02074Y6.5586
G01 X16.00233Y6.59809
G01 X15.99105Y6.64019
G01 X15.98725Y6.6836
G01 X15.98725Y7.44684
G01 X15.90454Y7.52955
G01 X14.275Y7.52955
G01 X14.275Y7.52955
G01 X13.45Y7.52955
G01 X13.42395Y7.53183
G01 X13.3987Y7.5386
G01 X13.375Y7.54965
G01 X13.35358Y7.56464
G01 X13.33509Y7.58313
G01 X13.33509Y7.58313
M5
G01 X13.30905Y9.30085
M3
G01 X13.3201Y9.32455
G01 X13.33509Y9.34597
G01 X13.35358Y9.36446
G01 X13.375Y9.37945
G01 X13.3987Y9.3905
G01 X13.42395Y9.39727
G01 X13.45Y9.39955
G01 X14.275Y9.39955
G01 X14.275Y9.39955
G01 X15.95584Y9.39955
G01 X15.98725Y9.43096
G01 X15.98725Y10.1942
G01 X15.99105Y10.23761
G01 X16.00233Y10.27971
G01 X16.02074Y10.3192
G01 X16.04574Y10.3549
G01 X16.07655Y10.38571
G01 X16.11225Y10.41071
G01 X16.15174Y10.42912
G01 X16.19384Y10.4404
G01 X16.23725Y10.4442
G01 X16.24975Y10.4442
G01 X16.24975Y11.5357
G01 X16.24975Y11.5357
G01 X16.24975Y11.5357
G01 X16.25119Y11.56511
G01 X16.25551Y11.59423
G01 X16.26267Y11.62279
G01 X16.27259Y11.65051
G01 X16.27648Y11.65875
G01 X16.28517Y11.67712
G01 X16.29383Y11.69156
G01 X16.30031Y11.70237
G01 X16.31065Y11.71631
G01 X16.31785Y11.72602
G01 X16.33762Y11.74783
G01 X16.33762Y11.74783
G01 X16.33762Y11.74783
G01 X16.56055Y11.97076
G01 X16.56055Y12.8858
G01 X17.91055Y12.8858
G01 X17.91055Y11.5358
G01 X16.97411Y11.5358
G01 X16.84975Y11.41144
G01 X16.84975Y10.4442
G01 X16.86225Y10.4442
G01 X16.90566Y10.4404
G01 X16.94776Y10.42912
G01 X16.98725Y10.41071
G01 X17.02295Y10.38571
G01 X17.05376Y10.3549
G01 X17.07876Y10.3192
G01 X17.09717Y10.27971
G01 X17.10845Y10.23761
G01 X17.11225Y10.1942
G01 X17.11225Y8.9442
G01 X17.10845Y8.90079
G01 X17.09717Y8.85869
G01 X17.07876Y8.8192
G01 X17.05376Y8.7835
G01 X17.02295Y8.75269
G01 X16.98725Y8.72769
G01 X16.94776Y8.70928
G01 X16.90566Y8.698
G01 X16.86225Y8.6942
G01 X16.23725Y8.6942
G01 X16.19384Y8.698
G01 X16.15174Y8.70928
G01 X16.11225Y8.72769
G01 X16.07655Y8.75269
G01 X16.04574Y8.7835
G01 X16.0345Y8.79955
G01 X14.275Y8.79955
G01 X14.275Y8.79955
G01 X13.45Y8.79955
G01 X13.42395Y8.80183
G01 X13.3987Y8.8086
G01 X13.375Y8.81965
G01 X13.35358Y8.83464
G01 X13.33509Y8.85313
G01 X13.3201Y8.87455
G01 X13.30905Y8.89825
G01 X13.30228Y8.9235
G01 X13.3Y8.94955
G01 X13.3Y9.24955
G01 X13.30228Y9.2756
G01 X13.30905Y9.30085
G01 X13.30905Y9.30085
M5
G01 X1.97024Y9.09564
M3
G01 X2.03087Y9.72414
G01 X2.13164Y10.34746
G01 X2.27215Y10.96305
G01 X2.4518Y11.56837
G01 X2.66987Y12.16093
G01 X2.92546Y12.7383
G01 X3.21751Y13.29812
G01 X3.54483Y13.83807
G01 X3.90608Y14.35594
G01 X4.29976Y14.8496
G01 X4.72426Y15.31702
G01 X5.17784Y15.75629
G01 X5.65863Y16.16559
G01 X6.16465Y16.54325
G01 X6.69383Y16.88771
G01 X7.244Y17.19755
G01 X7.81288Y17.47151
G01 X8.39815Y17.70846
G01 X8.9974Y17.90743
G01 X9.60817Y18.06759
G01 X10.22794Y18.18829
G01 X10.85417Y18.26903
G01 X11.48429Y18.30949
G01 X12.11571Y18.30949
G01 X12.74583Y18.26903
G01 X13.37206Y18.18829
G01 X13.99183Y18.06759
G01 X14.6026Y17.90743
G01 X15.20185Y17.70846
G01 X15.78712Y17.47151
G01 X16.356Y17.19755
G01 X16.90617Y16.88771
G01 X17.43535Y16.54325
G01 X17.94137Y16.16559
G01 X18.42216Y15.75629
G01 X18.87574Y15.31702
G01 X19.30024Y14.8496
G01 X19.69392Y14.35594
G01 X20.05517Y13.83807
G01 X20.38249Y13.29812
G01 X20.67454Y12.7383
G01 X20.93013Y12.16093
G01 X21.1482Y11.56837
G01 X21.32785Y10.96305
G01 X21.46836Y10.34746
G01 X21.56913Y9.72414
G01 X21.62976Y9.09564
G01 X21.65Y8.46455
G01 X21.55Y8.46455
G01 X21.52997Y9.08923
G01 X21.46995Y9.71135
G01 X21.3702Y10.32835
G01 X21.23112Y10.93768
G01 X21.05329Y11.53686
G01 X20.83744Y12.1234
G01 X20.58445Y12.69492
G01 X20.29536Y13.24905
G01 X19.97136Y13.78352
G01 X19.61378Y14.29613
G01 X19.2241Y14.78478
G01 X18.80391Y15.24745
G01 X18.35493Y15.68226
G01 X17.87903Y16.08741
G01 X17.37814Y16.46123
G01 X16.85433Y16.80219
G01 X16.30975Y17.10889
G01 X15.74664Y17.38007
G01 X15.16731Y17.61462
G01 X14.57414Y17.81156
G01 X13.96958Y17.9701
G01 X13.3561Y18.08957
G01 X12.73622Y18.1695
G01 X12.1125Y18.20954
G01 X11.4875Y18.20954
G01 X10.86378Y18.1695
G01 X10.2439Y18.08957
G01 X9.63042Y17.9701
G01 X9.02586Y17.81156
G01 X8.43269Y17.61462
G01 X7.85336Y17.38007
G01 X7.29025Y17.10889
G01 X6.74567Y16.80219
G01 X6.22186Y16.46123
G01 X5.72097Y16.08741
G01 X5.24507Y15.68226
G01 X4.79609Y15.24745
G01 X4.3759Y14.78478
G01 X3.98622Y14.29613
G01 X3.62864Y13.78352
G01 X3.30464Y13.24905
G01 X3.01555Y12.69492
G01 X2.76256Y12.1234
G01 X2.54671Y11.53686
G01 X2.36888Y10.93768
G01 X2.2298Y10.32835
G01 X2.13005Y9.71135
G01 X2.07003Y9.08923
G01 X2.05Y8.46455
G01 X2.05Y8.46455
G01 X2.07003Y7.83987
G01 X2.13005Y7.21775
G01 X2.2298Y6.60075
G01 X2.36888Y5.99142
G01 X2.54671Y5.39224
G01 X2.76256Y4.8057
G01 X3.01555Y4.23418
G01 X3.30464Y3.68005
G01 X3.62864Y3.14558
G01 X3.98622Y2.63297
G01 X4.3759Y2.14432
G01 X4.79609Y1.68165
G01 X5.24507Y1.24684
G01 X5.72097Y0.84169
G01 X6.22186Y0.46787
G01 X6.74567Y0.12691
G01 X7.29025Y-0.17979
G01 X7.85336Y-0.45097
G01 X8.43269Y-0.68552
G01 X9.02586Y-0.88246
G01 X9.63042Y-1.041
G01 X10.2439Y-1.16047
G01 X10.86378Y-1.2404
G01 X11.4875Y-1.28044
G01 X12.1125Y-1.28044
G01 X12.73622Y-1.2404
G01 X13.3561Y-1.16047
G01 X13.96958Y-1.041
G01 X14.57414Y-0.88246
G01 X15.16731Y-0.68552
G01 X15.74664Y-0.45097
G01 X16.30975Y-0.17979
G01 X16.85433Y0.12691
G01 X17.37814Y0.46787
G01 X17.87903Y0.84169
G01 X18.35493Y1.24684
G01 X18.80391Y1.68165
G01 X19.2241Y2.14432
G01 X19.61378Y2.63297
G01 X19.97136Y3.14558
G01 X20.29536Y3.68005
G01 X20.58445Y4.23418
G01 X20.83744Y4.8057
G01 X21.05329Y5.39224
G01 X21.23112Y5.99142
G01 X21.3702Y6.60075
G01 X21.46995Y7.21775
G01 X21.52997Y7.83987
G01 X21.55Y8.46455
G01 X21.65Y8.46455
G01 X21.62976Y7.83346
G01 X21.56913Y7.20496
G01 X21.46836Y6.58164
G01 X21.32785Y5.96605
G01 X21.1482Y5.36073
G01 X20.93013Y4.76817
G01 X20.67454Y4.1908
G01 X20.38249Y3.63098
G01 X20.05517Y3.09103
G01 X19.69392Y2.57316
G01 X19.30024Y2.0795
G01 X18.87574Y1.61208
G01 X18.42216Y1.17281
G01 X17.94137Y0.76351
G01 X17.43535Y0.38585
G01 X16.90617Y0.04139
G01 X16.356Y-0.26845
G01 X15.78712Y-0.54241
G01 X15.20185Y-0.77936
G01 X14.6026Y-0.97833
G01 X13.99183Y-1.13849
G01 X13.37206Y-1.25919
G01 X12.74583Y-1.33993
G01 X12.11571Y-1.38039
G01 X11.48429Y-1.38039
G01 X10.85417Y-1.33993
G01 X10.22794Y-1.25919
G01 X9.60817Y-1.13849
G01 X8.9974Y-0.97833
G01 X8.39815Y-0.77936
G01 X7.81288Y-0.54241
G01 X7.244Y-0.26845
G01 X6.69383Y0.04139
G01 X6.16465Y0.38585
G01 X5.65863Y0.76351
G01 X5.17784Y1.17281
G01 X4.72426Y1.61208
G01 X4.29976Y2.0795
G01 X3.90608Y2.57316
G01 X3.54483Y3.09103
G01 X3.21751Y3.63098
G01 X2.92546Y4.1908
G01 X2.66987Y4.76817
G01 X2.4518Y5.36073
G01 X2.27215Y5.96605
G01 X2.13164Y6.58164
G01 X2.03087Y7.20496
G01 X1.97024Y7.83346
G01 X1.95Y8.46455
G01 X1.95Y8.46455
G01 X1.97024Y9.09564
G01 X1.97024Y9.09564
M5

M5 ; Disable End-Effector Signal

; Returning the Deactivating Tool-1
C0 ; PWM Tool select demultiplexer to select tool zero which is the empty tool slot in multiplexers
#TODO X-0.0Y-0.0Z-0.0 ;  ;Remove tool offset coordinate
G00X165.0Y0.0Z10.5 ; Go to Tool-1 Home Pos
G00X92 ; Enter Female Kinematic Mount Home Pos
A0 ; Latch OFF Kinematic Mount
G4 P5 ; Wait for Kinematic Mount to fully detach
G00X188 ; Exit Female Kinematic Mount Home Pos

; Machine deinitialization Sequence... 
G00X0.0Y0.0Z0.0
B0 ; Turn Machine OFF
