; This gcode is generated by my specialised python script for my PCB manufacturer project :))

; Machine Initialization Sequence...

G21 ; to set metric units
G90 ; to set absolute mode , G91 for incremental mode
G94 ; To set the active feed rate mode to units per minute mode

M5 ; disabling spindle PWM
C0 ; Choosing the empty tool slot in the multiplexer circuits

B1 ; Turn ON Machine

$H ; Homing :)
G10 P0 L20 X0.0Y0.0Z0.0 ; Force Reset current coordinates after homing


; The following gcode is the PCB trace laser marking gcode

M5 ; Being extra sure it won't light up before activation

; Getting and Activating Tool-1, The Tool.Laser
G00X165.0Y0.0Z10.5 ; Go to Tool-1 Home Pos
G00X188 ; Enter Female Kinematic Mount Home Pos
A1 ; Latch on Kinematic Mount
G4 P5 ; Wait for Kinematic Mount to fully attach
G00X92 ; Exit Female Kinematic Mount Home Pos
#TODO X0.0Y0.0Z0.0 ;  ;Add tool offset coordinate
C1 ; Choosing tool 1 in the choose demultiplexer circuits

F400 ; setting default feedrate

G00Z16 ; Moving to correct focal length Z position

S200 ; Setting Laser Power

; Number of passes: 1

; Pass number: 1
G01 X8.30109Y17.26953
M3
G01 X8.30541Y17.24041
G01 X8.30685Y17.211
G01 X8.30685Y14.575
G01 X8.45185Y14.575
G01 X8.83185Y14.575
G01 X8.97685Y14.575
G01 X8.97685Y17.44525
G01 X8.7476Y17.44525
G01 X8.71287Y17.44829
G01 X8.6792Y17.45731
G01 X8.6476Y17.47204
G01 X8.61904Y17.49204
G01 X8.59439Y17.51669
G01 X8.57439Y17.54525
G01 X8.55966Y17.57685
G01 X8.55064Y17.61052
G01 X8.5476Y17.64525
G01 X8.5476Y18.04525
G01 X8.55064Y18.07998
G01 X8.55966Y18.11365
G01 X8.57439Y18.14525
G01 X8.59439Y18.17381
G01 X8.61904Y18.19846
G01 X8.6476Y18.21846
G01 X8.6792Y18.23319
G01 X8.71287Y18.24221
G01 X8.7476Y18.24525
G01 X9.2976Y18.24525
G01 X9.33233Y18.24221
G01 X9.366Y18.23319
G01 X9.3976Y18.21846
G01 X9.42616Y18.19846
G01 X9.45081Y18.17381
G01 X9.47081Y18.14525
G01 X9.47081Y18.14525
G01 X9.93245Y18.14525
G01 X9.93297Y18.1472
G01 X9.94954Y18.18275
G01 X9.97204Y18.21488
G01 X9.99977Y18.24261
G01 X10.0319Y18.26511
G01 X10.06745Y18.28168
G01 X10.10533Y18.29183
G01 X10.1444Y18.29525
G01 X10.6444Y18.29525
G01 X10.68347Y18.29183
G01 X10.72135Y18.28168
G01 X10.7569Y18.26511
G01 X10.78903Y18.24261
G01 X10.81676Y18.21488
G01 X10.83926Y18.18275
G01 X10.85583Y18.1472
G01 X10.86598Y18.10932
G01 X10.8694Y18.07025
G01 X10.8694Y17.62025
G01 X10.86598Y17.58118
G01 X10.85583Y17.5433
G01 X10.83926Y17.50775
G01 X10.81676Y17.47562
G01 X10.78903Y17.44789
G01 X10.7569Y17.42539
G01 X10.72135Y17.40882
G01 X10.68347Y17.39867
G01 X10.6444Y17.39525
G01 X10.1444Y17.39525
G01 X10.10533Y17.39867
G01 X10.06745Y17.40882
G01 X10.0319Y17.42539
G01 X9.99977Y17.44789
G01 X9.97204Y17.47562
G01 X9.94954Y17.50775
G01 X9.93297Y17.5433
G01 X9.93245Y17.54525
G01 X9.57685Y17.54525
G01 X9.57685Y14.575
G01 X9.72185Y14.575
G01 X10.10185Y14.575
G01 X10.24685Y14.575
G01 X10.24685Y15.25
G01 X10.24829Y15.27941
G01 X10.25261Y15.30853
G01 X10.25977Y15.33709
G01 X10.26969Y15.36481
G01 X10.28227Y15.39142
G01 X10.29741Y15.41667
G01 X10.31495Y15.44032
G01 X10.33472Y15.46213
G01 X11.30437Y16.43178
G01 X11.32618Y16.45155
G01 X11.34983Y16.46909
G01 X11.37508Y16.48423
G01 X11.40169Y16.49681
G01 X11.42941Y16.50673
G01 X11.45797Y16.51389
G01 X11.48709Y16.51821
G01 X11.5165Y16.51965
G01 X13.517Y16.51965
G01 X13.517Y16.86925
G01 X14.867Y16.86925
G01 X14.867Y15.51925
G01 X13.517Y15.51925
G01 X13.517Y15.91965
G01 X11.64076Y15.91965
G01 X10.84685Y15.12574
G01 X10.84685Y14.575
G01 X10.99185Y14.575
G01 X11.37185Y14.575
G01 X11.81685Y14.575
G01 X11.81685Y14.575
G01 X11.81685Y14.575
G01 X12.64185Y14.575
G01 X12.6679Y14.57272
G01 X12.69315Y14.56595
G01 X12.71685Y14.5549
G01 X12.73827Y14.53991
G01 X12.75676Y14.52142
G01 X12.77175Y14.5
G01 X12.7828Y14.4763
G01 X12.78957Y14.45105
G01 X12.79185Y14.425
G01 X12.79185Y14.125
G01 X12.78957Y14.09895
G01 X12.7828Y14.0737
G01 X12.77175Y14.05
G01 X12.75676Y14.02858
G01 X12.73827Y14.01009
G01 X12.71685Y13.9951
G01 X12.69315Y13.98405
G01 X12.6679Y13.97728
G01 X12.64185Y13.975
G01 X12.11685Y13.975
G01 X12.11685Y13.41015
G01 X13.17055Y13.41015
G01 X13.17055Y13.73515
G01 X13.17435Y13.77856
G01 X13.18563Y13.82066
G01 X13.20404Y13.86015
G01 X13.22904Y13.89585
G01 X13.25985Y13.92666
G01 X13.29555Y13.95166
G01 X13.33504Y13.97007
G01 X13.37714Y13.98135
G01 X13.42055Y13.98515
G01 X14.04555Y13.98515
G01 X14.08896Y13.98135
G01 X14.13106Y13.97007
G01 X14.17055Y13.95166
G01 X14.20625Y13.92666
G01 X14.23706Y13.89585
G01 X14.26206Y13.86015
G01 X14.28047Y13.82066
G01 X14.29175Y13.77856
G01 X14.29555Y13.73515
G01 X14.29555Y13.41015
G01 X14.76824Y13.41015
G01 X16.0764Y14.71831
G01 X16.0764Y17.64479
G01 X15.69334Y18.02785
G01 X12.55126Y18.02785
G01 X12.4194Y17.89599
G01 X12.4194Y17.62025
G01 X12.41598Y17.58118
G01 X12.40583Y17.5433
G01 X12.38926Y17.50775
G01 X12.36676Y17.47562
G01 X12.33903Y17.44789
G01 X12.3069Y17.42539
G01 X12.27135Y17.40882
G01 X12.23347Y17.39867
G01 X12.1944Y17.39525
G01 X11.6944Y17.39525
G01 X11.65533Y17.39867
G01 X11.61745Y17.40882
G01 X11.5819Y17.42539
G01 X11.54977Y17.44789
G01 X11.52204Y17.47562
G01 X11.49954Y17.50775
G01 X11.48297Y17.5433
G01 X11.47282Y17.58118
G01 X11.4694Y17.62025
G01 X11.4694Y18.07025
G01 X11.47282Y18.10932
G01 X11.48297Y18.1472
G01 X11.49954Y18.18275
G01 X11.52204Y18.21488
G01 X11.54977Y18.24261
G01 X11.5819Y18.26511
G01 X11.61745Y18.28168
G01 X11.65533Y18.29183
G01 X11.6944Y18.29525
G01 X11.97014Y18.29525
G01 X12.21487Y18.53998
G01 X12.23668Y18.55975
G01 X12.26033Y18.57729
G01 X12.28558Y18.59243
G01 X12.31219Y18.60501
G01 X12.33991Y18.61493
G01 X12.36847Y18.62209
G01 X12.39759Y18.62641
G01 X12.427Y18.62785
G01 X15.8176Y18.62785
G01 X15.84701Y18.62641
G01 X15.87613Y18.62209
G01 X15.90469Y18.61493
G01 X15.93241Y18.60501
G01 X15.95902Y18.59243
G01 X15.98427Y18.57729
G01 X16.00792Y18.55975
G01 X16.02973Y18.53998
G01 X16.58853Y17.98118
G01 X16.6083Y17.95937
G01 X16.62584Y17.93572
G01 X16.64098Y17.91047
G01 X16.65356Y17.88386
G01 X16.66348Y17.85614
G01 X16.67064Y17.82758
G01 X16.67496Y17.79846
G01 X16.6764Y17.76905
G01 X16.6764Y14.59405
G01 X16.67496Y14.56464
G01 X16.67064Y14.53552
G01 X16.66348Y14.50696
G01 X16.65356Y14.47924
G01 X16.64098Y14.45263
G01 X16.62584Y14.42738
G01 X16.6083Y14.40373
G01 X16.58853Y14.38192
G01 X15.10463Y12.89802
G01 X15.08282Y12.87825
G01 X15.05917Y12.86071
G01 X15.03392Y12.84557
G01 X15.00731Y12.83299
G01 X15.0Y12.83037
G01 X14.97959Y12.82307
G01 X14.95103Y12.81591
G01 X14.92191Y12.81159
G01 X14.8925Y12.81015
G01 X14.29555Y12.81015
G01 X14.29555Y12.48515
G01 X14.29175Y12.44174
G01 X14.28047Y12.39964
G01 X14.26206Y12.36015
G01 X14.23706Y12.32445
G01 X14.20625Y12.29364
G01 X14.17055Y12.26864
G01 X14.13106Y12.25023
G01 X14.08896Y12.23895
G01 X14.04555Y12.23515
G01 X13.42055Y12.23515
G01 X13.37714Y12.23895
G01 X13.33504Y12.25023
G01 X13.29555Y12.26864
G01 X13.25985Y12.29364
G01 X13.22904Y12.32445
G01 X13.20404Y12.36015
G01 X13.18563Y12.39964
G01 X13.17435Y12.44174
G01 X13.17055Y12.48515
G01 X13.17055Y12.81015
G01 X11.75126Y12.81015
G01 X11.04418Y12.10307
G01 X10.65603Y11.71492
G01 X10.63422Y11.69515
G01 X10.61057Y11.67761
G01 X10.58532Y11.66247
G01 X10.55871Y11.64989
G01 X10.53099Y11.63997
G01 X10.50243Y11.63281
G01 X10.47331Y11.62849
G01 X10.4439Y11.62705
G01 X8.16956Y11.62705
G01 X7.55511Y11.0126
G01 X8.21898Y10.34873
G01 X8.23875Y10.32692
G01 X8.25629Y10.30327
G01 X8.27143Y10.27802
G01 X8.28401Y10.25141
G01 X8.28663Y10.2441
G01 X8.29393Y10.22369
G01 X8.30109Y10.19513
G01 X8.30541Y10.16601
G01 X8.30685Y10.1366
G01 X8.30685Y9.625
G01 X8.45185Y9.625
G01 X8.83185Y9.625
G01 X9.27685Y9.625
G01 X9.27685Y9.625
G01 X9.27685Y9.625
G01 X9.72185Y9.625
G01 X10.10185Y9.625
G01 X10.54685Y9.625
G01 X10.54685Y9.625
G01 X10.54685Y9.625
G01 X10.99185Y9.625
G01 X11.37185Y9.625
G01 X11.69259Y9.625
G01 X12.46487Y10.39728
G01 X12.48668Y10.41705
G01 X12.51033Y10.43459
G01 X12.53558Y10.44973
G01 X12.56219Y10.46231
G01 X12.58991Y10.47223
G01 X12.61847Y10.47939
G01 X12.64759Y10.48371
G01 X12.677Y10.48515
G01 X13.17055Y10.48515
G01 X13.17055Y10.81015
G01 X13.17435Y10.85356
G01 X13.18563Y10.89566
G01 X13.20404Y10.93515
G01 X13.22904Y10.97085
G01 X13.25985Y11.00166
G01 X13.29555Y11.02666
G01 X13.33504Y11.04507
G01 X13.37714Y11.05635
G01 X13.42055Y11.06015
G01 X14.04555Y11.06015
G01 X14.08896Y11.05635
G01 X14.13106Y11.04507
G01 X14.17055Y11.02666
G01 X14.20625Y11.00166
G01 X14.23706Y10.97085
G01 X14.26206Y10.93515
G01 X14.28047Y10.89566
G01 X14.29175Y10.85356
G01 X14.29555Y10.81015
G01 X14.29555Y9.56015
G01 X14.29175Y9.51674
G01 X14.28047Y9.47464
G01 X14.26206Y9.43515
G01 X14.23706Y9.39945
G01 X14.20625Y9.36864
G01 X14.17055Y9.34364
G01 X14.13106Y9.32523
G01 X14.08896Y9.31395
G01 X14.04555Y9.31015
G01 X13.42055Y9.31015
G01 X13.37714Y9.31395
G01 X13.33504Y9.32523
G01 X13.29555Y9.34364
G01 X13.25985Y9.36864
G01 X13.22904Y9.39945
G01 X13.20404Y9.43515
G01 X13.18563Y9.47464
G01 X13.17435Y9.51674
G01 X13.17055Y9.56015
G01 X13.17055Y9.88515
G01 X12.80126Y9.88515
G01 X12.54111Y9.625
G01 X12.64185Y9.625
G01 X12.6679Y9.62272
G01 X12.69315Y9.61595
G01 X12.71685Y9.6049
G01 X12.73827Y9.58991
G01 X12.75676Y9.57142
G01 X12.77175Y9.55
G01 X12.7828Y9.5263
G01 X12.78957Y9.50105
G01 X12.79185Y9.475
G01 X12.79185Y9.175
G01 X12.78957Y9.14895
G01 X12.7828Y9.1237
G01 X12.77175Y9.1
G01 X12.75676Y9.07858
G01 X12.73827Y9.06009
G01 X12.71685Y9.0451
G01 X12.69315Y9.03405
G01 X12.6679Y9.02728
G01 X12.64185Y9.025
G01 X11.81685Y9.025
G01 X11.81685Y9.025
G01 X11.81685Y9.025
G01 X11.37185Y9.025
G01 X10.99185Y9.025
G01 X10.84685Y9.025
G01 X10.84685Y7.92525
G01 X11.3803Y7.92525
G01 X11.42371Y7.92145
G01 X11.46581Y7.91017
G01 X11.5053Y7.89176
G01 X11.541Y7.86676
G01 X11.57181Y7.83595
G01 X11.59681Y7.80025
G01 X11.61522Y7.76076
G01 X11.6265Y7.71866
G01 X11.6303Y7.67525
G01 X11.6303Y7.35025
G01 X13.0343Y7.35025
G01 X13.06371Y7.34881
G01 X13.09283Y7.34449
G01 X13.12139Y7.33733
G01 X13.14911Y7.32741
G01 X13.17572Y7.31483
G01 X13.20097Y7.29969
G01 X13.22462Y7.28215
G01 X13.24643Y7.26238
G01 X13.46936Y7.03945
G01 X14.3844Y7.03945
G01 X14.3844Y5.68945
G01 X13.0344Y5.68945
G01 X13.0344Y6.62589
G01 X12.91004Y6.75025
G01 X11.6303Y6.75025
G01 X11.6303Y6.42525
G01 X11.6265Y6.38184
G01 X11.61522Y6.33974
G01 X11.59681Y6.30025
G01 X11.57181Y6.26455
G01 X11.541Y6.23374
G01 X11.5053Y6.20874
G01 X11.46581Y6.19033
G01 X11.42371Y6.17905
G01 X11.3803Y6.17525
G01 X10.7553Y6.17525
G01 X10.71189Y6.17905
G01 X10.66979Y6.19033
G01 X10.6303Y6.20874
G01 X10.5946Y6.23374
G01 X10.56379Y6.26455
G01 X10.53879Y6.30025
G01 X10.52038Y6.33974
G01 X10.5091Y6.38184
G01 X10.5053Y6.42525
G01 X10.5053Y7.18849
G01 X10.33472Y7.35907
G01 X10.31495Y7.38088
G01 X10.29741Y7.40453
G01 X10.28227Y7.42978
G01 X10.26969Y7.45639
G01 X10.25977Y7.48411
G01 X10.25261Y7.51267
G01 X10.24829Y7.54179
G01 X10.24685Y7.5712
G01 X10.24685Y9.025
G01 X10.10185Y9.025
G01 X9.72185Y9.025
G01 X9.57685Y9.025
G01 X9.57685Y7.5199
G01 X9.57541Y7.49049
G01 X9.57109Y7.46137
G01 X9.56393Y7.43281
G01 X9.55401Y7.40509
G01 X9.54143Y7.37848
G01 X9.52629Y7.35323
G01 X9.50875Y7.32958
G01 X9.48898Y7.30777
G01 X9.3697Y7.18849
G01 X9.3697Y6.42525
G01 X9.3659Y6.38184
G01 X9.35462Y6.33974
G01 X9.33621Y6.30025
G01 X9.31121Y6.26455
G01 X9.2804Y6.23374
G01 X9.2447Y6.20874
G01 X9.20521Y6.19033
G01 X9.16311Y6.17905
G01 X9.1197Y6.17525
G01 X8.4947Y6.17525
G01 X8.45129Y6.17905
G01 X8.40919Y6.19033
G01 X8.3697Y6.20874
G01 X8.334Y6.23374
G01 X8.30319Y6.26455
G01 X8.27819Y6.30025
G01 X8.25978Y6.33974
G01 X8.2485Y6.38184
G01 X8.2447Y6.42525
G01 X8.2447Y6.75025
G01 X6.96496Y6.75025
G01 X6.8406Y6.62589
G01 X6.8406Y5.68945
G01 X5.4906Y5.68945
G01 X5.4906Y7.03945
G01 X6.40564Y7.03945
G01 X6.62857Y7.26238
G01 X6.65038Y7.28215
G01 X6.67403Y7.29969
G01 X6.69928Y7.31483
G01 X6.72589Y7.32741
G01 X6.75361Y7.33733
G01 X6.78217Y7.34449
G01 X6.81129Y7.34881
G01 X6.8407Y7.35025
G01 X8.2447Y7.35025
G01 X8.2447Y7.67525
G01 X8.2485Y7.71866
G01 X8.25978Y7.76076
G01 X8.27819Y7.80025
G01 X8.30319Y7.83595
G01 X8.334Y7.86676
G01 X8.3697Y7.89176
G01 X8.40919Y7.91017
G01 X8.45129Y7.92145
G01 X8.4947Y7.92525
G01 X8.97685Y7.92525
G01 X8.97685Y9.025
G01 X8.83185Y9.025
G01 X8.45185Y9.025
G01 X8.00685Y9.025
G01 X8.00685Y9.025
G01 X8.00685Y9.025
G01 X7.18185Y9.025
G01 X7.1558Y9.02728
G01 X7.13055Y9.03405
G01 X7.10685Y9.0451
G01 X7.08543Y9.06009
G01 X7.06694Y9.07858
G01 X7.05195Y9.1
G01 X7.0409Y9.1237
G01 X7.03413Y9.14895
G01 X7.03185Y9.175
G01 X7.03185Y9.475
G01 X7.03413Y9.50105
G01 X7.0409Y9.5263
G01 X7.05195Y9.55
G01 X7.06694Y9.57142
G01 X7.08543Y9.58991
G01 X7.10685Y9.6049
G01 X7.13055Y9.61595
G01 X7.1558Y9.62272
G01 X7.18185Y9.625
G01 X7.70685Y9.625
G01 X7.70685Y10.01234
G01 X7.00659Y10.7126
G01 X6.7345Y10.7126
G01 X6.72728Y10.68565
G01 X6.71071Y10.6501
G01 X6.68821Y10.61797
G01 X6.66048Y10.59024
G01 X6.62835Y10.56774
G01 X6.5928Y10.55117
G01 X6.55492Y10.54102
G01 X6.51585Y10.5376
G01 X6.06585Y10.5376
G01 X6.02678Y10.54102
G01 X5.9889Y10.55117
G01 X5.95335Y10.56774
G01 X5.92122Y10.59024
G01 X5.89349Y10.61797
G01 X5.87099Y10.6501
G01 X5.85442Y10.68565
G01 X5.8472Y10.7126
G01 X5.73101Y10.7126
G01 X4.707Y9.68859
G01 X4.707Y8.71205
G01 X3.357Y8.71205
G01 X3.357Y10.06205
G01 X4.23194Y10.06205
G01 X5.39462Y11.22473
G01 X5.41643Y11.2445
G01 X5.44008Y11.26204
G01 X5.46533Y11.27718
G01 X5.49194Y11.28976
G01 X5.51966Y11.29968
G01 X5.54822Y11.30684
G01 X5.57734Y11.31116
G01 X5.60675Y11.3126
G01 X5.8472Y11.3126
G01 X5.85442Y11.33955
G01 X5.87099Y11.3751
G01 X5.89349Y11.40723
G01 X5.92122Y11.43496
G01 X5.95335Y11.45746
G01 X5.9889Y11.47403
G01 X6.02678Y11.48418
G01 X6.06585Y11.4876
G01 X6.51585Y11.4876
G01 X6.55492Y11.48418
G01 X6.5928Y11.47403
G01 X6.62835Y11.45746
G01 X6.66048Y11.43496
G01 X6.68821Y11.40723
G01 X6.71071Y11.3751
G01 X6.72728Y11.33955
G01 X6.7345Y11.3126
G01 X7.00659Y11.3126
G01 X7.83317Y12.13918
G01 X7.85498Y12.15895
G01 X7.87863Y12.17649
G01 X7.90388Y12.19163
G01 X7.93049Y12.20421
G01 X7.95821Y12.21413
G01 X7.98677Y12.22129
G01 X8.01589Y12.22561
G01 X8.0453Y12.22705
G01 X10.31964Y12.22705
G01 X10.61992Y12.52733
G01 X11.41487Y13.32228
G01 X11.51685Y13.42426
G01 X11.51685Y13.975
G01 X11.37185Y13.975
G01 X10.99185Y13.975
G01 X10.54685Y13.975
G01 X10.54685Y13.975
G01 X10.54685Y13.975
G01 X10.10185Y13.975
G01 X9.72185Y13.975
G01 X9.27685Y13.975
G01 X9.27685Y13.975
G01 X9.27685Y13.975
G01 X8.83185Y13.975
G01 X8.45185Y13.975
G01 X8.30685Y13.975
G01 X8.30685Y13.4635
G01 X8.30541Y13.43409
G01 X8.30109Y13.40497
G01 X8.29393Y13.37641
G01 X8.28401Y13.34869
G01 X8.27143Y13.32208
G01 X8.25629Y13.29683
G01 X8.23875Y13.27318
G01 X8.21898Y13.25137
G01 X7.31808Y12.35047
G01 X7.29627Y12.3307
G01 X7.27262Y12.31316
G01 X7.24737Y12.29802
G01 X7.22076Y12.28544
G01 X7.19304Y12.27552
G01 X7.16448Y12.26836
G01 X7.13536Y12.26404
G01 X7.10595Y12.2626
G01 X6.7345Y12.2626
G01 X6.72728Y12.23565
G01 X6.71071Y12.2001
G01 X6.68821Y12.16797
G01 X6.66048Y12.14024
G01 X6.62835Y12.11774
G01 X6.5928Y12.10117
G01 X6.55492Y12.09102
G01 X6.51585Y12.0876
G01 X6.06585Y12.0876
G01 X6.02678Y12.09102
G01 X5.9889Y12.10117
G01 X5.95335Y12.11774
G01 X5.92122Y12.14024
G01 X5.89349Y12.16797
G01 X5.87099Y12.2001
G01 X5.85442Y12.23565
G01 X5.8472Y12.2626
G01 X5.63165Y12.2626
G01 X5.60224Y12.26404
G01 X5.57312Y12.26836
G01 X5.54456Y12.27552
G01 X5.51684Y12.28544
G01 X5.49023Y12.29802
G01 X5.46498Y12.31316
G01 X5.44133Y12.3307
G01 X5.41952Y12.35047
G01 X5.41952Y12.35047
G01 X4.28274Y13.48725
G01 X3.78126Y13.48725
G01 X2.3Y12.00599
G01 X2.3Y7.04751
G01 X4.92226Y4.42525
G01 X8.2447Y4.42525
G01 X8.2447Y4.75025
G01 X8.2485Y4.79366
G01 X8.25978Y4.83576
G01 X8.27819Y4.87525
G01 X8.30319Y4.91095
G01 X8.334Y4.94176
G01 X8.3697Y4.96676
G01 X8.40919Y4.98517
G01 X8.45129Y4.99645
G01 X8.4947Y5.00025
G01 X9.1197Y5.00025
G01 X9.16311Y4.99645
G01 X9.20521Y4.98517
G01 X9.2447Y4.96676
G01 X9.2804Y4.94176
G01 X9.31121Y4.91095
G01 X9.33621Y4.87525
G01 X9.35462Y4.83576
G01 X9.3659Y4.79366
G01 X9.3697Y4.75025
G01 X9.3697Y4.42525
G01 X10.5053Y4.42525
G01 X10.5053Y4.75025
G01 X10.5091Y4.79366
G01 X10.52038Y4.83576
G01 X10.53879Y4.87525
G01 X10.56379Y4.91095
G01 X10.5946Y4.94176
G01 X10.6303Y4.96676
G01 X10.66979Y4.98517
G01 X10.71189Y4.99645
G01 X10.7553Y5.00025
G01 X11.3803Y5.00025
G01 X11.42371Y4.99645
G01 X11.46581Y4.98517
G01 X11.5053Y4.96676
G01 X11.541Y4.94176
G01 X11.57181Y4.91095
G01 X11.59681Y4.87525
G01 X11.61522Y4.83576
G01 X11.6265Y4.79366
G01 X11.6303Y4.75025
G01 X11.6303Y3.50025
G01 X11.6265Y3.45684
G01 X11.61522Y3.41474
G01 X11.59681Y3.37525
G01 X11.57181Y3.33955
G01 X11.541Y3.30874
G01 X11.5053Y3.28374
G01 X11.46581Y3.26533
G01 X11.42371Y3.25405
G01 X11.3803Y3.25025
G01 X10.7553Y3.25025
G01 X10.71189Y3.25405
G01 X10.66979Y3.26533
G01 X10.6303Y3.28374
G01 X10.5946Y3.30874
G01 X10.56379Y3.33955
G01 X10.53879Y3.37525
G01 X10.52038Y3.41474
G01 X10.5091Y3.45684
G01 X10.5053Y3.50025
G01 X10.5053Y3.82525
G01 X9.3697Y3.82525
G01 X9.3697Y3.50025
G01 X9.3659Y3.45684
G01 X9.35462Y3.41474
G01 X9.33621Y3.37525
G01 X9.31121Y3.33955
G01 X9.2804Y3.30874
G01 X9.2447Y3.28374
G01 X9.20521Y3.26533
G01 X9.16311Y3.25405
G01 X9.1197Y3.25025
G01 X8.4947Y3.25025
G01 X8.45129Y3.25405
G01 X8.40919Y3.26533
G01 X8.3697Y3.28374
G01 X8.334Y3.30874
G01 X8.30319Y3.33955
G01 X8.27819Y3.37525
G01 X8.25978Y3.41474
G01 X8.2485Y3.45684
G01 X8.2447Y3.50025
G01 X8.2447Y3.82525
G01 X4.798Y3.82525
G01 X4.76859Y3.82669
G01 X4.73947Y3.83101
G01 X4.71091Y3.83817
G01 X4.68319Y3.84809
G01 X4.65658Y3.86067
G01 X4.63133Y3.87581
G01 X4.60768Y3.89335
G01 X4.58587Y3.91312
G01 X4.58587Y3.91312
G01 X1.78787Y6.71112
G01 X1.7681Y6.73293
G01 X1.75056Y6.75658
G01 X1.73542Y6.78183
G01 X1.72284Y6.80844
G01 X1.71292Y6.83616
G01 X1.70576Y6.86472
G01 X1.70144Y6.89384
G01 X1.7Y6.92325
G01 X1.7Y12.13025
G01 X1.70144Y12.15966
G01 X1.70576Y12.18878
G01 X1.71292Y12.21734
G01 X1.72284Y12.24506
G01 X1.73542Y12.27167
G01 X1.75056Y12.29692
G01 X1.7681Y12.32057
G01 X1.78787Y12.34238
G01 X3.357Y13.91151
G01 X3.357Y14.83725
G01 X4.707Y14.83725
G01 X4.707Y13.91151
G01 X5.75591Y12.8626
G01 X5.8472Y12.8626
G01 X5.85442Y12.88955
G01 X5.87099Y12.9251
G01 X5.89349Y12.95723
G01 X5.92122Y12.98496
G01 X5.95335Y13.00746
G01 X5.9889Y13.02403
G01 X6.02678Y13.03418
G01 X6.06585Y13.0376
G01 X6.51585Y13.0376
G01 X6.55492Y13.03418
G01 X6.5928Y13.02403
G01 X6.62835Y13.00746
G01 X6.66048Y12.98496
G01 X6.68821Y12.95723
G01 X6.71071Y12.9251
G01 X6.72728Y12.88955
G01 X6.7345Y12.8626
G01 X6.98169Y12.8626
G01 X7.70685Y13.58776
G01 X7.70685Y13.975
G01 X7.18185Y13.975
G01 X7.1558Y13.97728
G01 X7.13055Y13.98405
G01 X7.10685Y13.9951
G01 X7.08543Y14.01009
G01 X7.06694Y14.02858
G01 X7.05195Y14.05
G01 X7.0409Y14.0737
G01 X7.03413Y14.09895
G01 X7.03185Y14.125
G01 X7.03185Y14.425
G01 X7.03413Y14.45105
G01 X7.0409Y14.4763
G01 X7.05195Y14.5
G01 X7.06694Y14.52142
G01 X7.08543Y14.53991
G01 X7.10685Y14.5549
G01 X7.13055Y14.56595
G01 X7.1558Y14.57272
G01 X7.18185Y14.575
G01 X7.70685Y14.575
G01 X7.70685Y17.08674
G01 X7.34834Y17.44525
G01 X7.0976Y17.44525
G01 X7.06287Y17.44829
G01 X7.0292Y17.45731
G01 X6.9976Y17.47204
G01 X6.96904Y17.49204
G01 X6.94439Y17.51669
G01 X6.92439Y17.54525
G01 X6.90966Y17.57685
G01 X6.90064Y17.61052
G01 X6.8976Y17.64525
G01 X6.8976Y18.04525
G01 X6.90064Y18.07998
G01 X6.90966Y18.11365
G01 X6.92439Y18.14525
G01 X6.94439Y18.17381
G01 X6.96904Y18.19846
G01 X6.9976Y18.21846
G01 X7.0292Y18.23319
G01 X7.06287Y18.24221
G01 X7.0976Y18.24525
G01 X7.6476Y18.24525
G01 X7.68233Y18.24221
G01 X7.716Y18.23319
G01 X7.7476Y18.21846
G01 X7.77616Y18.19846
G01 X7.80081Y18.17381
G01 X7.82081Y18.14525
G01 X7.83554Y18.11365
G01 X7.84456Y18.07998
G01 X7.8476Y18.04525
G01 X7.8476Y17.79451
G01 X8.21898Y17.42313
G01 X8.23875Y17.40132
G01 X8.25629Y17.37767
G01 X8.27143Y17.35242
G01 X8.28401Y17.32581
G01 X8.29393Y17.29809
G01 X8.30109Y17.26953
G01 X8.30109Y17.26953
M5
G01 X0.08209Y12.43109
M3
G01 X0.14272Y13.05959
G01 X0.24349Y13.68291
G01 X0.384Y14.2985
G01 X0.56365Y14.90382
G01 X0.78172Y15.49638
G01 X1.03731Y16.07375
G01 X1.32936Y16.63357
G01 X1.65668Y17.17352
G01 X2.01793Y17.69139
G01 X2.41161Y18.18505
G01 X2.83611Y18.65247
G01 X3.28969Y19.09174
G01 X3.77048Y19.50104
G01 X4.2765Y19.8787
G01 X4.80568Y20.22316
G01 X5.35585Y20.533
G01 X5.92473Y20.80696
G01 X6.51Y21.04391
G01 X7.10925Y21.24288
G01 X7.72002Y21.40304
G01 X8.33979Y21.52374
G01 X8.96602Y21.60448
G01 X9.59614Y21.64494
G01 X10.22756Y21.64494
G01 X10.85768Y21.60448
G01 X11.48391Y21.52374
G01 X12.10368Y21.40304
G01 X12.71445Y21.24288
G01 X13.3137Y21.04391
G01 X13.89897Y20.80696
G01 X14.46785Y20.533
G01 X15.01802Y20.22316
G01 X15.5472Y19.8787
G01 X16.05322Y19.50104
G01 X16.53401Y19.09174
G01 X16.98759Y18.65247
G01 X17.41209Y18.18505
G01 X17.80577Y17.69139
G01 X18.16702Y17.17352
G01 X18.49434Y16.63357
G01 X18.78639Y16.07375
G01 X19.04198Y15.49638
G01 X19.26005Y14.90382
G01 X19.4397Y14.2985
G01 X19.58021Y13.68291
G01 X19.68098Y13.05959
G01 X19.74161Y12.43109
G01 X19.76185Y11.8
G01 X19.66185Y11.8
G01 X19.64182Y12.42468
G01 X19.5818Y13.0468
G01 X19.48205Y13.6638
G01 X19.34297Y14.27313
G01 X19.16514Y14.87231
G01 X18.94929Y15.45885
G01 X18.6963Y16.03037
G01 X18.40721Y16.5845
G01 X18.08321Y17.11897
G01 X17.72563Y17.63158
G01 X17.33595Y18.12023
G01 X16.91576Y18.5829
G01 X16.46678Y19.01771
G01 X15.99088Y19.42286
G01 X15.48999Y19.79668
G01 X14.96618Y20.13764
G01 X14.4216Y20.44434
G01 X13.85849Y20.71552
G01 X13.27916Y20.95007
G01 X12.68599Y21.14701
G01 X12.08143Y21.30555
G01 X11.46795Y21.42502
G01 X10.84807Y21.50495
G01 X10.22435Y21.54499
G01 X9.59935Y21.54499
G01 X8.97563Y21.50495
G01 X8.35575Y21.42502
G01 X7.74227Y21.30555
G01 X7.13771Y21.14701
G01 X6.54454Y20.95007
G01 X5.96521Y20.71552
G01 X5.4021Y20.44434
G01 X4.85752Y20.13764
G01 X4.33371Y19.79668
G01 X3.83282Y19.42286
G01 X3.35692Y19.01771
G01 X2.90794Y18.5829
G01 X2.48775Y18.12023
G01 X2.09807Y17.63158
G01 X1.74049Y17.11897
G01 X1.41649Y16.5845
G01 X1.1274Y16.03037
G01 X0.87441Y15.45885
G01 X0.65856Y14.87231
G01 X0.48073Y14.27313
G01 X0.34165Y13.6638
G01 X0.2419Y13.0468
G01 X0.18188Y12.42468
G01 X0.16185Y11.8
G01 X0.18188Y11.17532
G01 X0.2419Y10.5532
G01 X0.34165Y9.9362
G01 X0.48073Y9.32687
G01 X0.65856Y8.72769
G01 X0.87441Y8.14115
G01 X1.1274Y7.56963
G01 X1.41649Y7.0155
G01 X1.74049Y6.48103
G01 X2.09807Y5.96842
G01 X2.48775Y5.47977
G01 X2.90794Y5.0171
G01 X3.35692Y4.58229
G01 X3.83282Y4.17714
G01 X4.33371Y3.80332
G01 X4.85752Y3.46236
G01 X5.4021Y3.15566
G01 X5.96521Y2.88448
G01 X6.54454Y2.64993
G01 X7.13771Y2.45299
G01 X7.74227Y2.29445
G01 X8.35575Y2.17498
G01 X8.97563Y2.09505
G01 X9.59935Y2.05501
G01 X10.22435Y2.05501
G01 X10.84807Y2.09505
G01 X11.46795Y2.17498
G01 X12.08143Y2.29445
G01 X12.68599Y2.45299
G01 X13.27916Y2.64993
G01 X13.85849Y2.88448
G01 X14.4216Y3.15566
G01 X14.96618Y3.46236
G01 X15.48999Y3.80332
G01 X15.99088Y4.17714
G01 X16.46678Y4.58229
G01 X16.91576Y5.0171
G01 X17.33595Y5.47977
G01 X17.72563Y5.96842
G01 X18.08321Y6.48103
G01 X18.40721Y7.0155
G01 X18.6963Y7.56963
G01 X18.94929Y8.14115
G01 X19.16514Y8.72769
G01 X19.34297Y9.32687
G01 X19.48205Y9.9362
G01 X19.5818Y10.5532
G01 X19.64182Y11.17532
G01 X19.66185Y11.8
G01 X19.76185Y11.8
G01 X19.74161Y11.16891
G01 X19.68098Y10.54041
G01 X19.58021Y9.91709
G01 X19.4397Y9.3015
G01 X19.26005Y8.69618
G01 X19.04198Y8.10362
G01 X18.78639Y7.52625
G01 X18.49434Y6.96643
G01 X18.16702Y6.42648
G01 X17.80577Y5.90861
G01 X17.41209Y5.41495
G01 X16.98759Y4.94753
G01 X16.53401Y4.50826
G01 X16.05322Y4.09896
G01 X15.5472Y3.7213
G01 X15.01802Y3.37684
G01 X14.46785Y3.067
G01 X13.89897Y2.79304
G01 X13.3137Y2.55609
G01 X12.71445Y2.35712
G01 X12.10368Y2.19696
G01 X11.48391Y2.07626
G01 X10.85768Y1.99552
G01 X10.22756Y1.95506
G01 X9.59614Y1.95506
G01 X8.96602Y1.99552
G01 X8.33979Y2.07626
G01 X7.72002Y2.19696
G01 X7.10925Y2.35712
G01 X6.51Y2.55609
G01 X5.92473Y2.79304
G01 X5.35585Y3.067
G01 X4.80568Y3.37684
G01 X4.2765Y3.7213
G01 X3.77048Y4.09896
G01 X3.28969Y4.50826
G01 X2.83611Y4.94753
G01 X2.41161Y5.41495
G01 X2.01793Y5.90861
G01 X1.65668Y6.42648
G01 X1.32936Y6.96643
G01 X1.03731Y7.52625
G01 X0.78172Y8.10362
G01 X0.56365Y8.69618
G01 X0.384Y9.3015
G01 X0.24349Y9.91709
G01 X0.14272Y10.54041
G01 X0.08209Y11.16891
G01 X0.06185Y11.8
G01 X0.08209Y12.43109
G01 X0.08209Y12.43109
M5

M5 ; Disable End-Effector Signal

; Returning the Deactivating Tool-1
C0 ; PWM Tool select demultiplexer to select tool zero which is the empty tool slot in multiplexers
#TODO X-0.0Y-0.0Z-0.0 ;  ;Remove tool offset coordinate
G00X165.0Y0.0Z10.5 ; Go to Tool-1 Home Pos
G00X92 ; Enter Female Kinematic Mount Home Pos
A0 ; Latch OFF Kinematic Mount
G4 P5 ; Wait for Kinematic Mount to fully detach
G00X188 ; Exit Female Kinematic Mount Home Pos

; Machine deinitialization Sequence... 
G00X0.0Y0.0Z0.0
B0 ; Turn Machine OFF
